; generated by PrusaSlicer 2.6.0+linux-x64-GTK3 on 2023-08-20 at 23:48:29 UTC


;
;

;
;

;
;
; 

; external perimeters extrusion width = 0.45mm
; perimeters extrusion width = 0.45mm
; infill extrusion width = 0.45mm
; solid infill extrusion width = 0.45mm
; top infill extrusion width = 0.40mm
; first layer extrusion width = 0.50mm

M73 P0 R1
M201 X2500 Y2500 Z200 E2500 ; sets maximum accelerations, mm/sec^2
M203 X200 Y200 Z40 E100 ; sets maximum feedrates, mm / sec
M204 P2000 R1200 T2000 ; sets acceleration (P, T) and retract acceleration (R), mm/sec^2
M205 X8.00 Y8.00 Z2.00 E10.00 ; sets the jerk limits, mm/sec
M205 S0 T0 ; sets the minimum extruding and travel feed rate, mm/sec
;TYPE:Custom
M17 ; enable steppers
M862.3 P "MK4" ; printer model check
M862.1 P0.4 ; nozzle diameter check
M555 X122.439 Y94.959 W32 H9.12121

G90 ; use absolute coordinates
M83 ; extruder relative mode

M140 S100 ; set bed temp

M104 S170 ; set extruder temp for bed leveling
M109 R170 ; wait for temp


M84 E ; turn off E motor

G28 ; home all without mesh bed level

G1 X42 Y-4 Z5 F4800

M302 S160 ; lower cold extrusion limit to 160C


G1 E-2 F2400 ; retraction


M84 E ; turn off E motor

G29 P9 X10 Y-4 W32 H4



G0 Z40 F10000

M190 S100 ; wait for bed temp

M107

;
; MBL
;
M84 E ; turn off E motor
G29 P1 ; invalidate mbl & probe print area
G29 P1 X0 Y0 W50 H20 C ; probe near purge place
G29 P3.2 ; interpolate mbl probes
G29 P3.13 ; extrapolate mbl outside probe area
G29 A ; activate mbl

; prepare for purge
M104 S255
G0 X0 Y-4 Z15 F4800 ; move away and ready for the purge
M109 S255

G92 E0
M569 S0 E ; set spreadcycle mode for extruder

;
; Extrude purge line
;
G92 E0 ; reset extruder position
M73 P1 R1
G1 E2 F2400 ; deretraction after the initial one before nozzle cleaning
G0 E7 X15 Z0.2 F500 ; purge
G0 X25 E4 F500 ; purge
G0 X35 E4 F650 ; purge
G0 X45 E4 F800 ; purge
G0 X48 Z0.05 F8000 ; wipe, move close to the bed
G0 X51 Z0.2 F8000 ; wipe, move quickly away from the bed

G92 E0
M221 S100 ; set flow to 100%
G21 ; set units to millimeters
G90 ; use absolute coordinates
M83 ; use relative distances for extrusion
M900 K0.04 ; Filament gcode



M142 S40 ; set heatbreak target temp
M107
;LAYER_CHANGE
;Z:0.2
;HEIGHT:0.2
;BEFORE_LAYER_CHANGE
G92 E0.0
;0.2


G1 E-.8 F2100
M73 P2 R1
G1 Z.2 F720
;AFTER_LAYER_CHANGE
;0.2
; printing object 4 Leafs Clover.stl id:0 copy 0
M73 P4 R1
G1 Z.4
G1 X123.295 Y101.519 F12000
M73 P7 R1
G1 Z.2 F720
M73 P9 R1
G1 E.8 F1500
M204 P600
;TYPE:External perimeter
;WIDTH:0.518192
M73 P10 R1
G1 F900
M73 P11 R1
G1 X123.248 Y101.593 E.00346
M73 P12 R1
G1 X122.941 Y101.808 E.01481
G1 X122.721 Y101.885 E.00921
G1 X122.713 Y101.692 E.00763
G1 X122.727 Y101.17 E.02064
G1 X122.891 Y101.212 E.00669
M73 P13 R1
G1 X123.213 Y101.413 E.015
G1 X123.258 Y101.472 E.00293
M204 P1000
G1 X123.216 Y101.558 F12000
G1 E-.64 F2100
;WIPE_START
G1 F9600
G1 X123.248 Y101.593 E-.02523
G1 X122.941 Y101.808 E-.07789
G1 X122.721 Y101.885 E-.04844
G1 X122.719 Y101.844 E-.00844
;WIPE_END
G1 Z.4 F720
G1 X124.996 Y103.231 F12000
G1 Z.2 F720
G1 E.8 F1500
M204 P600
;WIDTH:0.526361
G1 F900
G1 X125.163 Y103.385 E.00913
G1 X125.363 Y103.773 E.01755
G1 X125.296 Y103.812 E.00312
G1 X124.633 Y103.795 E.02666
G1 X124.788 Y103.464 E.01469
G1 X124.956 Y103.276 E.01014
M204 P1000
G1 X125.076 Y103.443 F12000
G1 E-.64 F2100
;WIPE_START
G1 F9600
G1 X125.163 Y103.385 E-.04862
G1 X125.363 Y103.773 E-.09071
G1 X125.296 Y103.812 E-.01611
M73 P14 R1
G1 X125.274 Y103.811 E-.00456
;WIPE_END
G1 Z.4 F720
G1 X127.29 Y101.192 F12000
G1 Z.2 F720
G1 E.8 F1500
M204 P600
;WIDTH:0.522606
G1 F900
G1 X127.274 Y101.886 E.02769
G1 X126.894 Y101.709 E.01672
G1 X126.709 Y101.519 E.01058
G1 X126.899 Y101.337 E.01049
G1 X127.254 Y101.151 E.01599
M204 P1000
G1 X127.146 Y101.565 F12000
G1 E-.64 F2100
;WIPE_START
G1 F9600
G1 X127.274 Y101.886 E-.1528
G1 X127.243 Y101.871 E-.0072
;WIPE_END
G1 Z.4 F720
G1 X124.988 Y99.808 F12000
G1 Z.2 F720
G1 E.8 F1500
M204 P600
;WIDTH:0.525317
G1 F900
G1 X124.812 Y99.618 E.01039
G1 X124.636 Y99.244 E.01658
G1 X125.36 Y99.245 E.02904
G1 X125.352 Y99.306 E.00247
G1 X125.114 Y99.72 E.01915
G1 X125.037 Y99.774 E.00377
M204 P1000
M73 P15 R1
G1 X124.914 Y99.559 F12000
; stop printing object 4 Leafs Clover.stl id:0 copy 0
;LAYER_CHANGE
;Z:0.4
;HEIGHT:0.2
;BEFORE_LAYER_CHANGE
G92 E0.0
;0.4


G1 E-.64 F2100
;WIPE_START
G1 F9600
G1 X124.812 Y99.618 E-.0569
G1 X124.636 Y99.244 E-.0859
G1 X124.719 Y99.244 E-.0172
;WIPE_END
G1 Z.4 F720
;AFTER_LAYER_CHANGE
;0.4
M140 S110 ; set bed temperature
; printing object 4 Leafs Clover.stl id:0 copy 0
G1 Z.6
G1 X123.164 Y101.626 F12000
G1 Z.4 F720
G1 E.8 F1500
M204 P900
;TYPE:Perimeter
;WIDTH:0.48459
G1 F900

G1 X123.105 Y101.695 E.00333
G1 X122.616 Y102.095 E.0232
G1 X122.72 Y101.768 E.0126
G1 X122.737 Y101.3 E.0172
G1 X122.617 Y100.958 E.01331
G1 X122.821 Y101.104 E.00921
G1 X123.26 Y101.513 E.02204
G1 X123.203 Y101.58 E.00323

M204 P1000
G1 X123.492 Y101.906 F12000
M204 P700
;TYPE:External perimeter
;WIDTH:0.449999
G1 F900

G1 X123.105 Y102.243 E.01737

M204 P1000
;TYPE:Overhang perimeter

G1 X122.626 Y102.597 E.02016
G1 X122.326 Y102.692 E.01065
G1 X122.169 Y102.634 E.00567
G1 X122.093 Y102.451 E.00671
G1 X122.12 Y102.21 E.00821
M73 P16 R1
G1 X122.245 Y101.872 E.0122

M204 P700
;TYPE:External perimeter

G1 X122.297 Y101.732 E.00506
G1 X122.31 Y101.344 E.01314
G1 X122.245 Y101.168 E.00635

M204 P1000
;TYPE:Overhang perimeter

G1 X122.097 Y100.766 E.0145
G1 X122.104 Y100.54 E.00765
G1 X122.184 Y100.415 E.00502
G1 X122.331 Y100.348 E.00547
G1 X122.623 Y100.441 E.01037
G1 X123.148 Y100.815 E.02182

M204 P700
;TYPE:External perimeter

G1 X123.211 Y100.86 E.00262
G1 X123.649 Y101.302 E.02106
G1 X123.748 Y101.545 E.00888


G1 X123.526 Y101.857 E.01296

M204 P1000
G1 E-.64 F2100
;WIPE_START
G1 F9600
M73 P16 R0
G1 X123.105 Y102.243 E-.1187
;WIPE_END
G1 E-.0413 F2100
G1 Z.6 F720
G1 X124.992 Y103.259 F12000
G1 Z.4 F720
G1 E.8 F1500
M204 P900
;TYPE:Perimeter
;WIDTH:0.484848
G1 F900

G1 X125.17 Y103.41 E.00858
G1 X125.542 Y103.882 E.02208
G1 X125.126 Y103.787 E.01568
G1 X124.7 Y103.808 E.01567
G1 X124.425 Y103.912 E.0108
G1 X124.601 Y103.665 E.01114
G1 X124.95 Y103.302 E.0185

M204 P1000
G1 X124.812 Y102.854 F12000
M204 P700
;TYPE:External perimeter
;WIDTH:0.449999
M73 P17 R0
G1 F900

G1 X125.013 Y102.762 E.00748
G1 X125.164 Y102.84 E.00575
G1 X125.596 Y103.236 E.01984
G1 X125.719 Y103.404 E.00705

M204 P1000
;TYPE:Overhang perimeter

G1 X126.074 Y103.891 E.0204
G1 X126.164 Y104.211 E.01125


G1 X126.159 Y104.269 E.00197
G1 X126.055 Y104.385 E.00527
G1 X125.839 Y104.439 E.00754
G1 X125.373 Y104.272 E.01676

M204 P700
;TYPE:External perimeter

G1 X125.272 Y104.236 E.00363
G1 X124.941 Y104.193 E.0113
G1 X124.691 Y104.277 E.00893

M204 P1000
;TYPE:Overhang perimeter

G1 X124.394 Y104.378 E.01062
G1 X124.044 Y104.436 E.01201
G1 X123.871 Y104.328 E.0069
G1 X123.836 Y104.182 E.00508
G1 X123.923 Y103.893 E.01022
G1 X124.221 Y103.459 E.01782
G1 X124.294 Y103.375 E.00377

M204 P700
;TYPE:External perimeter

G1 X124.514 Y103.122 E.01135
G1 X124.768 Y102.894 E.01155

M204 P1000
G1 X125.007 Y102.96 F12000
G1 E-.64 F2100
;WIPE_START
G1 F9600
G1 X125.013 Y102.762 E-.05783
G1 X125.164 Y102.84 E-.03532
G1 X125.401 Y103.057 E-.06685
;WIPE_END
G1 Z.6 F720
G1 X127.305 Y101.193 F12000
G1 Z.4 F720
G1 E.8 F1500
M204 P900
;TYPE:Perimeter
;WIDTH:0.48459
G1 F900

G1 X127.28 Y101.271 E.00301
G1 X127.263 Y101.739 E.0172
M73 P18 R0
G1 X127.383 Y102.081 E.01331
G1 X127.179 Y101.936 E.00919
G1 X126.74 Y101.526 E.02206
G1 X126.895 Y101.345 E.00875
G1 X127.384 Y100.944 E.02322
G1 X127.323 Y101.136 E.0074

M204 P1000
G1 X127.7 Y101.393 F12000
M204 P700
;TYPE:External perimeter
;WIDTH:0.449999
G1 F900

G1 X127.69 Y101.695 E.01023
G1 X127.755 Y101.871 E.00635

M204 P1000
;TYPE:Overhang perimeter

G1 X127.903 Y102.273 E.0145


G1 X127.896 Y102.5 E.00769
G1 X127.816 Y102.624 E.00499
G1 X127.672 Y102.691 E.00538
G1 X127.377 Y102.598 E.01047
G1 X126.852 Y102.224 E.02182

M204 P700
;TYPE:External perimeter

G1 X126.789 Y102.179 E.00262
G1 X126.351 Y101.737 E.02106
G1 X126.252 Y101.494 E.00888
G1 X126.508 Y101.133 E.01498
G1 X126.895 Y100.796 E.01737

M204 P1000
;TYPE:Overhang perimeter

G1 X127.374 Y100.442 E.02016
G1 X127.677 Y100.348 E.01074
G1 X127.831 Y100.406 E.00557
G1 X127.907 Y100.589 E.00671
G1 X127.88 Y100.829 E.00817
G1 X127.755 Y101.167 E.0122

M204 P700
;TYPE:External perimeter

G1 X127.702 Y101.333 E.0059

M204 P1000
G1 E-.64 F2100
;WIPE_START
G1 F9600
M73 P19 R0
G1 X127.69 Y101.695 E-.07527
G1 X127.755 Y101.871 E-.03899
;WIPE_END
G1 E-.04574 F2100
G1 Z.6 F720
G1 X125.283 Y99.223 F12000
G1 Z.4 F720
G1 E.8 F1500
M204 P900
;TYPE:Perimeter
;WIDTH:0.483673
G1 F900

G1 X125.576 Y99.13 E.01127
G1 X125.415 Y99.343 E.00979
G1 X125.004 Y99.792 E.02231
G1 X124.672 Y99.462 E.01716
G1 X124.438 Y99.141 E.01456
G1 X124.752 Y99.239 E.01206
G1 X125.151 Y99.265 E.01465
G1 X125.226 Y99.241 E.00289

M204 P1000
G1 X125.176 Y98.83 F12000
M204 P700
;TYPE:External perimeter
;WIDTH:0.449999
G1 F900

G1 X125.346 Y98.764 E.00617

M204 P1000
;TYPE:Overhang perimeter

G1 X125.717 Y98.623 E.01343
G1 X125.98 Y98.618 E.0089
G1 X126.137 Y98.727 E.00647
G1 X126.159 Y98.897 E.0058


G1 X126.09 Y99.104 E.00739
G1 X125.718 Y99.636 E.02197

M204 P700
;TYPE:External perimeter

G1 X125.294 Y100.102 E.02133
G1 X125.033 Y100.275 E.0106
G1 X124.775 Y100.162 E.00953
G1 X124.341 Y99.73 E.02073
G1 X124.298 Y99.671 E.00247

M204 P1000
;TYPE:Overhang perimeter

M73 P20 R0
G1 X123.971 Y99.218 E.01891
G1 X123.863 Y98.974 E.00903
G1 X123.837 Y98.784 E.00649
G1 X123.953 Y98.636 E.00637
G1 X124.174 Y98.611 E.00753
G1 X124.636 Y98.766 E.01649

M204 P700
;TYPE:External perimeter

G1 X124.788 Y98.817 E.00543
G1 X125.116 Y98.828 E.01111

M204 P1000
G1 X125.297 Y98.966 F12000
; stop printing object 4 Leafs Clover.stl id:0 copy 0
;LAYER_CHANGE
;Z:0.6
;HEIGHT:0.2
;BEFORE_LAYER_CHANGE
G92 E0.0
;0.6


G1 E-.64 F2100
;WIPE_START
G1 F9600
G1 X125.346 Y98.764 E-.04961
;WIPE_END
G1 E-.11039 F2100
G1 Z.6 F720
;AFTER_LAYER_CHANGE
;0.6
; printing object 4 Leafs Clover.stl id:0 copy 0
G1 Z.8
G1 X122.556 Y101.561 F12000
G1 Z.6 F720
G1 E.8 F1500
M204 P900
;TYPE:Perimeter
;WIDTH:0.489236
G1 F900
G1 X122.566 Y101.52 E.00157
;WIDTH:0.472342
G1 X122.533 Y101.291 E.00826
;WIDTH:0.51997

G1 X122.48 Y101.13 E.00672

;WIDTH:0.567597

G1 X122.427 Y100.97 E.00735
G1 X122.114 Y100.577 E.02192

;WIDTH:0.564265

G1 X122.042 Y100.378 E.00917
G1 X122.152 Y100.246 E.00745
G1 X122.355 Y100.254 E.00881
G1 X122.763 Y100.559 E.02208
G1 X122.96 Y100.748 E.01183

;WIDTH:0.518304

G1 X123.157 Y100.938 E.01082

;WIDTH:0.472342
G1 X123.603 Y101.52 E.02618
;WIDTH:0.449999
G1 X123.556 Y101.598 E.00308
G1 X123.177 Y102.095 E.02116
;WIDTH:0.489236

M73 P21 R0
G1 X123.061 Y102.199 E.00578

;WIDTH:0.528473

G1 X122.944 Y102.303 E.00632

;WIDTH:0.567709
G1 X122.425 Y102.742 E.02966
;WIDTH:0.564762

G1 X122.286 Y102.8 E.00654
G1 X122.151 Y102.8 E.00586
G1 X122.041 Y102.658 E.00779
G1 X122.104 Y102.469 E.00864

;WIDTH:0.567709
G1 X122.429 Y102.066 E.02259
G1 X122.475 Y101.884 E.00819
;WIDTH:0.528473
G1 X122.52 Y101.702 E.00757
;WIDTH:0.489236
G1 X122.541 Y101.619 E.00318
M204 P1000
G1 X122.159 Y101.52 F12000
M204 P700
;TYPE:External perimeter
;WIDTH:0.449999
G1 F900

G1 X122.062 Y101.259 E.00942
G1 X122.03 Y101.22 E.00171
G1 X121.743 Y100.857 E.01566
G1 X121.649 Y100.663 E.0073

M204 P1000
;TYPE:Overhang perimeter

G1 X121.608 Y100.579 E.00316
G1 X121.58 Y100.279 E.0102
G1 X121.676 Y100.054 E.00828
G1 X121.86 Y99.868 E.00886
G1 X122.091 Y99.765 E.00856
G1 X122.411 Y99.777 E.01084
G1 X122.611 Y99.856 E.00728
G1 X123.061 Y100.196 E.01909
G1 X123.109 Y100.248 E.0024

M204 P700
;TYPE:External perimeter

G1 X123.399 Y100.567 E.01459
G1 X123.874 Y101.187 E.02644
G1 X124.062 Y101.52 E.01294


G1 X123.895 Y101.826 E.0118
G1 X123.501 Y102.342 E.02198
G1 X123.108 Y102.791 E.0202

M204 P1000
;TYPE:Overhang perimeter

G1 X122.705 Y103.112 E.01744
G1 X122.406 Y103.249 E.01113
G1 X122.113 Y103.281 E.00998
G1 X121.83 Y103.14 E.0107
G1 X121.619 Y102.886 E.01118
M73 P22 R0
G1 X121.58 Y102.593 E.01001
G1 X121.65 Y102.361 E.0082

M204 P700
;TYPE:External perimeter

G1 X121.682 Y102.251 E.00388
G1 X122.032 Y101.816 E.0189
G1 X122.066 Y101.774 E.00183
G1 X122.138 Y101.576 E.00713

M204 P1000
G1 X122.393 Y101.37 F12000
G1 E-.64 F2100
;WIPE_START
G1 F9600
G1 X122.062 Y101.259 E-.06774
G1 X121.786 Y100.911 E-.09226
;WIPE_END
G1 Z.8 F720
G1 X125.037 Y103.977 F12000
G1 Z.6 F720
G1 E.8 F1500
M204 P900
;TYPE:Perimeter
;WIDTH:0.490348
G1 F900
G1 X124.978 Y103.965 E.00224
;WIDTH:0.492489
G1 X124.827 Y103.992 E.00573
;WIDTH:0.534978
G1 X124.677 Y104.018 E.00623
;WIDTH:0.577467
G1 X124.526 Y104.045 E.00682
G1 X123.996 Y104.449 E.02962
;WIDTH:0.560893

G1 X123.84 Y104.469 E.00677
G1 X123.721 Y104.351 E.00722
G1 X123.72 Y104.223 E.00551
G1 X123.922 Y103.878 E.01722
G1 X124.287 Y103.506 E.02245

;WIDTH:0.532705

G1 X124.643 Y103.209 E.01888

;WIDTH:0.491352
G1 X125 Y102.912 E.01732
;WIDTH:0.449999

M73 P23 R0
G1 X125.536 Y103.309 E.02258

;WIDTH:0.490348

G1 X125.649 Y103.431 E.00619

;WIDTH:0.530696

G1 X125.762 Y103.553 E.00674

;WIDTH:0.571044
G1 X126.213 Y104.056 E.02967
;WIDTH:0.549408

G1 X126.306 Y104.285 E.01041


G1 X126.298 Y104.343 E.00247
G1 X126.162 Y104.475 E.00798
G1 X125.945 Y104.426 E.00937

;WIDTH:0.571044

G1 X125.541 Y104.084 E.02324
G1 X125.353 Y104.044 E.00844

;WIDTH:0.530696
G1 X125.166 Y104.005 E.00775
;WIDTH:0.490348
G1 X125.096 Y103.99 E.00266
M204 P1000
G1 X124.984 Y104.375 F12000
M204 P700
;TYPE:External perimeter
;WIDTH:0.449999
G1 F900

G1 X124.818 Y104.415 E.00578
G1 X124.735 Y104.475 E.00347
G1 X124.185 Y104.868 E.02288

M204 P1000
;TYPE:Overhang perimeter

G1 X123.828 Y104.948 E.01238
G1 X123.593 Y104.879 E.00829
G1 X123.383 Y104.704 E.00925
G1 X123.25 Y104.449 E.00973
G1 X123.237 Y104.204 E.0083
G1 X123.308 Y103.997 E.00741
G1 X123.568 Y103.577 E.01672
G1 X123.709 Y103.439 E.00668

M204 P700
;TYPE:External perimeter

G1 X123.979 Y103.177 E.01273
G1 X124.782 Y102.566 E.03415
G1 X125.006 Y102.462 E.00836
G1 X125.161 Y102.524 E.00565
G1 X125.778 Y102.982 E.02601
G1 X126.178 Y103.319 E.0177
G1 X126.29 Y103.439 E.00556

M204 P1000
;TYPE:Overhang perimeter

G1 X126.482 Y103.644 E.00951
G1 X126.692 Y103.965 E.01298
G1 X126.762 Y104.281 E.01096


G1 X126.763 Y104.395 E.00386
M73 P24 R0
G1 X126.662 Y104.639 E.00894
G1 X126.344 Y104.907 E.01408
G1 X126.098 Y104.949 E.00845
G1 X125.87 Y104.871 E.00816

M204 P700
;TYPE:External perimeter

G1 X125.704 Y104.814 E.00594
G1 X125.297 Y104.488 E.01765
G1 X125.259 Y104.457 E.00166
G1 X125.042 Y104.392 E.00767

M204 P1000
G1 X124.903 Y104.225 F12000
G1 E-.64 F2100
;WIPE_START
G1 F9600
G1 X124.818 Y104.415 E-.04679
G1 X124.375 Y104.732 E-.11321
;WIPE_END
G1 Z.8 F720
G1 X127.458 Y101.483 F12000
G1 Z.6 F720
G1 E.8 F1500
M204 P900
;TYPE:Perimeter
;WIDTH:0.494127
G1 F900
G1 X127.45 Y101.6 E.0044
;WIDTH:0.492041
G1 X127.475 Y101.733 E.00505
;WIDTH:0.534083
G1 X127.501 Y101.866 E.00553
;WIDTH:0.576124

G1 X127.526 Y102 E.00604
G1 X127.871 Y102.442 E.02486

;WIDTH:0.568396

G1 X127.956 Y102.643 E.00954


G1 X127.941 Y102.695 E.00236
G1 X127.805 Y102.81 E.00778
G1 X127.576 Y102.74 E.01046
G1 X127.251 Y102.461 E.01872

;WIDTH:0.537525

G1 X126.926 Y102.182 E.01762

;WIDTH:0.506654

M73 P25 R0
G1 X126.662 Y101.851 E.01633

;WIDTH:0.478327
G1 X126.397 Y101.519 E.01538
;WIDTH:0.449999
G1 X126.629 Y101.198 E.01341
;WIDTH:0.494127
G1 X126.772 Y101.055 E.00759
;WIDTH:0.538255

G1 X126.915 Y100.913 E.0083

;WIDTH:0.582382
G1 X127.439 Y100.381 E.0335
;WIDTH:0.570658

G1 X127.741 Y100.232 E.01478
G1 X127.889 Y100.273 E.00674
G1 X127.957 Y100.409 E.00667
G1 X127.836 Y100.665 E.01243

;WIDTH:0.582382
G1 X127.485 Y101.095 E.0249
G1 X127.474 Y101.263 E.00755
;WIDTH:0.538255
G1 X127.462 Y101.423 E.00661
M204 P1000
G1 X127.855 Y101.504 F12000
M204 P700
;TYPE:External perimeter
;WIDTH:0.449999
G1 F900

G1 X127.899 Y101.713 E.00723
G1 X127.956 Y101.787 E.00316
G1 X128.241 Y102.158 E.01584
G1 X128.35 Y102.352 E.00753

M204 P1000
