; generated by PrusaSlicer 2.4.2+win64 on 2022-08-15 at 22:39:02 UTC

; 

; external perimeters extrusion width = 0.45mm
; perimeters extrusion width = 0.45mm
; infill extrusion width = 0.45mm
; solid infill extrusion width = 0.45mm
; top infill extrusion width = 0.40mm
; first layer extrusion width = 0.42mm

M107 ; disable fan
M104 S200 ; set temperature
;TYPE:Custom
G28 ; home all axes
G1 Z5 F5000 ; lift nozzle
M109 S200 ; set temperature and wait for it to be reached
G21 ; set units to millimeters
G90 ; use absolute coordinates
M82 ; use absolute distances for extrusion
G92 E0 ; reset extrusion distance
; Filament gcode
M107 ; disable fan
;LAYER_CHANGE
;Z:0.2
;HEIGHT:0.2
G1 Z.2 F7800 ; move to next layer (0)
G1 E-2 F2400 ; retract
G92 E0 ; reset extrusion distance
G1 X98.464 Y98.464 F7800 ; move to first perimeter point
G1 E2 F2400 ;  ; unretract
;TYPE:Perimeter
;WIDTH:0.42
G1 F1063
G1 X101.536 Y98.464 E2.09631 ; perimeter
G1 X101.536 Y101.536 E2.19262 ; perimeter
G1 X98.464 Y101.536 E2.28893 ; perimeter
G1 X98.464 Y98.524 E2.38336 ; perimeter
G1 X98.087 Y98.087 F7800 ; move to first perimeter point
G1 F1063
G1 X101.913 Y98.087 E2.50332 ; perimeter
G1 X101.913 Y101.913 E2.62327 ; perimeter
G1 X98.087 Y101.913 E2.74323 ; perimeter
G1 X98.087 Y98.147 E2.86131 ; perimeter
G1 X97.71 Y97.71 F7800 ; move to first perimeter point
;TYPE:External perimeter
G1 F1063
G1 X102.29 Y97.71 E3.00491 ; perimeter
G1 X102.29 Y102.29 E3.14851 ; perimeter
G1 X97.71 Y102.29 E3.29211 ; perimeter
G1 X97.71 Y97.77 E3.43384 ; perimeter
G1 X98.096 Y97.814 F7800 ; move inwards before travel
G1 E1.43384 F2400 ; retract
G92 E0 ; reset extrusion distance
G1 X100.595 Y98.577 F7800 ; move to first infill point
G1 E2 F2400 ;  ; unretract
;TYPE:Solid infill
;WIDTH:0.450661
G1 F1063
G1 X101.253 Y99.235 E2.03153 ; infill
G1 X101.253 Y99.812 E2.05108 ; infill
G1 X100.188 Y98.747 E2.10212 ; infill
G1 X99.612 Y98.747 E2.12167 ; infill
G1 X101.253 Y100.388 E2.20037 ; infill
G1 X101.253 Y100.965 E2.21992 ; infill
G1 X99.035 Y98.747 E2.32625 ; infill
G1 X98.747 Y98.747 E2.33603 ; infill
G1 X98.747 Y99.035 E2.34581 ; infill
G1 X100.965 Y101.253 E2.45214 ; infill
G1 X100.388 Y101.253 E2.47169 ; infill
G1 X98.747 Y99.612 E2.55037 ; infill
G1 X98.747 Y100.189 E2.56992 ; infill
G1 X99.811 Y101.253 E2.62096 ; infill
G1 X99.235 Y101.253 E2.64051 ; infill
G1 X98.577 Y100.596 E2.67204 ; infill
;LAYER_CHANGE
;Z:0.4
;HEIGHT:0.2
G1 Z.4 F7800 ; move to next layer (1)
G1 E.67204 F2400 ; retract
G92 E0 ; reset extrusion distance
G1 X98.539 Y98.539 F7800 ; move to first perimeter point
G1 E2 F2400 ;  ; unretract
;TYPE:Perimeter
;WIDTH:0.45
G1 F777
G1 X101.461 Y98.539 E2.0989 ; perimeter
G1 X101.461 Y101.461 E2.19779 ; perimeter
G1 X98.539 Y101.461 E2.29669 ; perimeter
G1 X98.539 Y98.599 E2.39355 ; perimeter
G1 X98.132 Y98.132 F7800 ; move to first perimeter point
G1 F777
G1 X101.868 Y98.132 E2.52001 ; perimeter
G1 X101.868 Y101.868 E2.64646 ; perimeter
G1 X98.132 Y101.868 E2.77291 ; perimeter
G1 X98.132 Y98.192 E2.89734 ; perimeter
G1 X97.725 Y97.725 F7800 ; move to first perimeter point
;TYPE:External perimeter
G1 F777
G1 X102.275 Y97.725 E3.05135 ; perimeter
G1 X102.275 Y102.275 E3.20536 ; perimeter
G1 X97.725 Y102.275 E3.35937 ; perimeter
G1 X97.725 Y97.785 E3.51135 ; perimeter
G1 X98.111 Y97.829 F7800 ; move inwards before travel
G1 E1.51135 F2400 ; retract
G92 E0 ; reset extrusion distance
G1 X100.473 Y101.339 F7800 ; move to first infill point
G1 E2 F2400 ;  ; unretract
;TYPE:Solid infill
;WIDTH:0.470038
G1 F777
G1 X101.156 Y100.656 E2.03427 ; infill
G1 X101.156 Y100.052 E2.05572 ; infill
G1 X100.052 Y101.156 E2.11112 ; infill
G1 X99.448 Y101.156 E2.13257 ; infill
G1 X101.156 Y99.448 E2.21832 ; infill
G1 X101.156 Y98.844 E2.23977 ; infill
G1 X98.844 Y101.155 E2.35584 ; infill
G1 X98.844 Y100.551 E2.37729 ; infill
G1 X100.551 Y98.844 E2.46303 ; infill
G1 X99.947 Y98.844 E2.48448 ; infill
G1 X98.844 Y99.947 E2.53988 ; infill
G1 X98.844 Y99.343 E2.56133 ; infill
G1 X99.527 Y98.661 E2.59559 ; infill
;LAYER_CHANGE
;Z:0.6
;HEIGHT:0.2
G1 Z.6 F7800 ; move to next layer (2)
G1 X98.539 Y98.539 ; move to first perimeter point
;TYPE:Perimeter
;WIDTH:0.45
G1 F759
G1 X101.461 Y98.539 E2.69448 ; perimeter
G1 X101.461 Y101.461 E2.79338 ; perimeter
G1 X98.539 Y101.461 E2.89227 ; perimeter
G1 X98.539 Y98.599 E2.98914 ; perimeter
G1 X98.132 Y98.132 F7800 ; move to first perimeter point
G1 F759
G1 X101.868 Y98.132 E3.11559 ; perimeter
G1 X101.868 Y101.868 E3.24205 ; perimeter
G1 X98.132 Y101.868 E3.3685 ; perimeter
G1 X98.132 Y98.192 E3.49292 ; perimeter
G1 X97.725 Y97.725 F7800 ; move to first perimeter point
;TYPE:External perimeter
G1 F759
G1 X102.275 Y97.725 E3.64693 ; perimeter
G1 X102.275 Y102.275 E3.80095 ; perimeter
G1 X97.725 Y102.275 E3.95496 ; perimeter
G1 X97.725 Y97.785 E4.10694 ; perimeter
G1 X98.111 Y97.829 F7800 ; move inwards before travel
G1 E2.10694 F2400 ; retract
G92 E0 ; reset extrusion distance
G1 X101.339 Y99.527 F7800 ; move to first infill point
G1 E2 F2400 ;  ; unretract
;TYPE:Solid infill
;WIDTH:0.470038
G1 F759
G1 X100.657 Y98.844 E2.03427 ; infill
G1 X100.052 Y98.844 E2.05572 ; infill
G1 X101.156 Y99.948 E2.11112 ; infill
G1 X101.156 Y100.552 E2.13257 ; infill
G1 X99.448 Y98.844 E2.21831 ; infill
G1 X98.844 Y98.844 E2.23976 ; infill
G1 X101.155 Y101.156 E2.35584 ; infill
G1 X100.551 Y101.156 E2.37729 ; infill
G1 X98.844 Y99.449 E2.46303 ; infill
G1 X98.844 Y100.053 E2.48448 ; infill
G1 X99.947 Y101.156 E2.53988 ; infill
G1 X99.343 Y101.156 E2.56133 ; infill
G1 X98.661 Y100.473 E2.59559 ; infill
M106 S252.45 ; enable fan
;LAYER_CHANGE
;Z:0.8
;HEIGHT:0.2
G1 Z.8 F7800 ; move to next layer (3)
G1 X98.539 Y98.539 ; move to first perimeter point
;TYPE:Perimeter
;WIDTH:0.45
G1 F761
G1 X101.461 Y98.539 E2.69448 ; perimeter
G1 X101.461 Y101.461 E2.79338 ; perimeter
G1 X98.539 Y101.461 E2.89227 ; perimeter
G1 X98.539 Y98.599 E2.98914 ; perimeter
G1 X98.132 Y98.132 F7800 ; move to first perimeter point
G1 F761
G1 X101.868 Y98.132 E3.11559 ; perimeter
G1 X101.868 Y101.868 E3.24205 ; perimeter
G1 X98.132 Y101.868 E3.3685 ; perimeter
G1 X98.132 Y98.192 E3.49292 ; perimeter
G1 X97.725 Y97.725 F7800 ; move to first perimeter point
;TYPE:External perimeter
G1 F761
G1 X102.275 Y97.725 E3.64693 ; perimeter
G1 X102.275 Y102.275 E3.80095 ; perimeter
G1 X97.725 Y102.275 E3.95496 ; perimeter
G1 X97.725 Y97.785 E4.10694 ; perimeter
G1 X98.111 Y97.829 F7800 ; move inwards before travel
G1 E2.10694 F2400 ; retract
G92 E0 ; reset extrusion distance
G1 X100.473 Y101.339 F7800 ; move to first infill point
G1 E2 F2400 ;  ; unretract
;TYPE:Solid infill
;WIDTH:0.470035
G1 F761
G1 X101.156 Y100.656 E2.03427 ; infill
G1 X101.156 Y100.052 E2.05572 ; infill
G1 X100.052 Y101.156 E2.11112 ; infill
G1 X99.448 Y101.156 E2.13257 ; infill
G1 X101.156 Y99.448 E2.21831 ; infill
G1 X101.156 Y98.844 E2.23976 ; infill
G1 X98.844 Y101.155 E2.35583 ; infill
G1 X98.844 Y100.551 E2.37729 ; infill
G1 X100.551 Y98.844 E2.46302 ; infill
G1 X99.947 Y98.844 E2.48447 ; infill
G1 X98.844 Y99.947 E2.53987 ; infill
G1 X98.844 Y99.343 E2.56132 ; infill
G1 X99.527 Y98.661 E2.59558 ; infill
;LAYER_CHANGE
;Z:1
;HEIGHT:0.2
G1 Z1 F7800 ; move to next layer (4)
G1 X98.539 Y98.539 ; move to first perimeter point
;TYPE:Perimeter
;WIDTH:0.45
G1 F759
G1 X101.461 Y98.539 E2.69447 ; perimeter
G1 X101.461 Y101.461 E2.79337 ; perimeter
G1 X98.539 Y101.461 E2.89226 ; perimeter
G1 X98.539 Y98.599 E2.98913 ; perimeter
G1 X98.132 Y98.132 F7800 ; move to first perimeter point
G1 F759
G1 X101.868 Y98.132 E3.11558 ; perimeter
G1 X101.868 Y101.868 E3.24204 ; perimeter
G1 X98.132 Y101.868 E3.36849 ; perimeter
G1 X98.132 Y98.192 E3.49291 ; perimeter
G1 X97.725 Y97.725 F7800 ; move to first perimeter point
;TYPE:External perimeter
G1 F759
G1 X102.275 Y97.725 E3.64693 ; perimeter
G1 X102.275 Y102.275 E3.80094 ; perimeter
G1 X97.725 Y102.275 E3.95495 ; perimeter
G1 X97.725 Y97.785 E4.10693 ; perimeter
G1 X98.111 Y97.829 F7800 ; move inwards before travel
G1 E2.10693 F2400 ; retract
G92 E0 ; reset extrusion distance
G1 X101.339 Y99.527 F7800 ; move to first infill point
G1 E2 F2400 ;  ; unretract
;TYPE:Solid infill
;WIDTH:0.470035
G1 F759
G1 X100.656 Y98.844 E2.03426 ; infill
G1 X100.052 Y98.844 E2.05572 ; infill
G1 X101.156 Y99.948 E2.11112 ; infill
G1 X101.156 Y100.552 E2.13257 ; infill
G1 X99.448 Y98.844 E2.21831 ; infill
G1 X98.844 Y98.844 E2.23976 ; infill
G1 X101.155 Y101.156 E2.35583 ; infill
G1 X100.551 Y101.156 E2.37729 ; infill
G1 X98.844 Y99.449 E2.46302 ; infill
G1 X98.844 Y100.053 E2.48447 ; infill
G1 X99.947 Y101.156 E2.53987 ; infill
G1 X99.343 Y101.156 E2.56132 ; infill
G1 X98.661 Y100.473 E2.59558 ; infill
;LAYER_CHANGE
;Z:1.2
;HEIGHT:0.2
G1 Z1.2 F7800 ; move to next layer (5)
G1 X98.539 Y98.539 ; move to first perimeter point
;TYPE:Perimeter
;WIDTH:0.45
G1 F761
G1 X101.461 Y98.539 E2.69447 ; perimeter
G1 X101.461 Y101.461 E2.79337 ; perimeter
G1 X98.539 Y101.461 E2.89226 ; perimeter
G1 X98.539 Y98.599 E2.98913 ; perimeter
G1 X98.132 Y98.132 F7800 ; move to first perimeter point
G1 F761
G1 X101.868 Y98.132 E3.11558 ; perimeter
G1 X101.868 Y101.868 E3.24204 ; perimeter
G1 X98.132 Y101.868 E3.36849 ; perimeter
G1 X98.132 Y98.192 E3.49291 ; perimeter
G1 X97.725 Y97.725 F7800 ; move to first perimeter point
;TYPE:External perimeter
G1 F761
G1 X102.275 Y97.725 E3.64693 ; perimeter
G1 X102.275 Y102.275 E3.80094 ; perimeter
G1 X97.725 Y102.275 E3.95495 ; perimeter
G1 X97.725 Y97.785 E4.10693 ; perimeter
G1 X98.111 Y97.829 F7800 ; move inwards before travel
G1 E2.10693 F2400 ; retract
G92 E0 ; reset extrusion distance
G1 X100.473 Y101.339 F7800 ; move to first infill point
G1 E2 F2400 ;  ; unretract
;TYPE:Solid infill
;WIDTH:0.470035
G1 F761
G1 X101.156 Y100.656 E2.03427 ; infill
G1 X101.156 Y100.052 E2.05572 ; infill
G1 X100.052 Y101.156 E2.11112 ; infill
G1 X99.448 Y101.156 E2.13257 ; infill
G1 X101.156 Y99.448 E2.21831 ; infill
G1 X101.156 Y98.844 E2.23976 ; infill
G1 X98.844 Y101.155 E2.35583 ; infill
G1 X98.844 Y100.551 E2.37729 ; infill
G1 X100.551 Y98.844 E2.46302 ; infill
G1 X99.947 Y98.844 E2.48447 ; infill
G1 X98.844 Y99.947 E2.53987 ; infill
G1 X98.844 Y99.343 E2.56132 ; infill
G1 X99.527 Y98.661 E2.59558 ; infill
;LAYER_CHANGE
;Z:1.4
;HEIGHT:0.2
G1 Z1.4 F7800 ; move to next layer (6)
G1 X98.539 Y98.539 ; move to first perimeter point
;TYPE:Perimeter
;WIDTH:0.45
G1 F759
G1 X101.461 Y98.539 E2.69447 ; perimeter
G1 X101.461 Y101.461 E2.79337 ; perimeter
G1 X98.539 Y101.461 E2.89226 ; perimeter
G1 X98.539 Y98.599 E2.98913 ; perimeter
G1 X98.132 Y98.132 F7800 ; move to first perimeter point
G1 F759
G1 X101.868 Y98.132 E3.11558 ; perimeter
G1 X101.868 Y101.868 E3.24204 ; perimeter
G1 X98.132 Y101.868 E3.36849 ; perimeter
G1 X98.132 Y98.192 E3.49291 ; perimeter
G1 X97.725 Y97.725 F7800 ; move to first perimeter point
;TYPE:External perimeter
G1 F759
G1 X102.275 Y97.725 E3.64692 ; perimeter
G1 X102.275 Y102.275 E3.80094 ; perimeter
G1 X97.725 Y102.275 E3.95495 ; perimeter
G1 X97.725 Y97.785 E4.10693 ; perimeter
G1 X98.111 Y97.829 F7800 ; move inwards before travel
G1 E2.10693 F2400 ; retract
G92 E0 ; reset extrusion distance
G1 X101.339 Y99.527 F7800 ; move to first infill point
G1 E2 F2400 ;  ; unretract
;TYPE:Solid infill
;WIDTH:0.470035
G1 F759
G1 X100.656 Y98.844 E2.03426 ; infill
G1 X100.052 Y98.844 E2.05572 ; infill
G1 X101.156 Y99.948 E2.11112 ; infill
G1 X101.156 Y100.552 E2.13257 ; infill
G1 X99.448 Y98.844 E2.21831 ; infill
G1 X98.844 Y98.844 E2.23976 ; infill
G1 X101.155 Y101.156 E2.35583 ; infill
G1 X100.551 Y101.156 E2.37729 ; infill
G1 X98.844 Y99.449 E2.46302 ; infill
G1 X98.844 Y100.053 E2.48447 ; infill
G1 X99.947 Y101.156 E2.53987 ; infill
G1 X99.343 Y101.156 E2.56132 ; infill
G1 X98.661 Y100.473 E2.59558 ; infill
;LAYER_CHANGE
;Z:1.6
;HEIGHT:0.2
G1 Z1.6 F7800 ; move to next layer (7)
G1 X98.539 Y98.539 ; move to first perimeter point
;TYPE:Perimeter
;WIDTH:0.45
G1 F761
G1 X101.461 Y98.539 E2.69447 ; perimeter
G1 X101.461 Y101.461 E2.79337 ; perimeter
G1 X98.539 Y101.461 E2.89226 ; perimeter
G1 X98.539 Y98.599 E2.98913 ; perimeter
G1 X98.132 Y98.132 F7800 ; move to first perimeter point
G1 F761
G1 X101.868 Y98.132 E3.11558 ; perimeter
G1 X101.868 Y101.868 E3.24204 ; perimeter
G1 X98.132 Y101.868 E3.36849 ; perimeter
G1 X98.132 Y98.192 E3.49291 ; perimeter
G1 X97.725 Y97.725 F7800 ; move to first perimeter point
;TYPE:External perimeter
G1 F761
G1 X102.275 Y97.725 E3.64692 ; perimeter
G1 X102.275 Y102.275 E3.80094 ; perimeter
G1 X97.725 Y102.275 E3.95495 ; perimeter
G1 X97.725 Y97.785 E4.10693 ; perimeter
G1 X98.111 Y97.829 F7800 ; move inwards before travel
G1 E2.10693 F2400 ; retract
G92 E0 ; reset extrusion distance
G1 X100.473 Y101.339 F7800 ; move to first infill point
G1 E2 F2400 ;  ; unretract
;TYPE:Solid infill
;WIDTH:0.470035
G1 F761
G1 X101.156 Y100.656 E2.03427 ; infill
G1 X101.156 Y100.052 E2.05572 ; infill
G1 X100.052 Y101.156 E2.11112 ; infill
G1 X99.448 Y101.156 E2.13257 ; infill
G1 X101.156 Y99.448 E2.21831 ; infill
G1 X101.156 Y98.844 E2.23976 ; infill
G1 X98.844 Y101.155 E2.35583 ; infill
G1 X98.844 Y100.551 E2.37729 ; infill
G1 X100.551 Y98.844 E2.46302 ; infill
G1 X99.947 Y98.844 E2.48447 ; infill
G1 X98.844 Y99.947 E2.53987 ; infill
G1 X98.844 Y99.343 E2.56132 ; infill
G1 X99.527 Y98.661 E2.59558 ; infill
;LAYER_CHANGE
;Z:1.8
;HEIGHT:0.2
G1 Z1.8 F7800 ; move to next layer (8)
G1 X98.539 Y98.539 ; move to first perimeter point
;TYPE:Perimeter
;WIDTH:0.45
G1 F759
G1 X101.461 Y98.539 E2.69447 ; perimeter
G1 X101.461 Y101.461 E2.79337 ; perimeter
G1 X98.539 Y101.461 E2.89226 ; perimeter
G1 X98.539 Y98.599 E2.98913 ; perimeter
G1 X98.132 Y98.132 F7800 ; move to first perimeter point
G1 F759
G1 X101.868 Y98.132 E3.11558 ; perimeter
G1 X101.868 Y101.868 E3.24204 ; perimeter
G1 X98.132 Y101.868 E3.36849 ; perimeter
G1 X98.132 Y98.192 E3.49291 ; perimeter
G1 X97.725 Y97.725 F7800 ; move to first perimeter point
;TYPE:External perimeter
G1 F759
G1 X102.275 Y97.725 E3.64692 ; perimeter
G1 X102.275 Y102.275 E3.80094 ; perimeter
G1 X97.725 Y102.275 E3.95495 ; perimeter
G1 X97.725 Y97.785 E4.10693 ; perimeter
G1 X98.111 Y97.829 F7800 ; move inwards before travel
G1 E2.10693 F2400 ; retract
G92 E0 ; reset extrusion distance
G1 X101.339 Y99.527 F7800 ; move to first infill point
G1 E2 F2400 ;  ; unretract
;TYPE:Solid infill
;WIDTH:0.470035
G1 F759
G1 X100.656 Y98.844 E2.03427 ; infill
G1 X100.052 Y98.844 E2.05572 ; infill
G1 X101.156 Y99.948 E2.11112 ; infill
G1 X101.156 Y100.552 E2.13257 ; infill
G1 X99.448 Y98.844 E2.21831 ; infill
G1 X98.844 Y98.844 E2.23976 ; infill
G1 X101.155 Y101.156 E2.35583 ; infill
G1 X100.551 Y101.156 E2.37729 ; infill
G1 X98.844 Y99.449 E2.46302 ; infill
G1 X98.844 Y100.053 E2.48447 ; infill
G1 X99.947 Y101.156 E2.53987 ; infill
G1 X99.343 Y101.156 E2.56132 ; infill
G1 X98.661 Y100.473 E2.59558 ; infill
;LAYER_CHANGE
;Z:2
;HEIGHT:0.2
G1 Z2 F7800 ; move to next layer (9)
G1 X98.539 Y98.539 ; move to first perimeter point
;TYPE:Perimeter
;WIDTH:0.45
G1 F761
G1 X101.461 Y98.539 E2.69447 ; perimeter
G1 X101.461 Y101.461 E2.79337 ; perimeter
G1 X98.539 Y101.461 E2.89226 ; perimeter
G1 X98.539 Y98.599 E2.98913 ; perimeter
G1 X98.132 Y98.132 F7800 ; move to first perimeter point
G1 F761
G1 X101.868 Y98.132 E3.11558 ; perimeter
G1 X101.868 Y101.868 E3.24204 ; perimeter
G1 X98.132 Y101.868 E3.36849 ; perimeter
G1 X98.132 Y98.192 E3.49291 ; perimeter
G1 X97.725 Y97.725 F7800 ; move to first perimeter point
;TYPE:External perimeter
G1 F761
G1 X102.275 Y97.725 E3.64692 ; perimeter
G1 X102.275 Y102.275 E3.80094 ; perimeter
G1 X97.725 Y102.275 E3.95495 ; perimeter
G1 X97.725 Y97.785 E4.10693 ; perimeter
G1 X98.111 Y97.829 F7800 ; move inwards before travel
G1 E2.10693 F2400 ; retract
G92 E0 ; reset extrusion distance
G1 X100.473 Y101.339 F7800 ; move to first infill point
G1 E2 F2400 ;  ; unretract
;TYPE:Solid infill
;WIDTH:0.470035
G1 F761
G1 X101.156 Y100.656 E2.03427 ; infill
G1 X101.156 Y100.052 E2.05572 ; infill
G1 X100.052 Y101.156 E2.11112 ; infill
