; generated by PrusaSlicer 2.4.2+win64 on 2022-08-15 at 22:40:42 UTC

; 

; external perimeters extrusion width = 0.45mm
; perimeters extrusion width = 0.45mm
; infill extrusion width = 0.45mm
; solid infill extrusion width = 0.45mm
; top infill extrusion width = 0.40mm
; first layer extrusion width = 0.42mm

M107 ; disable fan
M104 S200 ; set temperature
;TYPE:Custom
G28 ; home all axes
G1 Z5 F5000 ; lift nozzle
M109 S200 ; set temperature and wait for it to be reached
G21 ; set units to millimeters
G90 ; use absolute coordinates
M82 ; use absolute distances for extrusion
G92 E0 ; reset extrusion distance
; Filament gcode
M107 ; disable fan
;LAYER_CHANGE
;Z:0.2
;HEIGHT:0.2
G1 Z.2 F7800 ; move to next layer (0)
G1 E-2 F2400 ; retract
G92 E0 ; reset extrusion distance
G1 X98.464 Y98.464 F7800 ; move to first perimeter point
G1 E2 F2400 ;  ; unretract
;TYPE:Perimeter
;WIDTH:0.42
G1 F1063
G1 X101.536 Y98.464 E2.09631 ; perimeter
G1 X101.536 Y101.536 E2.19262 ; perimeter
G1 X98.464 Y101.536 E2.28893 ; perimeter
G1 X98.464 Y98.524 E2.38336 ; perimeter
G1 X98.087 Y98.087 F7800 ; move to first perimeter point
G1 F1063
G1 X101.913 Y98.087 E2.50332 ; perimeter
G1 X101.913 Y101.913 E2.62327 ; perimeter
G1 X98.087 Y101.913 E2.74323 ; perimeter
G1 X98.087 Y98.147 E2.86131 ; perimeter
G1 X97.71 Y97.71 F7800 ; move to first perimeter point
;TYPE:External perimeter
G1 F1063
G1 X102.29 Y97.71 E3.00491 ; perimeter
G1 X102.29 Y102.29 E3.14851 ; perimeter
G1 X97.71 Y102.29 E3.29211 ; perimeter
G1 X97.71 Y97.77 E3.43384 ; perimeter
G1 X98.096 Y97.814 F7800 ; move inwards before travel
G1 E1.43384 F2400 ; retract
G92 E0 ; reset extrusion distance
G1 X100.595 Y98.577 F7800 ; move to first infill point
G1 E2 F2400 ;  ; unretract
;TYPE:Solid infill
;WIDTH:0.450661
G1 F1063
G1 X101.253 Y99.235 E2.03153 ; infill
G1 X101.253 Y99.812 E2.05108 ; infill
G1 X100.188 Y98.747 E2.10212 ; infill
G1 X99.612 Y98.747 E2.12167 ; infill
G1 X101.253 Y100.388 E2.20037 ; infill
G1 X101.253 Y100.965 E2.21992 ; infill
G1 X99.035 Y98.747 E2.32626 ; infill
G1 X98.747 Y98.747 E2.33603 ; infill
G1 X98.747 Y99.035 E2.34581 ; infill
G1 X100.965 Y101.253 E2.45214 ; infill
G1 X100.388 Y101.253 E2.47169 ; infill
G1 X98.747 Y99.612 E2.55037 ; infill
G1 X98.747 Y100.189 E2.56992 ; infill
G1 X99.811 Y101.253 E2.62096 ; infill
G1 X99.235 Y101.253 E2.64051 ; infill
G1 X98.577 Y100.596 E2.67204 ; infill
;LAYER_CHANGE
;Z:0.4
;HEIGHT:0.2
G1 Z.4 F7800 ; move to next layer (1)
G1 E.67204 F2400 ; retract
G92 E0 ; reset extrusion distance
G1 X98.539 Y98.539 F7800 ; move to first perimeter point
G1 E2 F2400 ;  ; unretract
;TYPE:Perimeter
;WIDTH:0.45
G1 F777
G1 X101.461 Y98.539 E2.0989 ; perimeter
G1 X101.461 Y101.461 E2.19779 ; perimeter
G1 X98.539 Y101.461 E2.29669 ; perimeter
G1 X98.539 Y98.599 E2.39355 ; perimeter
G1 X98.132 Y98.132 F7800 ; move to first perimeter point
G1 F777
G1 X101.868 Y98.132 E2.52001 ; perimeter
G1 X101.868 Y101.868 E2.64646 ; perimeter
G1 X98.132 Y101.868 E2.77291 ; perimeter
G1 X98.132 Y98.192 E2.89734 ; perimeter
G1 X97.725 Y97.725 F7800 ; move to first perimeter point
;TYPE:External perimeter
G1 F777
G1 X102.275 Y97.725 E3.05135 ; perimeter
G1 X102.275 Y102.275 E3.20536 ; perimeter
G1 X97.725 Y102.275 E3.35937 ; perimeter
G1 X97.725 Y97.785 E3.51135 ; perimeter
G1 X98.111 Y97.829 F7800 ; move inwards before travel
G1 E1.51135 F2400 ; retract
G92 E0 ; reset extrusion distance
G1 X100.473 Y101.339 F7800 ; move to first infill point
G1 E2 F2400 ;  ; unretract
;TYPE:Solid infill
;WIDTH:0.470041
G1 F777
G1 X101.156 Y100.657 E2.03427 ; infill
G1 X101.156 Y100.052 E2.05572 ; infill
G1 X100.052 Y101.156 E2.11112 ; infill
G1 X99.448 Y101.156 E2.13258 ; infill
G1 X101.156 Y99.448 E2.21832 ; infill
G1 X101.156 Y98.844 E2.23977 ; infill
G1 X98.844 Y101.155 E2.35585 ; infill
G1 X98.844 Y100.551 E2.3773 ; infill
G1 X100.551 Y98.844 E2.46303 ; infill
G1 X99.947 Y98.844 E2.48449 ; infill
G1 X98.844 Y99.947 E2.53988 ; infill
G1 X98.844 Y99.343 E2.56134 ; infill
G1 X99.527 Y98.661 E2.5956 ; infill
;LAYER_CHANGE
;Z:0.6
;HEIGHT:0.2
G1 Z.6 F7800 ; move to next layer (2)
G1 X98.539 Y98.539 ; move to first perimeter point
;TYPE:Perimeter
;WIDTH:0.45
G1 F781
G1 X101.461 Y98.539 E2.69449 ; perimeter
G1 X101.461 Y101.461 E2.79339 ; perimeter
G1 X98.539 Y101.461 E2.89228 ; perimeter
G1 X98.539 Y98.599 E2.98915 ; perimeter
G1 X98.132 Y98.132 F7800 ; move to first perimeter point
G1 F781
G1 X101.868 Y98.132 E3.1156 ; perimeter
G1 X101.868 Y101.868 E3.24206 ; perimeter
G1 X98.132 Y101.868 E3.36851 ; perimeter
G1 X98.132 Y98.192 E3.49293 ; perimeter
G1 X97.725 Y97.725 F7800 ; move to first perimeter point
;TYPE:External perimeter
G1 F781
G1 X102.275 Y97.725 E3.64694 ; perimeter
G1 X102.275 Y102.275 E3.80096 ; perimeter
G1 X97.725 Y102.275 E3.95497 ; perimeter
G1 X97.725 Y97.785 E4.10695 ; perimeter
G1 X98.111 Y97.829 F7800 ; move inwards before travel
G1 E2.10695 F2400 ; retract
G92 E0 ; reset extrusion distance
G1 X100.561 Y98.659 F7800 ; move to first infill point
G1 E2 F2400 ;  ; unretract
;TYPE:Top solid infill
;WIDTH:0.427326
G1 F781
G1 X101.181 Y99.278 E2.02799 ; infill
G1 X101.181 Y99.822 E2.04536 ; infill
G1 X100.178 Y98.819 E2.09066 ; infill
G1 X99.635 Y98.819 E2.10804 ; infill
G1 X101.181 Y100.365 E2.17791 ; infill
G1 X101.181 Y100.909 E2.19528 ; infill
G1 X99.091 Y98.819 E2.28973 ; infill
G1 X98.819 Y98.819 E2.29841 ; infill
G1 X98.819 Y99.091 E2.3071 ; infill
G1 X100.909 Y101.181 E2.40154 ; infill
G1 X100.365 Y101.181 E2.41892 ; infill
G1 X98.819 Y99.635 E2.48878 ; infill
G1 X98.819 Y100.179 E2.50616 ; infill
G1 X99.821 Y101.181 E2.55145 ; infill
G1 X99.278 Y101.181 E2.56883 ; infill
G1 X98.659 Y100.562 E2.59681 ; infill
M106 S255 ; enable fan
;LAYER_CHANGE
;Z:0.8
;HEIGHT:0.2
G1 Z.8 F7800 ; move to next layer (3)
G1 E.59681 F2400 ; retract
G92 E0 ; reset extrusion distance
G1 X97.793 Y97.793 F7800 ; move to first perimeter point
G1 E2 F2400 ;  ; unretract
;TYPE:External perimeter
;WIDTH:0.628705
G1 F600
G1 X97.896 Y97.771 E2.00515 ; perimeter
;WIDTH:0.585811
G1 X98 Y97.75 E2.00992 ; perimeter
;WIDTH:0.54292
G1 X102 Y97.75 E2.17623 ; perimeter
;WIDTH:0.585813
G1 X102.104 Y97.771 E2.181 ; perimeter
;WIDTH:0.628706
G1 X102.207 Y97.793 E2.18615 ; perimeter
;WIDTH:0.628706
G1 X102.229 Y97.896 E2.1913 ; perimeter
;WIDTH:0.585813
G1 X102.25 Y98 E2.19607 ; perimeter
;WIDTH:0.54292
G1 X102.25 Y101.8 E2.35406 ; perimeter
G1 X102.25 Y102 E2.36238 ; perimeter
;WIDTH:0.585812
G1 X102.229 Y102.104 E2.36715 ; perimeter
;WIDTH:0.628706
G1 X102.207 Y102.207 E2.3723 ; perimeter
;WIDTH:0.628707
G1 X102.104 Y102.229 E2.37745 ; perimeter
;WIDTH:0.585813
G1 X102 Y102.25 E2.38222 ; perimeter
;WIDTH:0.542921
G1 X98 Y102.25 E2.54853 ; perimeter
;WIDTH:0.585813
G1 X97.896 Y102.229 E2.5533 ; perimeter
;WIDTH:0.628706
G1 X97.793 Y102.207 E2.55845 ; perimeter
;WIDTH:0.628707
G1 X97.771 Y102.104 E2.5636 ; perimeter
;WIDTH:0.585813
G1 X97.75 Y102 E2.56838 ; perimeter
;WIDTH:0.585813
G1 X97.75 Y98 E2.74894 ; perimeter
G1 X97.771 Y97.896 E2.75372 ; perimeter
;WIDTH:0.628706
G1 X97.781 Y97.852 E2.75594 ; perimeter
;LAYER_CHANGE
;Z:1
;HEIGHT:0.2
G1 Z1 F7800 ; move to next layer (4)
G1 X97.793 Y97.793 ; move to first perimeter point
;WIDTH:0.628705
G1 F600
G1 X97.896 Y97.771 E2.7611 ; perimeter
;WIDTH:0.585811
G1 X98 Y97.75 E2.76587 ; perimeter
;WIDTH:0.54292
G1 X102 Y97.75 E2.93217 ; perimeter
;WIDTH:0.585813
G1 X102.104 Y97.771 E2.93694 ; perimeter
;WIDTH:0.628706
G1 X102.207 Y97.793 E2.94209 ; perimeter
;WIDTH:0.628706
G1 X102.229 Y97.896 E2.94725 ; perimeter
;WIDTH:0.585813
G1 X102.25 Y98 E2.95202 ; perimeter
;WIDTH:0.54292
G1 X102.25 Y101.6 E3.10169 ; perimeter
G1 X102.25 Y102 E3.11832 ; perimeter
;WIDTH:0.585813
G1 X102.229 Y102.104 E3.12309 ; perimeter
;WIDTH:0.628707
G1 X102.207 Y102.207 E3.12824 ; perimeter
;WIDTH:0.628707
G1 X102.104 Y102.229 E3.1334 ; perimeter
;WIDTH:0.585813
G1 X102 Y102.25 E3.13817 ; perimeter
;WIDTH:0.542921
G1 X98 Y102.25 E3.30447 ; perimeter
;WIDTH:0.585813
G1 X97.896 Y102.229 E3.30924 ; perimeter
;WIDTH:0.628706
G1 X97.793 Y102.207 E3.31439 ; perimeter
;WIDTH:0.628707
G1 X97.771 Y102.104 E3.31955 ; perimeter
;WIDTH:0.585813
G1 X97.75 Y102 E3.32432 ; perimeter
;WIDTH:0.585813
G1 X97.75 Y98 E3.50489 ; perimeter
G1 X97.771 Y97.896 E3.50966 ; perimeter
;WIDTH:0.628706
G1 X97.781 Y97.852 E3.51189 ; perimeter
;LAYER_CHANGE
;Z:1.2
;HEIGHT:0.2
G1 Z1.2 F7800 ; move to next layer (5)
G1 X97.793 Y97.793 ; move to first perimeter point
;WIDTH:0.628705
G1 F600
G1 X97.896 Y97.771 E3.51704 ; perimeter
;WIDTH:0.585811
G1 X98 Y97.75 E3.52181 ; perimeter
;WIDTH:0.54292
G1 X102 Y97.75 E3.68811 ; perimeter
;WIDTH:0.585813
G1 X102.104 Y97.771 E3.69289 ; perimeter
;WIDTH:0.628706
G1 X102.207 Y97.793 E3.69804 ; perimeter
;WIDTH:0.628706
G1 X102.229 Y97.896 E3.70319 ; perimeter
;WIDTH:0.585813
G1 X102.25 Y98 E3.70796 ; perimeter
;WIDTH:0.54292
G1 X102.25 Y101.4 E3.84932 ; perimeter
G1 X102.25 Y102 E3.87426 ; perimeter
;WIDTH:0.585813
G1 X102.229 Y102.104 E3.87904 ; perimeter
;WIDTH:0.628706
G1 X102.207 Y102.207 E3.88419 ; perimeter
;WIDTH:0.628707
G1 X102.104 Y102.229 E3.88934 ; perimeter
;WIDTH:0.585814
G1 X102 Y102.25 E3.89411 ; perimeter
;WIDTH:0.54292
G1 X98 Y102.25 E4.06041 ; perimeter
;WIDTH:0.585813
G1 X97.896 Y102.229 E4.06519 ; perimeter
;WIDTH:0.628706
G1 X97.793 Y102.207 E4.07034 ; perimeter
;WIDTH:0.628707
G1 X97.771 Y102.104 E4.07549 ; perimeter
;WIDTH:0.585813
G1 X97.75 Y102 E4.08026 ; perimeter
;WIDTH:0.585813
G1 X97.75 Y98 E4.26083 ; perimeter
G1 X97.771 Y97.896 E4.2656 ; perimeter
;WIDTH:0.628706
G1 X97.781 Y97.852 E4.26783 ; perimeter
;LAYER_CHANGE
;Z:1.4
;HEIGHT:0.2
G1 Z1.4 F7800 ; move to next layer (6)
G1 X97.793 Y97.793 ; move to first perimeter point
;WIDTH:0.628705
G1 F600
G1 X97.896 Y97.771 E4.27298 ; perimeter
;WIDTH:0.585811
G1 X98 Y97.75 E4.27776 ; perimeter
;WIDTH:0.54292
G1 X102 Y97.75 E4.44406 ; perimeter
;WIDTH:0.585813
G1 X102.104 Y97.771 E4.44883 ; perimeter
;WIDTH:0.628706
G1 X102.207 Y97.793 E4.45398 ; perimeter
;WIDTH:0.628706
G1 X102.229 Y97.896 E4.45913 ; perimeter
;WIDTH:0.585813
G1 X102.25 Y98 E4.46391 ; perimeter
;WIDTH:0.54292
G1 X102.25 Y101.2 E4.59695 ; perimeter
G1 X102.25 Y102 E4.63021 ; perimeter
;WIDTH:0.585813
G1 X102.229 Y102.104 E4.63498 ; perimeter
;WIDTH:0.628706
G1 X102.207 Y102.207 E4.64013 ; perimeter
;WIDTH:0.628707
G1 X102.104 Y102.229 E4.64528 ; perimeter
;WIDTH:0.585814
G1 X102 Y102.25 E4.65006 ; perimeter
;WIDTH:0.54292
G1 X98 Y102.25 E4.81636 ; perimeter
;WIDTH:0.585813
G1 X97.896 Y102.229 E4.82113 ; perimeter
;WIDTH:0.628706
G1 X97.793 Y102.207 E4.82628 ; perimeter
;WIDTH:0.628707
G1 X97.771 Y102.104 E4.83143 ; perimeter
;WIDTH:0.585813
G1 X97.75 Y102 E4.83621 ; perimeter
;WIDTH:0.585813
G1 X97.75 Y98 E5.01677 ; perimeter
G1 X97.771 Y97.896 E5.02155 ; perimeter
;WIDTH:0.628706
G1 X97.781 Y97.852 E5.02378 ; perimeter
;LAYER_CHANGE
;Z:1.6
;HEIGHT:0.2
G1 Z1.6 F7800 ; move to next layer (7)
G1 X97.793 Y97.793 ; move to first perimeter point
;WIDTH:0.628707
G1 F600
G1 X97.896 Y97.771 E5.02893 ; perimeter
;WIDTH:0.585813
G1 X98 Y97.75 E5.0337 ; perimeter
;WIDTH:0.542921
G1 X101 Y97.75 E5.15843 ; perimeter
;WIDTH:0.542921
G1 X102 Y97.75 E5.2 ; perimeter
;WIDTH:0.585813
G1 X102.104 Y97.771 E5.20478 ; perimeter
;WIDTH:0.628706
G1 X102.207 Y97.793 E5.20993 ; perimeter
;WIDTH:0.628706
G1 X102.229 Y97.896 E5.21508 ; perimeter
;WIDTH:0.585813
G1 X102.25 Y98 E5.21985 ; perimeter
;WIDTH:0.54292
G1 X102.25 Y101 E5.34458 ; perimeter
G1 X102.25 Y102 E5.38615 ; perimeter
;WIDTH:0.585813
G1 X102.229 Y102.104 E5.39093 ; perimeter
;WIDTH:0.628706
G1 X102.207 Y102.207 E5.39608 ; perimeter
;WIDTH:0.628707
G1 X102.104 Y102.229 E5.40123 ; perimeter
;WIDTH:0.585814
G1 X102 Y102.25 E5.406 ; perimeter
;WIDTH:0.54292
G1 X98 Y102.25 E5.5723 ; perimeter
;WIDTH:0.585813
G1 X97.896 Y102.229 E5.57708 ; perimeter
;WIDTH:0.628706
G1 X97.793 Y102.207 E5.58223 ; perimeter
;WIDTH:0.628707
G1 X97.771 Y102.104 E5.58738 ; perimeter
;WIDTH:0.585813
G1 X97.75 Y102 E5.59215 ; perimeter
;WIDTH:0.585813
G1 X97.75 Y98 E5.77272 ; perimeter
G1 X97.771 Y97.896 E5.77749 ; perimeter
;WIDTH:0.628706
G1 X97.781 Y97.852 E5.77972 ; perimeter
;LAYER_CHANGE
;Z:1.8
;HEIGHT:0.2
G1 Z1.8 F7800 ; move to next layer (8)
G1 X97.793 Y97.793 ; move to first perimeter point
;WIDTH:0.628707
G1 F600
G1 X97.896 Y97.771 E5.78487 ; perimeter
;WIDTH:0.585813
G1 X98 Y97.75 E5.78965 ; perimeter
;WIDTH:0.542921
G1 X100.8 Y97.75 E5.90606 ; perimeter
;WIDTH:0.542921
G1 X102 Y97.75 E5.95595 ; perimeter
;WIDTH:0.585814
G1 X102.104 Y97.771 E5.96072 ; perimeter
;WIDTH:0.628707
G1 X102.207 Y97.793 E5.96587 ; perimeter
;WIDTH:0.628706
G1 X102.229 Y97.896 E5.97102 ; perimeter
;WIDTH:0.585813
G1 X102.25 Y98 E5.9758 ; perimeter
;WIDTH:0.542922
G1 X102.25 Y100.8 E6.09221 ; perimeter
;WIDTH:0.54292
G1 X102.25 Y102 E6.1421 ; perimeter
;WIDTH:0.585813
G1 X102.229 Y102.104 E6.14687 ; perimeter
;WIDTH:0.628706
G1 X102.207 Y102.207 E6.15202 ; perimeter
;WIDTH:0.628707
G1 X102.104 Y102.229 E6.15717 ; perimeter
;WIDTH:0.585814
G1 X102 Y102.25 E6.16195 ; perimeter
;WIDTH:0.54292
G1 X98 Y102.25 E6.32825 ; perimeter
;WIDTH:0.585813
G1 X97.896 Y102.229 E6.33302 ; perimeter
;WIDTH:0.628706
G1 X97.793 Y102.207 E6.33817 ; perimeter
;WIDTH:0.628707
G1 X97.771 Y102.104 E6.34332 ; perimeter
;WIDTH:0.585813
G1 X97.75 Y102 E6.3481 ; perimeter
;WIDTH:0.585813
G1 X97.75 Y98 E6.52866 ; perimeter
G1 X97.771 Y97.896 E6.53344 ; perimeter
;WIDTH:0.628706
G1 X97.781 Y97.852 E6.53567 ; perimeter
;LAYER_CHANGE
;Z:2
;HEIGHT:0.2
G1 Z2 F7800 ; move to next layer (9)
G1 X97.793 Y97.793 ; move to first perimeter point
;WIDTH:0.628707
G1 F600
G1 X97.896 Y97.771 E6.54082 ; perimeter
;WIDTH:0.585813
G1 X98 Y97.75 E6.54559 ; perimeter
;WIDTH:0.542921
G1 X100.6 Y97.75 E6.65369 ; perimeter
;WIDTH:0.542921
G1 X102 Y97.75 E6.71189 ; perimeter
;WIDTH:0.585814
G1 X102.104 Y97.771 E6.71666 ; perimeter
;WIDTH:0.628707
G1 X102.207 Y97.793 E6.72182 ; perimeter
;WIDTH:0.628706
G1 X102.229 Y97.896 E6.72697 ; perimeter
;WIDTH:0.585813
G1 X102.25 Y98 E6.73174 ; perimeter
;WIDTH:0.542922
G1 X102.25 Y100.6 E6.83984 ; perimeter
;WIDTH:0.54292
G1 X102.25 Y102 E6.89804 ; perimeter
;WIDTH:0.585813
G1 X102.229 Y102.104 E6.90281 ; perimeter
;WIDTH:0.628706
G1 X102.207 Y102.207 E6.90797 ; perimeter
;WIDTH:0.628707
G1 X102.104 Y102.229 E6.91312 ; perimeter
;WIDTH:0.585814
G1 X102 Y102.25 E6.91789 ; perimeter
;WIDTH:0.54292
G1 X98 Y102.25 E7.08419 ; perimeter
;WIDTH:0.585813
G1 X97.896 Y102.229 E7.08897 ; perimeter
;WIDTH:0.628706
G1 X97.793 Y102.207 E7.09412 ; perimeter
;WIDTH:0.628707
G1 X97.771 Y102.104 E7.09927 ; perimeter
;WIDTH:0.585813
G1 X97.75 Y102 E7.10404 ; perimeter
;WIDTH:0.585813
G1 X97.75 Y98 E7.28461 ; perimeter
G1 X97.771 Y97.896 E7.28938 ; perimeter
;WIDTH:0.628706
G1 X97.781 Y97.852 E7.29161 ; perimeter
;LAYER_CHANGE
;Z:2.2
;HEIGHT:0.2
G1 Z2.2 F7800 ; move to next layer (10)
G1 X97.793 Y97.793 ; move to first perimeter point
;WIDTH:0.628707
G1 F600
G1 X97.896 Y97.771 E7.29676 ; perimeter
;WIDTH:0.585813
G1 X98 Y97.75 E7.30153 ; perimeter
;WIDTH:0.542921
G1 X100.4 Y97.75 E7.40131 ; perimeter
;WIDTH:0.542921
G1 X102 Y97.75 E7.46784 ; perimeter
;WIDTH:0.585814
G1 X102.104 Y97.771 E7.47261 ; perimeter
;WIDTH:0.628707
G1 X102.207 Y97.793 E7.47776 ; perimeter
;WIDTH:0.628706
G1 X102.229 Y97.896 E7.48291 ; perimeter
;WIDTH:0.585813
G1 X102.25 Y98 E7.48768 ; perimeter
;WIDTH:0.542922
G1 X102.25 Y100.4 E7.58747 ; perimeter
;WIDTH:0.54292
G1 X102.25 Y102 E7.65399 ; perimeter
;WIDTH:0.585813
G1 X102.229 Y102.104 E7.65876 ; perimeter
;WIDTH:0.628706
G1 X102.207 Y102.207 E7.66391 ; perimeter
;WIDTH:0.628707
G1 X102.104 Y102.229 E7.66906 ; perimeter
;WIDTH:0.585814
G1 X102 Y102.25 E7.67384 ; perimeter
;WIDTH:0.54292
G1 X98 Y102.25 E7.84014 ; perimeter
;WIDTH:0.585813
G1 X97.896 Y102.229 E7.84491 ; perimeter
;WIDTH:0.628706
G1 X97.793 Y102.207 E7.85006 ; perimeter
;WIDTH:0.628707
G1 X97.771 Y102.104 E7.85521 ; perimeter
;WIDTH:0.585813
G1 X97.75 Y102 E7.85999 ; perimeter
;WIDTH:0.585813
G1 X97.75 Y98 E8.04055 ; perimeter
