; generated by PrusaSlicer 2.4.2+win64 on 2022-09-18 at 00:34:36 UTC

; 

; external perimeters extrusion width = 0.50mm
; perimeters extrusion width = 0.50mm
; infill extrusion width = 0.50mm
; solid infill extrusion width = 0.50mm
; top infill extrusion width = 0.50mm
; first layer extrusion width = 0.50mm

M107 ; disable fan
M104 S200 ; set temperature
;TYPE:Custom
G28 ; home all axes
G1 Z5 F5000 ; lift nozzle
M109 S200 ; set temperature and wait for it to be reached
G21 ; set units to millimeters
G90 ; use absolute coordinates
M82 ; use absolute distances for extrusion
G92 E0 ; reset extrusion distance
; Filament gcode
M107 ; disable fan
;LAYER_CHANGE
;Z:0.21
;HEIGHT:0.21
G1 Z.21 F7800 ; move to next layer (0)
G1 E-2 F2400 ; retract
G92 E0 ; reset extrusion distance
G1 X147.75 Y147.75 F7800 ; move to first perimeter point
G1 E2 F2400 ;  ; unretract
;TYPE:External perimeter
;WIDTH:0.5
G1 F1075
G1 X152.25 Y147.75 E2.17874 ; perimeter
G1 X152.25 Y152.25 E2.35747 ; perimeter
G1 X147.75 Y152.25 E2.53621 ; perimeter
G1 X147.75 Y147.782 E2.7137 ; perimeter
G1 E.7137 F2400 ; retract
G92 E0 ; reset extrusion distance
G1 X152.114 Y148.827 F7800 ; move to first infill point
G1 E2 F2400 ;  ; unretract
;TYPE:Solid infill
;WIDTH:0.509858
G1 F1075
G1 X151.378 Y148.091 E2.04223 ; infill
G1 X150.72 Y148.091 E2.0689 ; infill
G1 X151.909 Y149.28 E2.1371 ; infill
G1 X151.909 Y149.937 E2.16378 ; infill
G1 X150.063 Y148.091 E2.2697 ; infill
G1 X149.406 Y148.091 E2.29638 ; infill
G1 X151.909 Y150.594 E2.44002 ; infill
G1 X151.909 Y151.252 E2.4667 ; infill
G1 X148.748 Y148.091 E2.64807 ; infill
G1 X148.091 Y148.091 E2.67474 ; infill
G1 X151.909 Y151.909 E2.89383 ; infill
G1 X151.251 Y151.909 E2.9205 ; infill
G1 X148.091 Y148.749 E3.10186 ; infill
G1 X148.091 Y149.406 E3.12854 ; infill
G1 X150.594 Y151.909 E3.27218 ; infill
G1 X149.937 Y151.909 E3.29885 ; infill
G1 X148.091 Y150.063 E3.40477 ; infill
G1 X148.091 Y150.721 E3.43144 ; infill
G1 X149.279 Y151.909 E3.49964 ; infill
G1 X148.622 Y151.909 E3.52631 ; infill
G1 X147.886 Y151.173 E3.56853 ; infill
;LAYER_CHANGE
;Z:0.42
;HEIGHT:0.21
G1 Z.42 F7800 ; move to next layer (1)
G1 E1.56853 F2400 ; retract
G92 E0 ; reset extrusion distance
G1 X147.75 Y147.75 F7800 ; move to first perimeter point
G1 E2 F2400 ;  ; unretract
;TYPE:External perimeter
;WIDTH:0.5
G1 F600
G1 X152.25 Y147.75 E2.17874 ; perimeter
G1 X152.25 Y152.25 E2.35747 ; perimeter
G1 X147.75 Y152.25 E2.53621 ; perimeter
G1 X147.75 Y147.782 E2.7137 ; perimeter
G1 E.7137 F2400 ; retract
G92 E0 ; reset extrusion distance
G1 X147.886 Y150.46 F7800 ; move to first infill point
G1 E2 F2400 ;  ; unretract
;TYPE:Internal infill
G1 F600
G1 X149.335 Y151.909 E2.08138 ; infill
G1 X150.622 Y151.909 E2.13249 ; infill
G1 X148.091 Y149.378 E2.27465 ; infill
G1 X148.091 Y148.091 E2.32576 ; infill
G1 X151.909 Y151.909 E2.5402 ; infill
G1 X151.909 Y150.622 E2.59131 ; infill
G1 X149.378 Y148.091 E2.73347 ; infill
G1 X150.665 Y148.091 E2.78458 ; infill
G1 X152.114 Y149.54 E2.86596 ; infill
;LAYER_CHANGE
;Z:0.63
;HEIGHT:0.21
G1 Z.63 F7800 ; move to next layer (2)
G1 E.86596 F2400 ; retract
G92 E0 ; reset extrusion distance
G1 X147.75 Y147.75 F7800 ; move to first perimeter point
G1 E2 F2400 ;  ; unretract
;TYPE:External perimeter
G1 F600
G1 X152.25 Y147.75 E2.17874 ; perimeter
G1 X152.25 Y152.25 E2.35747 ; perimeter
G1 X147.75 Y152.25 E2.53621 ; perimeter
G1 X147.75 Y147.782 E2.7137 ; perimeter
G1 E.7137 F2400 ; retract
G92 E0 ; reset extrusion distance
G1 X147.886 Y150.46 F7800 ; move to first infill point
G1 E2 F2400 ;  ; unretract
;TYPE:Internal infill
G1 F600
G1 X149.335 Y151.909 E2.08138 ; infill
G1 X150.622 Y151.909 E2.13249 ; infill
G1 X148.091 Y149.378 E2.27465 ; infill
G1 X148.091 Y148.091 E2.32576 ; infill
G1 X151.909 Y151.909 E2.5402 ; infill
G1 X151.909 Y150.622 E2.59131 ; infill
G1 X149.378 Y148.091 E2.73347 ; infill
G1 X150.665 Y148.091 E2.78458 ; infill
G1 X152.114 Y149.54 E2.86596 ; infill
M106 S255 ; enable fan
;LAYER_CHANGE
;Z:0.84
;HEIGHT:0.21
G1 Z.84 F7800 ; move to next layer (3)
G1 E.86596 F2400 ; retract
G92 E0 ; reset extrusion distance
G1 X147.75 Y147.75 F7800 ; move to first perimeter point
G1 E2 F2400 ;  ; unretract
;TYPE:External perimeter
G1 F600
G1 X152.25 Y147.75 E2.17874 ; perimeter
G1 X152.25 Y152.25 E2.35747 ; perimeter
G1 X147.75 Y152.25 E2.53621 ; perimeter
G1 X147.75 Y147.782 E2.7137 ; perimeter
G1 E.7137 F2400 ; retract
G92 E0 ; reset extrusion distance
G1 X147.886 Y150.46 F7800 ; move to first infill point
G1 E2 F2400 ;  ; unretract
;TYPE:Internal infill
G1 F600
G1 X149.335 Y151.909 E2.08138 ; infill
G1 X150.622 Y151.909 E2.13249 ; infill
G1 X148.091 Y149.378 E2.27465 ; infill
G1 X148.091 Y148.091 E2.32576 ; infill
G1 X151.909 Y151.909 E2.5402 ; infill
G1 X151.909 Y150.622 E2.59131 ; infill
G1 X149.378 Y148.091 E2.73347 ; infill
G1 X150.665 Y148.091 E2.78458 ; infill
G1 X152.114 Y149.54 E2.86596 ; infill
;LAYER_CHANGE
;Z:1.05
;HEIGHT:0.21
G1 Z1.05 F7800 ; move to next layer (4)
G1 E.86596 F2400 ; retract
G92 E0 ; reset extrusion distance
G1 X147.75 Y147.75 F7800 ; move to first perimeter point
G1 E2 F2400 ;  ; unretract
;TYPE:External perimeter
G1 F600
G1 X152.25 Y147.75 E2.17874 ; perimeter
G1 X152.25 Y152.25 E2.35747 ; perimeter
G1 X147.75 Y152.25 E2.53621 ; perimeter
G1 X147.75 Y147.782 E2.7137 ; perimeter
G1 E.7137 F2400 ; retract
G92 E0 ; reset extrusion distance
G1 X147.886 Y150.46 F7800 ; move to first infill point
G1 E2 F2400 ;  ; unretract
;TYPE:Internal infill
G1 F600
G1 X149.335 Y151.909 E2.08138 ; infill
G1 X150.622 Y151.909 E2.13249 ; infill
G1 X148.091 Y149.378 E2.27465 ; infill
G1 X148.091 Y148.091 E2.32576 ; infill
G1 X151.909 Y151.909 E2.5402 ; infill
G1 X151.909 Y150.622 E2.59131 ; infill
G1 X149.378 Y148.091 E2.73347 ; infill
G1 X150.665 Y148.091 E2.78458 ; infill
G1 X152.114 Y149.54 E2.86596 ; infill
;LAYER_CHANGE
;Z:1.26
;HEIGHT:0.21
G1 Z1.26 F7800 ; move to next layer (5)
G1 E.86596 F2400 ; retract
G92 E0 ; reset extrusion distance
G1 X147.75 Y147.75 F7800 ; move to first perimeter point
G1 E2 F2400 ;  ; unretract
;TYPE:External perimeter
G1 F600
G1 X152.25 Y147.75 E2.17874 ; perimeter
G1 X152.25 Y152.25 E2.35747 ; perimeter
G1 X147.75 Y152.25 E2.53621 ; perimeter
G1 X147.75 Y147.782 E2.7137 ; perimeter
G1 E.7137 F2400 ; retract
G92 E0 ; reset extrusion distance
G1 X147.886 Y150.46 F7800 ; move to first infill point
G1 E2 F2400 ;  ; unretract
;TYPE:Internal infill
G1 F600
G1 X149.335 Y151.909 E2.08138 ; infill
G1 X150.622 Y151.909 E2.13249 ; infill
G1 X148.091 Y149.378 E2.27465 ; infill
G1 X148.091 Y148.091 E2.32576 ; infill
G1 X151.909 Y151.909 E2.5402 ; infill
G1 X151.909 Y150.622 E2.59131 ; infill
G1 X149.378 Y148.091 E2.73347 ; infill
G1 X150.665 Y148.091 E2.78458 ; infill
G1 X152.114 Y149.54 E2.86596 ; infill
;LAYER_CHANGE
;Z:1.47
;HEIGHT:0.21
G1 Z1.47 F7800 ; move to next layer (6)
G1 E.86596 F2400 ; retract
G92 E0 ; reset extrusion distance
G1 X147.75 Y147.75 F7800 ; move to first perimeter point
G1 E2 F2400 ;  ; unretract
;TYPE:External perimeter
G1 F600
G1 X152.25 Y147.75 E2.17874 ; perimeter
G1 X152.25 Y152.25 E2.35747 ; perimeter
G1 X147.75 Y152.25 E2.53621 ; perimeter
G1 X147.75 Y147.782 E2.7137 ; perimeter
G1 E.7137 F2400 ; retract
G92 E0 ; reset extrusion distance
G1 X147.886 Y150.46 F7800 ; move to first infill point
G1 E2 F2400 ;  ; unretract
;TYPE:Internal infill
G1 F600
G1 X149.335 Y151.909 E2.08138 ; infill
G1 X150.622 Y151.909 E2.13249 ; infill
G1 X148.091 Y149.378 E2.27465 ; infill
G1 X148.091 Y148.091 E2.32576 ; infill
G1 X151.909 Y151.909 E2.5402 ; infill
G1 X151.909 Y150.622 E2.59131 ; infill
G1 X149.378 Y148.091 E2.73347 ; infill
G1 X150.665 Y148.091 E2.78458 ; infill
G1 X152.114 Y149.54 E2.86596 ; infill
;LAYER_CHANGE
;Z:1.68
;HEIGHT:0.21
G1 Z1.68 F7800 ; move to next layer (7)
G1 E.86596 F2400 ; retract
G92 E0 ; reset extrusion distance
G1 X147.75 Y147.75 F7800 ; move to first perimeter point
G1 E2 F2400 ;  ; unretract
;TYPE:External perimeter
G1 F600
G1 X152.25 Y147.75 E2.17874 ; perimeter
G1 X152.25 Y152.25 E2.35747 ; perimeter
G1 X147.75 Y152.25 E2.53621 ; perimeter
G1 X147.75 Y147.782 E2.7137 ; perimeter
G1 E.7137 F2400 ; retract
G92 E0 ; reset extrusion distance
G1 X147.886 Y150.46 F7800 ; move to first infill point
G1 E2 F2400 ;  ; unretract
;TYPE:Internal infill
G1 F600
G1 X149.335 Y151.909 E2.08138 ; infill
G1 X150.622 Y151.909 E2.13249 ; infill
G1 X148.091 Y149.378 E2.27465 ; infill
G1 X148.091 Y148.091 E2.32576 ; infill
G1 X151.909 Y151.909 E2.5402 ; infill
G1 X151.909 Y150.622 E2.59131 ; infill
G1 X149.378 Y148.091 E2.73347 ; infill
G1 X150.665 Y148.091 E2.78458 ; infill
G1 X152.114 Y149.54 E2.86596 ; infill
;LAYER_CHANGE
;Z:1.89
;HEIGHT:0.21
G1 Z1.89 F7800 ; move to next layer (8)
G1 E.86596 F2400 ; retract
G92 E0 ; reset extrusion distance
G1 X147.75 Y147.75 F7800 ; move to first perimeter point
G1 E2 F2400 ;  ; unretract
;TYPE:External perimeter
G1 F600
G1 X152.25 Y147.75 E2.17874 ; perimeter
G1 X152.25 Y152.25 E2.35747 ; perimeter
G1 X147.75 Y152.25 E2.53621 ; perimeter
G1 X147.75 Y147.782 E2.7137 ; perimeter
G1 E.7137 F2400 ; retract
G92 E0 ; reset extrusion distance
G1 X147.886 Y150.46 F7800 ; move to first infill point
G1 E2 F2400 ;  ; unretract
;TYPE:Internal infill
G1 F600
G1 X149.335 Y151.909 E2.08138 ; infill
G1 X150.622 Y151.909 E2.13249 ; infill
G1 X148.091 Y149.378 E2.27465 ; infill
G1 X148.091 Y148.091 E2.32576 ; infill
G1 X151.909 Y151.909 E2.5402 ; infill
G1 X151.909 Y150.622 E2.59131 ; infill
G1 X149.378 Y148.091 E2.73347 ; infill
G1 X150.665 Y148.091 E2.78458 ; infill
G1 X152.114 Y149.54 E2.86596 ; infill
;LAYER_CHANGE
;Z:2.1
;HEIGHT:0.21
G1 Z2.1 F7800 ; move to next layer (9)
G1 E.86596 F2400 ; retract
G92 E0 ; reset extrusion distance
G1 X147.75 Y147.75 F7800 ; move to first perimeter point
G1 E2 F2400 ;  ; unretract
;TYPE:External perimeter
G1 F600
G1 X152.25 Y147.75 E2.17874 ; perimeter
G1 X152.25 Y152.25 E2.35747 ; perimeter
G1 X147.75 Y152.25 E2.53621 ; perimeter
G1 X147.75 Y147.782 E2.7137 ; perimeter
G1 E.7137 F2400 ; retract
G92 E0 ; reset extrusion distance
G1 X147.886 Y150.46 F7800 ; move to first infill point
G1 E2 F2400 ;  ; unretract
;TYPE:Internal infill
G1 F600
G1 X149.335 Y151.909 E2.08138 ; infill
G1 X150.622 Y151.909 E2.13249 ; infill
G1 X148.091 Y149.378 E2.27465 ; infill
G1 X148.091 Y148.091 E2.32576 ; infill
G1 X151.909 Y151.909 E2.5402 ; infill
G1 X151.909 Y150.622 E2.59131 ; infill
G1 X149.378 Y148.091 E2.73347 ; infill
G1 X150.665 Y148.091 E2.78458 ; infill
G1 X152.114 Y149.54 E2.86596 ; infill
;LAYER_CHANGE
;Z:2.31
;HEIGHT:0.21
G1 Z2.31 F7800 ; move to next layer (10)
G1 E.86596 F2400 ; retract
G92 E0 ; reset extrusion distance
G1 X147.75 Y147.75 F7800 ; move to first perimeter point
G1 E2 F2400 ;  ; unretract
;TYPE:External perimeter
G1 F600
G1 X152.25 Y147.75 E2.17874 ; perimeter
G1 X152.25 Y152.25 E2.35747 ; perimeter
G1 X147.75 Y152.25 E2.53621 ; perimeter
G1 X147.75 Y147.782 E2.7137 ; perimeter
G1 E.7137 F2400 ; retract
G92 E0 ; reset extrusion distance
G1 X147.886 Y150.46 F7800 ; move to first infill point
G1 E2 F2400 ;  ; unretract
;TYPE:Internal infill
G1 F600
G1 X149.335 Y151.909 E2.08138 ; infill
G1 X150.622 Y151.909 E2.13249 ; infill
G1 X148.091 Y149.378 E2.27465 ; infill
G1 X148.091 Y148.091 E2.32576 ; infill
G1 X151.909 Y151.909 E2.5402 ; infill
G1 X151.909 Y150.622 E2.59131 ; infill
G1 X149.378 Y148.091 E2.73347 ; infill
G1 X150.665 Y148.091 E2.78458 ; infill
G1 X152.114 Y149.54 E2.86596 ; infill
;LAYER_CHANGE
;Z:2.52
;HEIGHT:0.21
G1 Z2.52 F7800 ; move to next layer (11)
G1 E.86596 F2400 ; retract
G92 E0 ; reset extrusion distance
G1 X147.75 Y147.75 F7800 ; move to first perimeter point
G1 E2 F2400 ;  ; unretract
;TYPE:External perimeter
G1 F600
G1 X152.25 Y147.75 E2.17874 ; perimeter
G1 X152.25 Y152.25 E2.35747 ; perimeter
G1 X147.75 Y152.25 E2.53621 ; perimeter
G1 X147.75 Y147.782 E2.7137 ; perimeter
G1 E.7137 F2400 ; retract
G92 E0 ; reset extrusion distance
G1 X147.886 Y150.46 F7800 ; move to first infill point
G1 E2 F2400 ;  ; unretract
;TYPE:Internal infill
G1 F600
G1 X149.335 Y151.909 E2.08138 ; infill
G1 X150.622 Y151.909 E2.13249 ; infill
G1 X148.091 Y149.378 E2.27465 ; infill
G1 X148.091 Y148.091 E2.32576 ; infill
G1 X151.909 Y151.909 E2.5402 ; infill
G1 X151.909 Y150.622 E2.59131 ; infill
G1 X149.378 Y148.091 E2.73347 ; infill
G1 X150.665 Y148.091 E2.78458 ; infill
G1 X152.114 Y149.54 E2.86596 ; infill
;LAYER_CHANGE
;Z:2.73
;HEIGHT:0.21
G1 Z2.73 F7800 ; move to next layer (12)
G1 E.86596 F2400 ; retract
G92 E0 ; reset extrusion distance
G1 X147.75 Y147.75 F7800 ; move to first perimeter point
G1 E2 F2400 ;  ; unretract
;TYPE:External perimeter
G1 F600
G1 X152.25 Y147.75 E2.17874 ; perimeter
G1 X152.25 Y152.25 E2.35747 ; perimeter
G1 X147.75 Y152.25 E2.53621 ; perimeter
G1 X147.75 Y147.782 E2.7137 ; perimeter
G1 E.7137 F2400 ; retract
G92 E0 ; reset extrusion distance
G1 X147.886 Y150.46 F7800 ; move to first infill point
G1 E2 F2400 ;  ; unretract
;TYPE:Internal infill
G1 F600
G1 X149.335 Y151.909 E2.08138 ; infill
G1 X150.622 Y151.909 E2.13249 ; infill
G1 X148.091 Y149.378 E2.27465 ; infill
G1 X148.091 Y148.091 E2.32576 ; infill
G1 X151.909 Y151.909 E2.5402 ; infill
G1 X151.909 Y150.622 E2.59131 ; infill
G1 X149.378 Y148.091 E2.73347 ; infill
G1 X150.665 Y148.091 E2.78458 ; infill
G1 X152.114 Y149.54 E2.86596 ; infill
;LAYER_CHANGE
;Z:2.94
;HEIGHT:0.21
G1 Z2.94 F7800 ; move to next layer (13)
G1 E.86596 F2400 ; retract
G92 E0 ; reset extrusion distance
G1 X147.75 Y147.75 F7800 ; move to first perimeter point
G1 E2 F2400 ;  ; unretract
;TYPE:External perimeter
G1 F600
G1 X152.25 Y147.75 E2.17874 ; perimeter
G1 X152.25 Y152.25 E2.35747 ; perimeter
G1 X147.75 Y152.25 E2.53621 ; perimeter
G1 X147.75 Y147.782 E2.7137 ; perimeter
G1 E.7137 F2400 ; retract
G92 E0 ; reset extrusion distance
G1 X147.886 Y150.46 F7800 ; move to first infill point
G1 E2 F2400 ;  ; unretract
;TYPE:Internal infill
G1 F600
G1 X149.335 Y151.909 E2.08138 ; infill
G1 X150.622 Y151.909 E2.13249 ; infill
G1 X148.091 Y149.378 E2.27465 ; infill
G1 X148.091 Y148.091 E2.32576 ; infill
G1 X151.909 Y151.909 E2.5402 ; infill
G1 X151.909 Y150.622 E2.59131 ; infill
G1 X149.378 Y148.091 E2.73347 ; infill
G1 X150.665 Y148.091 E2.78458 ; infill
G1 X152.114 Y149.54 E2.86596 ; infill
;LAYER_CHANGE
;Z:3.15
;HEIGHT:0.21
G1 Z3.15 F7800 ; move to next layer (14)
G1 E.86596 F2400 ; retract
G92 E0 ; reset extrusion distance
G1 X147.75 Y147.75 F7800 ; move to first perimeter point
G1 E2 F2400 ;  ; unretract
;TYPE:External perimeter
G1 F600
G1 X152.25 Y147.75 E2.17874 ; perimeter
G1 X152.25 Y152.25 E2.35747 ; perimeter
G1 X147.75 Y152.25 E2.53621 ; perimeter
G1 X147.75 Y147.782 E2.7137 ; perimeter
G1 E.7137 F2400 ; retract
G92 E0 ; reset extrusion distance
G1 X147.886 Y150.46 F7800 ; move to first infill point
G1 E2 F2400 ;  ; unretract
;TYPE:Internal infill
G1 F600
G1 X149.335 Y151.909 E2.08138 ; infill
G1 X150.622 Y151.909 E2.13249 ; infill
G1 X148.091 Y149.378 E2.27465 ; infill
G1 X148.091 Y148.091 E2.32576 ; infill
G1 X151.909 Y151.909 E2.5402 ; infill
G1 X151.909 Y150.622 E2.59131 ; infill
G1 X149.378 Y148.091 E2.73347 ; infill
G1 X150.665 Y148.091 E2.78458 ; infill
G1 X152.114 Y149.54 E2.86596 ; infill
;LAYER_CHANGE
;Z:3.36
;HEIGHT:0.21
G1 Z3.36 F7800 ; move to next layer (15)
G1 E.86596 F2400 ; retract
G92 E0 ; reset extrusion distance
G1 X147.75 Y147.75 F7800 ; move to first perimeter point
G1 E2 F2400 ;  ; unretract
;TYPE:External perimeter
G1 F600
G1 X152.25 Y147.75 E2.17874 ; perimeter
G1 X152.25 Y152.25 E2.35747 ; perimeter
G1 X147.75 Y152.25 E2.53621 ; perimeter
G1 X147.75 Y147.782 E2.7137 ; perimeter
G1 E.7137 F2400 ; retract
G92 E0 ; reset extrusion distance
G1 X147.886 Y150.46 F7800 ; move to first infill point
G1 E2 F2400 ;  ; unretract
;TYPE:Internal infill
G1 F600
G1 X149.335 Y151.909 E2.08138 ; infill
G1 X150.622 Y151.909 E2.13249 ; infill
G1 X148.091 Y149.378 E2.27465 ; infill
G1 X148.091 Y148.091 E2.32576 ; infill
G1 X151.909 Y151.909 E2.5402 ; infill
G1 X151.909 Y150.622 E2.59131 ; infill
