; generated by PrusaSlicer 2.4.2+win64 on 2022-08-16 at 01:44:38 UTC

; 

; external perimeters extrusion width = 0.20mm
; perimeters extrusion width = 0.20mm
; infill extrusion width = 0.20mm
; solid infill extrusion width = 0.30mm
; top infill extrusion width = 0.30mm
; first layer extrusion width = 0.20mm

M107 ; disable fan
M104 S200 ; set temperature
;TYPE:Custom
G28 ; home all axes
G1 Z5 F5000 ; lift nozzle
M109 S200 ; set temperature and wait for it to be reached
G21 ; set units to millimeters
G90 ; use absolute coordinates
M82 ; use absolute distances for extrusion
G92 E0 ; reset extrusion distance
; Filament gcode
M107 ; disable fan
;LAYER_CHANGE
;Z:0.2
;HEIGHT:0.2
G1 Z.2 F7800 ; move to next layer (0)
G1 E-2 F2400 ; retract
G92 E0 ; reset extrusion distance
G1 X147.914 Y147.914 F7800 ; move to first perimeter point
G1 E2 F2400 ;  ; unretract
;TYPE:Perimeter
;WIDTH:0.2
G1 F1514
G1 X152.086 Y147.914 E2.05449 ; perimeter
G1 X152.086 Y152.086 E2.10897 ; perimeter
G1 X147.914 Y152.086 E2.16346 ; perimeter
G1 X147.914 Y147.974 E2.21717 ; perimeter
G1 X147.757 Y147.757 F7800 ; move to first perimeter point
G1 F1514
G1 X152.243 Y147.757 E2.27576 ; perimeter
G1 X152.243 Y152.243 E2.33435 ; perimeter
G1 X147.757 Y152.243 E2.39294 ; perimeter
G1 X147.757 Y147.817 E2.45074 ; perimeter
G1 X147.6 Y147.6 F7800 ; move to first perimeter point
;TYPE:External perimeter
G1 F1514
G1 X152.4 Y147.6 E2.51344 ; perimeter
G1 X152.4 Y152.4 E2.57613 ; perimeter
G1 X147.6 Y152.4 E2.63883 ; perimeter
G1 X147.6 Y147.66 E2.70074 ; perimeter
G1 X147.986 Y147.704 F7800 ; move inwards before travel
G1 E.70074 F2400 ; retract
G92 E0 ; reset extrusion distance
G1 X147.962 Y151.522 F7800 ; move to first infill point
G1 E2 F2400 ;  ; unretract
;TYPE:Internal infill
G1 F1514
G1 X148.403 Y151.963 E2.00815 ; infill
G1 X149.589 Y151.963 E2.02365 ; infill
G1 X148.037 Y150.411 E2.05232 ; infill
G1 X148.037 Y149.224 E2.06781 ; infill
G1 X150.776 Y151.963 E2.1184 ; infill
G1 X151.963 Y151.963 E2.1339 ; infill
G1 X148.037 Y148.037 E2.20641 ; infill
G1 X149.224 Y148.037 E2.22191 ; infill
G1 X151.963 Y150.776 E2.27249 ; infill
G1 X151.963 Y149.589 E2.28799 ; infill
G1 X150.411 Y148.037 E2.31666 ; infill
G1 X151.597 Y148.037 E2.33216 ; infill
G1 X152.038 Y148.478 E2.34031 ; infill
;LAYER_CHANGE
;Z:0.35
;HEIGHT:0.15
G1 Z.35 F7800 ; move to next layer (1)
G1 E.34031 F2400 ; retract
G92 E0 ; reset extrusion distance
G1 X147.936 Y147.936 F7800 ; move to first perimeter point
G1 E2 F2400 ;  ; unretract
;TYPE:Perimeter
G1 F900
G1 X152.064 Y147.936 E2.04321 ; perimeter
G1 X152.064 Y152.064 E2.08642 ; perimeter
G1 X147.936 Y152.064 E2.12962 ; perimeter
G1 X147.936 Y147.996 E2.1722 ; perimeter
G1 X147.768 Y147.768 F7800 ; move to first perimeter point
G1 F900
G1 X152.232 Y147.768 E2.21892 ; perimeter
G1 X152.232 Y152.232 E2.26564 ; perimeter
G1 X147.768 Y152.232 E2.31236 ; perimeter
G1 X147.768 Y147.828 E2.35846 ; perimeter
G1 X147.6 Y147.6 F7800 ; move to first perimeter point
;TYPE:External perimeter
G1 F900
G1 X152.4 Y147.6 E2.40869 ; perimeter
G1 X152.4 Y152.4 E2.45892 ; perimeter
G1 X147.6 Y152.4 E2.50915 ; perimeter
G1 X147.6 Y147.66 E2.55876 ; perimeter
G1 X147.986 Y147.704 F7800 ; move inwards before travel
G1 E.55876 F2400 ; retract
G92 E0 ; reset extrusion distance
G1 X147.973 Y151.533 F7800 ; move to first infill point
G1 E2 F2400 ;  ; unretract
;TYPE:Internal infill
G1 F1318
G1 X148.391 Y151.951 E2.00618 ; infill
G1 X149.578 Y151.951 E2.0186 ; infill
G1 X148.049 Y150.422 E2.04123 ; infill
G1 X148.049 Y149.236 E2.05365 ; infill
G1 X150.764 Y151.951 E2.09383 ; infill
G1 X151.951 Y151.951 E2.10625 ; infill
G1 X148.049 Y148.049 E2.164 ; infill
G1 X149.236 Y148.049 E2.17642 ; infill
G1 X151.951 Y150.764 E2.21661 ; infill
G1 X151.951 Y149.578 E2.22903 ; infill
G1 X150.422 Y148.049 E2.25165 ; infill
G1 X151.609 Y148.049 E2.26407 ; infill
G1 X152.027 Y148.467 E2.27025 ; infill
;LAYER_CHANGE
;Z:0.5
;HEIGHT:0.15
G1 Z.5 F7800 ; move to next layer (2)
G1 E.27025 F2400 ; retract
G92 E0 ; reset extrusion distance
G1 X147.936 Y147.936 F7800 ; move to first perimeter point
G1 E2 F2400 ;  ; unretract
;TYPE:Perimeter
G1 F900
G1 X152.064 Y147.936 E2.04321 ; perimeter
G1 X152.064 Y152.064 E2.08642 ; perimeter
G1 X147.936 Y152.064 E2.12962 ; perimeter
G1 X147.936 Y147.996 E2.1722 ; perimeter
G1 X147.768 Y147.768 F7800 ; move to first perimeter point
G1 F900
G1 X152.232 Y147.768 E2.21892 ; perimeter
G1 X152.232 Y152.232 E2.26564 ; perimeter
G1 X147.768 Y152.232 E2.31236 ; perimeter
G1 X147.768 Y147.828 E2.35846 ; perimeter
G1 X147.6 Y147.6 F7800 ; move to first perimeter point
;TYPE:External perimeter
G1 F900
G1 X152.4 Y147.6 E2.40869 ; perimeter
G1 X152.4 Y152.4 E2.45892 ; perimeter
G1 X147.6 Y152.4 E2.50915 ; perimeter
G1 X147.6 Y147.66 E2.55876 ; perimeter
G1 X147.986 Y147.704 F7800 ; move inwards before travel
G1 E.55876 F2400 ; retract
G92 E0 ; reset extrusion distance
G1 X147.973 Y151.533 F7800 ; move to first infill point
G1 E2 F2400 ;  ; unretract
;TYPE:Internal infill
G1 F1317
G1 X148.391 Y151.951 E2.00618 ; infill
G1 X149.578 Y151.951 E2.0186 ; infill
G1 X148.049 Y150.422 E2.04123 ; infill
G1 X148.049 Y149.236 E2.05365 ; infill
G1 X150.764 Y151.951 E2.09383 ; infill
G1 X151.951 Y151.951 E2.10625 ; infill
G1 X148.049 Y148.049 E2.164 ; infill
G1 X149.236 Y148.049 E2.17642 ; infill
G1 X151.951 Y150.764 E2.21661 ; infill
G1 X151.951 Y149.578 E2.22903 ; infill
G1 X150.422 Y148.049 E2.25165 ; infill
G1 X151.609 Y148.049 E2.26407 ; infill
G1 X152.027 Y148.467 E2.27025 ; infill
M106 S252.45 ; enable fan
;LAYER_CHANGE
;Z:0.65
;HEIGHT:0.15
G1 Z.65 F7800 ; move to next layer (3)
G1 E.27025 F2400 ; retract
G92 E0 ; reset extrusion distance
G1 X147.936 Y147.936 F7800 ; move to first perimeter point
G1 E2 F2400 ;  ; unretract
;TYPE:Perimeter
G1 F900
G1 X152.064 Y147.936 E2.04321 ; perimeter
G1 X152.064 Y152.064 E2.08642 ; perimeter
G1 X147.936 Y152.064 E2.12962 ; perimeter
G1 X147.936 Y147.996 E2.1722 ; perimeter
G1 X147.768 Y147.768 F7800 ; move to first perimeter point
G1 F900
G1 X152.232 Y147.768 E2.21892 ; perimeter
G1 X152.232 Y152.232 E2.26564 ; perimeter
G1 X147.768 Y152.232 E2.31236 ; perimeter
G1 X147.768 Y147.828 E2.35846 ; perimeter
G1 X147.6 Y147.6 F7800 ; move to first perimeter point
;TYPE:External perimeter
G1 F900
G1 X152.4 Y147.6 E2.40869 ; perimeter
G1 X152.4 Y152.4 E2.45892 ; perimeter
G1 X147.6 Y152.4 E2.50915 ; perimeter
G1 X147.6 Y147.66 E2.55876 ; perimeter
G1 X147.986 Y147.704 F7800 ; move inwards before travel
G1 E.55876 F2400 ; retract
G92 E0 ; reset extrusion distance
G1 X147.973 Y151.533 F7800 ; move to first infill point
G1 E2 F2400 ;  ; unretract
;TYPE:Internal infill
G1 F1317
G1 X148.391 Y151.951 E2.00618 ; infill
G1 X149.578 Y151.951 E2.0186 ; infill
G1 X148.049 Y150.422 E2.04123 ; infill
G1 X148.049 Y149.236 E2.05365 ; infill
G1 X150.764 Y151.951 E2.09383 ; infill
G1 X151.951 Y151.951 E2.10625 ; infill
G1 X148.049 Y148.049 E2.164 ; infill
G1 X149.236 Y148.049 E2.17642 ; infill
G1 X151.951 Y150.764 E2.21661 ; infill
G1 X151.951 Y149.578 E2.22903 ; infill
G1 X150.422 Y148.049 E2.25165 ; infill
G1 X151.609 Y148.049 E2.26407 ; infill
G1 X152.027 Y148.467 E2.27025 ; infill
;LAYER_CHANGE
;Z:0.8
;HEIGHT:0.15
G1 Z.8 F7800 ; move to next layer (4)
G1 E.27025 F2400 ; retract
G92 E0 ; reset extrusion distance
G1 X147.936 Y147.936 F7800 ; move to first perimeter point
G1 E2 F2400 ;  ; unretract
;TYPE:Perimeter
G1 F900
G1 X152.064 Y147.936 E2.04321 ; perimeter
G1 X152.064 Y152.064 E2.08642 ; perimeter
G1 X147.936 Y152.064 E2.12962 ; perimeter
G1 X147.936 Y147.996 E2.1722 ; perimeter
G1 X147.768 Y147.768 F7800 ; move to first perimeter point
G1 F900
G1 X152.232 Y147.768 E2.21892 ; perimeter
G1 X152.232 Y152.232 E2.26564 ; perimeter
G1 X147.768 Y152.232 E2.31236 ; perimeter
G1 X147.768 Y147.828 E2.35846 ; perimeter
G1 X147.6 Y147.6 F7800 ; move to first perimeter point
;TYPE:External perimeter
G1 F900
G1 X152.4 Y147.6 E2.40869 ; perimeter
G1 X152.4 Y152.4 E2.45892 ; perimeter
G1 X147.6 Y152.4 E2.50915 ; perimeter
G1 X147.6 Y147.66 E2.55876 ; perimeter
G1 X147.986 Y147.704 F7800 ; move inwards before travel
G1 E.55876 F2400 ; retract
G92 E0 ; reset extrusion distance
G1 X147.973 Y151.533 F7800 ; move to first infill point
G1 E2 F2400 ;  ; unretract
;TYPE:Internal infill
G1 F1317
G1 X148.391 Y151.951 E2.00618 ; infill
G1 X149.578 Y151.951 E2.0186 ; infill
G1 X148.049 Y150.422 E2.04123 ; infill
G1 X148.049 Y149.236 E2.05365 ; infill
G1 X150.764 Y151.951 E2.09383 ; infill
G1 X151.951 Y151.951 E2.10625 ; infill
G1 X148.049 Y148.049 E2.164 ; infill
G1 X149.236 Y148.049 E2.17642 ; infill
G1 X151.951 Y150.764 E2.21661 ; infill
G1 X151.951 Y149.578 E2.22903 ; infill
G1 X150.422 Y148.049 E2.25165 ; infill
G1 X151.609 Y148.049 E2.26407 ; infill
G1 X152.027 Y148.467 E2.27025 ; infill
;LAYER_CHANGE
;Z:0.95
;HEIGHT:0.15
G1 Z.95 F7800 ; move to next layer (5)
G1 E.27025 F2400 ; retract
G92 E0 ; reset extrusion distance
G1 X147.936 Y147.936 F7800 ; move to first perimeter point
G1 E2 F2400 ;  ; unretract
;TYPE:Perimeter
G1 F900
G1 X152.064 Y147.936 E2.04321 ; perimeter
G1 X152.064 Y152.064 E2.08642 ; perimeter
G1 X147.936 Y152.064 E2.12962 ; perimeter
G1 X147.936 Y147.996 E2.1722 ; perimeter
G1 X147.768 Y147.768 F7800 ; move to first perimeter point
G1 F900
G1 X152.232 Y147.768 E2.21892 ; perimeter
G1 X152.232 Y152.232 E2.26564 ; perimeter
G1 X147.768 Y152.232 E2.31236 ; perimeter
G1 X147.768 Y147.828 E2.35846 ; perimeter
G1 X147.6 Y147.6 F7800 ; move to first perimeter point
;TYPE:External perimeter
G1 F900
G1 X152.4 Y147.6 E2.40869 ; perimeter
G1 X152.4 Y152.4 E2.45892 ; perimeter
G1 X147.6 Y152.4 E2.50915 ; perimeter
G1 X147.6 Y147.66 E2.55876 ; perimeter
G1 X147.986 Y147.704 F7800 ; move inwards before travel
G1 E.55876 F2400 ; retract
G92 E0 ; reset extrusion distance
G1 X147.973 Y151.533 F7800 ; move to first infill point
G1 E2 F2400 ;  ; unretract
;TYPE:Internal infill
G1 F1317
G1 X148.391 Y151.951 E2.00618 ; infill
G1 X149.578 Y151.951 E2.0186 ; infill
G1 X148.049 Y150.422 E2.04123 ; infill
G1 X148.049 Y149.236 E2.05365 ; infill
G1 X150.764 Y151.951 E2.09383 ; infill
G1 X151.951 Y151.951 E2.10625 ; infill
G1 X148.049 Y148.049 E2.164 ; infill
G1 X149.236 Y148.049 E2.17642 ; infill
G1 X151.951 Y150.764 E2.21661 ; infill
G1 X151.951 Y149.578 E2.22903 ; infill
G1 X150.422 Y148.049 E2.25165 ; infill
G1 X151.609 Y148.049 E2.26407 ; infill
G1 X152.027 Y148.467 E2.27025 ; infill
;LAYER_CHANGE
;Z:1.1
;HEIGHT:0.15
G1 Z1.1 F7800 ; move to next layer (6)
G1 E.27025 F2400 ; retract
G92 E0 ; reset extrusion distance
G1 X147.936 Y147.936 F7800 ; move to first perimeter point
G1 E2 F2400 ;  ; unretract
;TYPE:Perimeter
G1 F900
G1 X152.064 Y147.936 E2.04321 ; perimeter
G1 X152.064 Y152.064 E2.08642 ; perimeter
G1 X147.936 Y152.064 E2.12962 ; perimeter
G1 X147.936 Y147.996 E2.1722 ; perimeter
G1 X147.768 Y147.768 F7800 ; move to first perimeter point
G1 F900
G1 X152.232 Y147.768 E2.21892 ; perimeter
G1 X152.232 Y152.232 E2.26564 ; perimeter
G1 X147.768 Y152.232 E2.31236 ; perimeter
G1 X147.768 Y147.828 E2.35846 ; perimeter
G1 X147.6 Y147.6 F7800 ; move to first perimeter point
;TYPE:External perimeter
G1 F900
G1 X152.4 Y147.6 E2.40869 ; perimeter
G1 X152.4 Y152.4 E2.45892 ; perimeter
G1 X147.6 Y152.4 E2.50915 ; perimeter
G1 X147.6 Y147.66 E2.55876 ; perimeter
G1 X147.986 Y147.704 F7800 ; move inwards before travel
G1 E.55876 F2400 ; retract
G92 E0 ; reset extrusion distance
G1 X147.973 Y151.533 F7800 ; move to first infill point
G1 E2 F2400 ;  ; unretract
;TYPE:Internal infill
G1 F1317
G1 X148.391 Y151.951 E2.00618 ; infill
G1 X149.578 Y151.951 E2.0186 ; infill
G1 X148.049 Y150.422 E2.04123 ; infill
G1 X148.049 Y149.236 E2.05365 ; infill
G1 X150.764 Y151.951 E2.09383 ; infill
G1 X151.951 Y151.951 E2.10625 ; infill
G1 X148.049 Y148.049 E2.164 ; infill
G1 X149.236 Y148.049 E2.17642 ; infill
G1 X151.951 Y150.764 E2.21661 ; infill
G1 X151.951 Y149.578 E2.22903 ; infill
G1 X150.422 Y148.049 E2.25165 ; infill
G1 X151.609 Y148.049 E2.26407 ; infill
G1 X152.027 Y148.467 E2.27025 ; infill
;LAYER_CHANGE
;Z:1.25
;HEIGHT:0.15
G1 Z1.25 F7800 ; move to next layer (7)
G1 E.27025 F2400 ; retract
G92 E0 ; reset extrusion distance
G1 X147.936 Y147.936 F7800 ; move to first perimeter point
G1 E2 F2400 ;  ; unretract
;TYPE:Perimeter
G1 F900
G1 X152.064 Y147.936 E2.04321 ; perimeter
G1 X152.064 Y152.064 E2.08642 ; perimeter
G1 X147.936 Y152.064 E2.12962 ; perimeter
G1 X147.936 Y147.996 E2.1722 ; perimeter
G1 X147.768 Y147.768 F7800 ; move to first perimeter point
G1 F900
G1 X152.232 Y147.768 E2.21892 ; perimeter
G1 X152.232 Y152.232 E2.26564 ; perimeter
G1 X147.768 Y152.232 E2.31236 ; perimeter
G1 X147.768 Y147.828 E2.35846 ; perimeter
G1 X147.6 Y147.6 F7800 ; move to first perimeter point
;TYPE:External perimeter
G1 F900
G1 X152.4 Y147.6 E2.40869 ; perimeter
G1 X152.4 Y152.4 E2.45892 ; perimeter
G1 X147.6 Y152.4 E2.50915 ; perimeter
G1 X147.6 Y147.66 E2.55876 ; perimeter
G1 X147.986 Y147.704 F7800 ; move inwards before travel
G1 E.55876 F2400 ; retract
G92 E0 ; reset extrusion distance
G1 X147.973 Y151.533 F7800 ; move to first infill point
G1 E2 F2400 ;  ; unretract
;TYPE:Internal infill
G1 F1317
G1 X148.391 Y151.951 E2.00618 ; infill
G1 X149.578 Y151.951 E2.0186 ; infill
G1 X148.049 Y150.422 E2.04123 ; infill
G1 X148.049 Y149.236 E2.05365 ; infill
G1 X150.764 Y151.951 E2.09383 ; infill
G1 X151.951 Y151.951 E2.10625 ; infill
G1 X148.049 Y148.049 E2.164 ; infill
G1 X149.236 Y148.049 E2.17642 ; infill
G1 X151.951 Y150.764 E2.21661 ; infill
G1 X151.951 Y149.578 E2.22903 ; infill
G1 X150.422 Y148.049 E2.25165 ; infill
G1 X151.609 Y148.049 E2.26407 ; infill
G1 X152.027 Y148.467 E2.27025 ; infill
;LAYER_CHANGE
;Z:1.4
;HEIGHT:0.15
G1 Z1.4 F7800 ; move to next layer (8)
G1 E.27025 F2400 ; retract
G92 E0 ; reset extrusion distance
G1 X147.936 Y147.936 F7800 ; move to first perimeter point
G1 E2 F2400 ;  ; unretract
;TYPE:Perimeter
G1 F900
G1 X152.064 Y147.936 E2.04321 ; perimeter
G1 X152.064 Y152.064 E2.08642 ; perimeter
G1 X147.936 Y152.064 E2.12962 ; perimeter
G1 X147.936 Y147.996 E2.1722 ; perimeter
G1 X147.768 Y147.768 F7800 ; move to first perimeter point
G1 F900
G1 X152.232 Y147.768 E2.21892 ; perimeter
G1 X152.232 Y152.232 E2.26564 ; perimeter
G1 X147.768 Y152.232 E2.31236 ; perimeter
G1 X147.768 Y147.828 E2.35846 ; perimeter
G1 X147.6 Y147.6 F7800 ; move to first perimeter point
;TYPE:External perimeter
G1 F900
G1 X152.4 Y147.6 E2.40869 ; perimeter
G1 X152.4 Y152.4 E2.45892 ; perimeter
G1 X147.6 Y152.4 E2.50915 ; perimeter
G1 X147.6 Y147.66 E2.55876 ; perimeter
G1 X147.986 Y147.704 F7800 ; move inwards before travel
G1 E.55876 F2400 ; retract
G92 E0 ; reset extrusion distance
G1 X147.973 Y151.533 F7800 ; move to first infill point
G1 E2 F2400 ;  ; unretract
;TYPE:Internal infill
G1 F1317
G1 X148.391 Y151.951 E2.00618 ; infill
G1 X149.578 Y151.951 E2.0186 ; infill
G1 X148.049 Y150.422 E2.04123 ; infill
G1 X148.049 Y149.236 E2.05365 ; infill
G1 X150.764 Y151.951 E2.09383 ; infill
G1 X151.951 Y151.951 E2.10625 ; infill
G1 X148.049 Y148.049 E2.164 ; infill
G1 X149.236 Y148.049 E2.17642 ; infill
G1 X151.951 Y150.764 E2.21661 ; infill
G1 X151.951 Y149.578 E2.22903 ; infill
G1 X150.422 Y148.049 E2.25165 ; infill
G1 X151.609 Y148.049 E2.26407 ; infill
G1 X152.027 Y148.467 E2.27025 ; infill
;LAYER_CHANGE
;Z:1.55
;HEIGHT:0.15
G1 Z1.55 F7800 ; move to next layer (9)
G1 E.27025 F2400 ; retract
G92 E0 ; reset extrusion distance
G1 X147.936 Y147.936 F7800 ; move to first perimeter point
G1 E2 F2400 ;  ; unretract
;TYPE:Perimeter
G1 F900
G1 X152.064 Y147.936 E2.04321 ; perimeter
G1 X152.064 Y152.064 E2.08642 ; perimeter
G1 X147.936 Y152.064 E2.12962 ; perimeter
G1 X147.936 Y147.996 E2.1722 ; perimeter
G1 X147.768 Y147.768 F7800 ; move to first perimeter point
G1 F900
G1 X152.232 Y147.768 E2.21892 ; perimeter
G1 X152.232 Y152.232 E2.26564 ; perimeter
G1 X147.768 Y152.232 E2.31236 ; perimeter
G1 X147.768 Y147.828 E2.35846 ; perimeter
G1 X147.6 Y147.6 F7800 ; move to first perimeter point
