; generated by PrusaSlicer 2.4.2+win64 on 2022-10-06 at 01:54:12 UTC

; 

; external perimeters extrusion width = 0.50mm
; perimeters extrusion width = 0.50mm
; infill extrusion width = 0.50mm
; solid infill extrusion width = 0.50mm
; top infill extrusion width = 0.50mm
; first layer extrusion width = 0.50mm

M107 ; disable fan
M104 S200 ; set temperature
;TYPE:Custom
G28 ; home all axes
G1 Z5 F5000 ; lift nozzle
M109 S200 ; set temperature and wait for it to be reached
G21 ; set units to millimeters
G90 ; use absolute coordinates
M82 ; use absolute distances for extrusion
G92 E0 ; reset extrusion distance
; Filament gcode
M107 ; disable fan
;LAYER_CHANGE
;Z:0.4
;HEIGHT:0.4
G1 Z.4 F7800 ; move to next layer (0)
G1 E-2 F2400 ; retract
G92 E0 ; reset extrusion distance
G1 X147.75 Y147.75 F7800 ; move to first perimeter point
G1 E2 F2400 ;  ; unretract
;TYPE:External perimeter
;WIDTH:0.5
G1 F1133
G1 X152.25 Y147.75 E2.30994 ; perimeter
G1 X152.25 Y152.25 E2.61987 ; perimeter
G1 X147.75 Y152.25 E2.92981 ; perimeter
G1 X147.75 Y147.813 E3.23541 ; perimeter
G1 E1.23541 F2400 ; retract
G92 E0 ; reset extrusion distance
G1 X151.247 Y147.874 F7800 ; move to first infill point
G1 E2 F2400 ;  ; unretract
;TYPE:Solid infill
;WIDTH:0.519493
G1 F1133
G1 X151.939 Y148.566 E2.0706 ; infill
G1 X151.939 Y149.18 E2.11482 ; infill
G1 X150.82 Y148.061 E2.22896 ; infill
G1 X150.207 Y148.061 E2.27319 ; infill
G1 X151.939 Y149.793 E2.44987 ; infill
G1 X151.939 Y150.406 E2.4941 ; infill
G1 X149.594 Y148.061 E2.73333 ; infill
G1 X148.98 Y148.061 E2.77755 ; infill
G1 X151.939 Y151.02 E3.07933 ; infill
G1 X151.939 Y151.633 E3.12356 ; infill
G1 X148.367 Y148.061 E3.48788 ; infill
G1 X148.061 Y148.061 E3.50999 ; infill
G1 X148.061 Y148.367 E3.53211 ; infill
G1 X151.633 Y151.939 E3.89642 ; infill
G1 X151.019 Y151.939 E3.94065 ; infill
G1 X148.061 Y148.981 E4.24241 ; infill
G1 X148.061 Y149.594 E4.28664 ; infill
G1 X150.406 Y151.939 E4.52585 ; infill
G1 X149.793 Y151.939 E4.57008 ; infill
G1 X148.061 Y150.207 E4.74675 ; infill
G1 X148.061 Y150.82 E4.79098 ; infill
G1 X149.18 Y151.939 E4.9051 ; infill
G1 X148.566 Y151.939 E4.94933 ; infill
G1 X147.874 Y151.247 E5.01991 ; infill
;LAYER_CHANGE
;Z:0.73
;HEIGHT:0.33
G1 Z.73 F7800 ; move to next layer (1)
G1 E3.01991 F2400 ; retract
G92 E0 ; reset extrusion distance
G1 X147.75 Y147.75 F7800 ; move to first perimeter point
G1 E2 F2400 ;  ; unretract
;TYPE:External perimeter
;WIDTH:0.5
G1 F600
G1 X152.25 Y147.75 E2.26497 ; perimeter
G1 X152.25 Y152.25 E2.52995 ; perimeter
G1 X147.75 Y152.25 E2.79492 ; perimeter
G1 X147.75 Y147.813 E3.05618 ; perimeter
G1 X148.48 Y147.879 F7800 ; move to first infill point
;TYPE:Internal infill
G1 F600
G1 X148.072 Y148.286 E3.09013 ; infill
G1 X148.072 Y149.5 E3.1616 ; infill
G1 X149.5 Y148.072 E3.28055 ; infill
G1 X150.714 Y148.072 E3.35203 ; infill
G1 X148.072 Y150.714 E3.57206 ; infill
G1 X148.072 Y151.928 E3.64354 ; infill
G1 X151.928 Y148.072 E3.96466 ; infill
G1 X151.928 Y149.286 E4.03614 ; infill
G1 X149.286 Y151.928 E4.25617 ; infill
G1 X150.5 Y151.928 E4.32765 ; infill
G1 X151.928 Y150.5 E4.4466 ; infill
G1 X151.928 Y151.714 E4.51808 ; infill
G1 X151.52 Y152.121 E4.55202 ; infill
;LAYER_CHANGE
;Z:1.06
;HEIGHT:0.33
G1 Z1.06 F7800 ; move to next layer (2)
G1 E2.55202 F2400 ; retract
G92 E0 ; reset extrusion distance
G1 X147.75 Y147.75 F7800 ; move to first perimeter point
G1 E2 F2400 ;  ; unretract
;TYPE:External perimeter
G1 F600
G1 X152.25 Y147.75 E2.26497 ; perimeter
G1 X152.25 Y152.25 E2.52995 ; perimeter
G1 X147.75 Y152.25 E2.79492 ; perimeter
G1 X147.75 Y147.813 E3.05618 ; perimeter
G1 E1.05618 F2400 ; retract
G92 E0 ; reset extrusion distance
G1 X147.879 Y151.52 F7800 ; move to first infill point
G1 E2 F2400 ;  ; unretract
;TYPE:Internal infill
G1 F600
G1 X148.286 Y151.928 E2.03395 ; infill
G1 X149.5 Y151.928 E2.10542 ; infill
G1 X148.072 Y150.5 E2.22437 ; infill
G1 X148.072 Y149.286 E2.29585 ; infill
G1 X150.714 Y151.928 E2.51588 ; infill
G1 X151.928 Y151.928 E2.58736 ; infill
G1 X148.072 Y148.072 E2.90848 ; infill
G1 X149.286 Y148.072 E2.97996 ; infill
G1 X151.928 Y150.714 E3.19999 ; infill
G1 X151.928 Y149.5 E3.27147 ; infill
G1 X150.5 Y148.072 E3.39042 ; infill
G1 X151.714 Y148.072 E3.4619 ; infill
G1 X152.121 Y148.48 E3.49584 ; infill
M106 S255 ; enable fan
;LAYER_CHANGE
;Z:1.39
;HEIGHT:0.33
G1 Z1.39 F7800 ; move to next layer (3)
G1 E1.49584 F2400 ; retract
G92 E0 ; reset extrusion distance
G1 X147.75 Y147.75 F7800 ; move to first perimeter point
G1 E2 F2400 ;  ; unretract
;TYPE:External perimeter
G1 F600
G1 X152.25 Y147.75 E2.26497 ; perimeter
G1 X152.25 Y152.25 E2.52995 ; perimeter
G1 X147.75 Y152.25 E2.79492 ; perimeter
G1 X147.75 Y147.813 E3.05618 ; perimeter
G1 X148.48 Y147.879 F7800 ; move to first infill point
;TYPE:Internal infill
G1 F600
G1 X148.072 Y148.286 E3.09013 ; infill
G1 X148.072 Y149.5 E3.1616 ; infill
G1 X149.5 Y148.072 E3.28055 ; infill
G1 X150.714 Y148.072 E3.35203 ; infill
G1 X148.072 Y150.714 E3.57206 ; infill
G1 X148.072 Y151.928 E3.64354 ; infill
G1 X151.928 Y148.072 E3.96466 ; infill
G1 X151.928 Y149.286 E4.03614 ; infill
G1 X149.286 Y151.928 E4.25617 ; infill
G1 X150.5 Y151.928 E4.32765 ; infill
G1 X151.928 Y150.5 E4.4466 ; infill
G1 X151.928 Y151.714 E4.51808 ; infill
G1 X151.52 Y152.121 E4.55202 ; infill
;LAYER_CHANGE
;Z:1.72
;HEIGHT:0.33
G1 Z1.72 F7800 ; move to next layer (4)
G1 E2.55202 F2400 ; retract
G92 E0 ; reset extrusion distance
G1 X147.75 Y147.75 F7800 ; move to first perimeter point
G1 E2 F2400 ;  ; unretract
;TYPE:External perimeter
G1 F600
G1 X152.25 Y147.75 E2.26497 ; perimeter
G1 X152.25 Y152.25 E2.52995 ; perimeter
G1 X147.75 Y152.25 E2.79492 ; perimeter
G1 X147.75 Y147.813 E3.05618 ; perimeter
G1 E1.05618 F2400 ; retract
G92 E0 ; reset extrusion distance
G1 X147.879 Y151.52 F7800 ; move to first infill point
G1 E2 F2400 ;  ; unretract
;TYPE:Internal infill
G1 F600
G1 X148.286 Y151.928 E2.03395 ; infill
G1 X149.5 Y151.928 E2.10542 ; infill
G1 X148.072 Y150.5 E2.22437 ; infill
G1 X148.072 Y149.286 E2.29585 ; infill
G1 X150.714 Y151.928 E2.51588 ; infill
G1 X151.928 Y151.928 E2.58736 ; infill
G1 X148.072 Y148.072 E2.90848 ; infill
G1 X149.286 Y148.072 E2.97996 ; infill
G1 X151.928 Y150.714 E3.19999 ; infill
G1 X151.928 Y149.5 E3.27147 ; infill
G1 X150.5 Y148.072 E3.39042 ; infill
G1 X151.714 Y148.072 E3.4619 ; infill
G1 X152.121 Y148.48 E3.49584 ; infill
;LAYER_CHANGE
;Z:2.05
;HEIGHT:0.33
G1 Z2.05 F7800 ; move to next layer (5)
G1 E1.49584 F2400 ; retract
G92 E0 ; reset extrusion distance
G1 X147.75 Y147.75 F7800 ; move to first perimeter point
G1 E2 F2400 ;  ; unretract
;TYPE:External perimeter
G1 F600
G1 X152.25 Y147.75 E2.26497 ; perimeter
G1 X152.25 Y152.25 E2.52995 ; perimeter
G1 X147.75 Y152.25 E2.79492 ; perimeter
G1 X147.75 Y147.813 E3.05618 ; perimeter
G1 X148.48 Y147.879 F7800 ; move to first infill point
;TYPE:Internal infill
G1 F600
G1 X148.072 Y148.286 E3.09013 ; infill
G1 X148.072 Y149.5 E3.1616 ; infill
G1 X149.5 Y148.072 E3.28055 ; infill
G1 X150.714 Y148.072 E3.35203 ; infill
G1 X148.072 Y150.714 E3.57206 ; infill
G1 X148.072 Y151.928 E3.64354 ; infill
G1 X151.928 Y148.072 E3.96466 ; infill
G1 X151.928 Y149.286 E4.03614 ; infill
G1 X149.286 Y151.928 E4.25617 ; infill
G1 X150.5 Y151.928 E4.32765 ; infill
G1 X151.928 Y150.5 E4.4466 ; infill
G1 X151.928 Y151.714 E4.51808 ; infill
G1 X151.52 Y152.121 E4.55202 ; infill
;LAYER_CHANGE
;Z:2.38
;HEIGHT:0.33
G1 Z2.38 F7800 ; move to next layer (6)
G1 E2.55202 F2400 ; retract
G92 E0 ; reset extrusion distance
G1 X147.75 Y147.75 F7800 ; move to first perimeter point
G1 E2 F2400 ;  ; unretract
;TYPE:External perimeter
G1 F600
G1 X152.25 Y147.75 E2.26497 ; perimeter
G1 X152.25 Y152.25 E2.52995 ; perimeter
G1 X147.75 Y152.25 E2.79492 ; perimeter
G1 X147.75 Y147.813 E3.05618 ; perimeter
G1 E1.05618 F2400 ; retract
G92 E0 ; reset extrusion distance
G1 X147.879 Y151.52 F7800 ; move to first infill point
G1 E2 F2400 ;  ; unretract
;TYPE:Internal infill
G1 F600
G1 X148.286 Y151.928 E2.03395 ; infill
G1 X149.5 Y151.928 E2.10542 ; infill
G1 X148.072 Y150.5 E2.22437 ; infill
G1 X148.072 Y149.286 E2.29585 ; infill
G1 X150.714 Y151.928 E2.51588 ; infill
G1 X151.928 Y151.928 E2.58736 ; infill
G1 X148.072 Y148.072 E2.90848 ; infill
G1 X149.286 Y148.072 E2.97996 ; infill
G1 X151.928 Y150.714 E3.19999 ; infill
G1 X151.928 Y149.5 E3.27147 ; infill
G1 X150.5 Y148.072 E3.39042 ; infill
G1 X151.714 Y148.072 E3.4619 ; infill
G1 X152.121 Y148.48 E3.49584 ; infill
;LAYER_CHANGE
;Z:2.71
;HEIGHT:0.33
G1 Z2.71 F7800 ; move to next layer (7)
G1 E1.49584 F2400 ; retract
G92 E0 ; reset extrusion distance
G1 X147.75 Y147.75 F7800 ; move to first perimeter point
G1 E2 F2400 ;  ; unretract
;TYPE:External perimeter
G1 F600
G1 X152.25 Y147.75 E2.26497 ; perimeter
G1 X152.25 Y152.25 E2.52995 ; perimeter
G1 X147.75 Y152.25 E2.79492 ; perimeter
G1 X147.75 Y147.813 E3.05618 ; perimeter
G1 X148.48 Y147.879 F7800 ; move to first infill point
;TYPE:Internal infill
G1 F600
G1 X148.072 Y148.286 E3.09013 ; infill
G1 X148.072 Y149.5 E3.1616 ; infill
G1 X149.5 Y148.072 E3.28055 ; infill
G1 X150.714 Y148.072 E3.35203 ; infill
G1 X148.072 Y150.714 E3.57206 ; infill
G1 X148.072 Y151.928 E3.64354 ; infill
G1 X151.928 Y148.072 E3.96466 ; infill
G1 X151.928 Y149.286 E4.03614 ; infill
G1 X149.286 Y151.928 E4.25617 ; infill
G1 X150.5 Y151.928 E4.32765 ; infill
G1 X151.928 Y150.5 E4.4466 ; infill
G1 X151.928 Y151.714 E4.51808 ; infill
G1 X151.52 Y152.121 E4.55202 ; infill
;LAYER_CHANGE
;Z:3.04
;HEIGHT:0.33
G1 Z3.04 F7800 ; move to next layer (8)
G1 E2.55202 F2400 ; retract
G92 E0 ; reset extrusion distance
G1 X147.75 Y147.75 F7800 ; move to first perimeter point
G1 E2 F2400 ;  ; unretract
;TYPE:External perimeter
G1 F600
G1 X152.25 Y147.75 E2.26497 ; perimeter
G1 X152.25 Y152.25 E2.52995 ; perimeter
G1 X147.75 Y152.25 E2.79492 ; perimeter
G1 X147.75 Y147.813 E3.05618 ; perimeter
G1 E1.05618 F2400 ; retract
G92 E0 ; reset extrusion distance
G1 X147.879 Y151.52 F7800 ; move to first infill point
G1 E2 F2400 ;  ; unretract
;TYPE:Internal infill
G1 F600
G1 X148.286 Y151.928 E2.03395 ; infill
G1 X149.5 Y151.928 E2.10542 ; infill
G1 X148.072 Y150.5 E2.22437 ; infill
G1 X148.072 Y149.286 E2.29585 ; infill
G1 X150.714 Y151.928 E2.51588 ; infill
G1 X151.928 Y151.928 E2.58736 ; infill
G1 X148.072 Y148.072 E2.90848 ; infill
G1 X149.286 Y148.072 E2.97996 ; infill
G1 X151.928 Y150.714 E3.19999 ; infill
G1 X151.928 Y149.5 E3.27147 ; infill
G1 X150.5 Y148.072 E3.39042 ; infill
G1 X151.714 Y148.072 E3.4619 ; infill
G1 X152.121 Y148.48 E3.49584 ; infill
;LAYER_CHANGE
;Z:3.37
;HEIGHT:0.33
G1 Z3.37 F7800 ; move to next layer (9)
G1 E1.49584 F2400 ; retract
G92 E0 ; reset extrusion distance
G1 X147.75 Y147.75 F7800 ; move to first perimeter point
G1 E2 F2400 ;  ; unretract
;TYPE:External perimeter
G1 F600
G1 X152.25 Y147.75 E2.26497 ; perimeter
G1 X152.25 Y152.25 E2.52995 ; perimeter
G1 X147.75 Y152.25 E2.79492 ; perimeter
G1 X147.75 Y147.813 E3.05618 ; perimeter
G1 X148.48 Y147.879 F7800 ; move to first infill point
;TYPE:Internal infill
G1 F600
G1 X148.072 Y148.286 E3.09013 ; infill
G1 X148.072 Y149.5 E3.1616 ; infill
G1 X149.5 Y148.072 E3.28055 ; infill
G1 X150.714 Y148.072 E3.35203 ; infill
G1 X148.072 Y150.714 E3.57206 ; infill
G1 X148.072 Y151.928 E3.64354 ; infill
G1 X151.928 Y148.072 E3.96466 ; infill
G1 X151.928 Y149.286 E4.03614 ; infill
G1 X149.286 Y151.928 E4.25617 ; infill
G1 X150.5 Y151.928 E4.32765 ; infill
G1 X151.928 Y150.5 E4.4466 ; infill
G1 X151.928 Y151.714 E4.51808 ; infill
G1 X151.52 Y152.121 E4.55202 ; infill
;LAYER_CHANGE
;Z:3.7
;HEIGHT:0.33
G1 Z3.7 F7800 ; move to next layer (10)
G1 E2.55202 F2400 ; retract
G92 E0 ; reset extrusion distance
G1 X147.75 Y147.75 F7800 ; move to first perimeter point
G1 E2 F2400 ;  ; unretract
;TYPE:External perimeter
G1 F600
G1 X152.25 Y147.75 E2.26497 ; perimeter
G1 X152.25 Y152.25 E2.52995 ; perimeter
G1 X147.75 Y152.25 E2.79492 ; perimeter
G1 X147.75 Y147.813 E3.05618 ; perimeter
G1 E1.05618 F2400 ; retract
G92 E0 ; reset extrusion distance
G1 X147.879 Y151.52 F7800 ; move to first infill point
G1 E2 F2400 ;  ; unretract
;TYPE:Internal infill
G1 F600
G1 X148.286 Y151.928 E2.03395 ; infill
G1 X149.5 Y151.928 E2.10542 ; infill
G1 X148.072 Y150.5 E2.22437 ; infill
G1 X148.072 Y149.286 E2.29585 ; infill
G1 X150.714 Y151.928 E2.51588 ; infill
G1 X151.928 Y151.928 E2.58736 ; infill
G1 X148.072 Y148.072 E2.90848 ; infill
G1 X149.286 Y148.072 E2.97996 ; infill
G1 X151.928 Y150.714 E3.19999 ; infill
G1 X151.928 Y149.5 E3.27147 ; infill
G1 X150.5 Y148.072 E3.39042 ; infill
G1 X151.714 Y148.072 E3.4619 ; infill
G1 X152.121 Y148.48 E3.49584 ; infill
;LAYER_CHANGE
;Z:4.03
;HEIGHT:0.33
G1 Z4.03 F7800 ; move to next layer (11)
G1 E1.49584 F2400 ; retract
G92 E0 ; reset extrusion distance
G1 X147.75 Y147.75 F7800 ; move to first perimeter point
G1 E2 F2400 ;  ; unretract
;TYPE:External perimeter
G1 F600
G1 X152.25 Y147.75 E2.26497 ; perimeter
G1 X152.25 Y152.25 E2.52995 ; perimeter
G1 X147.75 Y152.25 E2.79492 ; perimeter
G1 X147.75 Y147.813 E3.05618 ; perimeter
G1 X148.48 Y147.879 F7800 ; move to first infill point
;TYPE:Internal infill
G1 F600
G1 X148.072 Y148.286 E3.09013 ; infill
G1 X148.072 Y149.5 E3.1616 ; infill
G1 X149.5 Y148.072 E3.28055 ; infill
G1 X150.714 Y148.072 E3.35203 ; infill
G1 X148.072 Y150.714 E3.57207 ; infill
G1 X148.072 Y151.928 E3.64354 ; infill
G1 X151.928 Y148.072 E3.96466 ; infill
G1 X151.928 Y149.286 E4.03614 ; infill
G1 X149.286 Y151.928 E4.25617 ; infill
G1 X150.5 Y151.928 E4.32765 ; infill
G1 X151.928 Y150.5 E4.4466 ; infill
G1 X151.928 Y151.714 E4.51808 ; infill
G1 X151.52 Y152.121 E4.55202 ; infill
;LAYER_CHANGE
;Z:4.36
;HEIGHT:0.33
G1 Z4.36 F7800 ; move to next layer (12)
G1 E2.55202 F2400 ; retract
G92 E0 ; reset extrusion distance
G1 X147.75 Y147.75 F7800 ; move to first perimeter point
G1 E2 F2400 ;  ; unretract
;TYPE:External perimeter
G1 F600
G1 X152.25 Y147.75 E2.26497 ; perimeter
G1 X152.25 Y152.25 E2.52995 ; perimeter
G1 X147.75 Y152.25 E2.79492 ; perimeter
G1 X147.75 Y147.813 E3.05618 ; perimeter
G1 E1.05618 F2400 ; retract
G92 E0 ; reset extrusion distance
G1 X147.879 Y151.52 F7800 ; move to first infill point
G1 E2 F2400 ;  ; unretract
;TYPE:Internal infill
G1 F600
G1 X148.286 Y151.928 E2.03395 ; infill
G1 X149.5 Y151.928 E2.10542 ; infill
G1 X148.072 Y150.5 E2.22437 ; infill
G1 X148.072 Y149.286 E2.29585 ; infill
G1 X150.714 Y151.928 E2.51588 ; infill
G1 X151.928 Y151.928 E2.58736 ; infill
G1 X148.072 Y148.072 E2.90848 ; infill
G1 X149.286 Y148.072 E2.97996 ; infill
G1 X151.928 Y150.714 E3.19999 ; infill
G1 X151.928 Y149.5 E3.27147 ; infill
G1 X150.5 Y148.072 E3.39042 ; infill
G1 X151.714 Y148.072 E3.4619 ; infill
G1 X152.121 Y148.48 E3.49584 ; infill
;LAYER_CHANGE
;Z:4.69
;HEIGHT:0.33
G1 Z4.69 F7800 ; move to next layer (13)
G1 E1.49584 F2400 ; retract
G92 E0 ; reset extrusion distance
G1 X147.75 Y147.75 F7800 ; move to first perimeter point
G1 E2 F2400 ;  ; unretract
;TYPE:External perimeter
G1 F600
G1 X152.25 Y147.75 E2.26497 ; perimeter
G1 X152.25 Y152.25 E2.52995 ; perimeter
G1 X147.75 Y152.25 E2.79492 ; perimeter
G1 X147.75 Y147.813 E3.05618 ; perimeter
G1 X148.48 Y147.879 F7800 ; move to first infill point
;TYPE:Internal infill
G1 F600
G1 X148.072 Y148.286 E3.09013 ; infill
G1 X148.072 Y149.5 E3.1616 ; infill
G1 X149.5 Y148.072 E3.28055 ; infill
G1 X150.714 Y148.072 E3.35203 ; infill
G1 X148.072 Y150.714 E3.57207 ; infill
G1 X148.072 Y151.928 E3.64354 ; infill
G1 X151.928 Y148.072 E3.96466 ; infill
G1 X151.928 Y149.286 E4.03614 ; infill
G1 X149.286 Y151.928 E4.25617 ; infill
G1 X150.5 Y151.928 E4.32765 ; infill
G1 X151.928 Y150.5 E4.4466 ; infill
G1 X151.928 Y151.714 E4.51808 ; infill
G1 X151.52 Y152.121 E4.55202 ; infill
M106 S252.45 ; enable fan
;LAYER_CHANGE
;Z:5.02
;HEIGHT:0.33
G1 Z5.02 F7800 ; move to next layer (14)
G1 E2.55202 F2400 ; retract
G92 E0 ; reset extrusion distance
G1 X147.75 Y147.75 F7800 ; move to first perimeter point
G1 E2 F2400 ;  ; unretract
;TYPE:External perimeter
G1 F754
