; generated by PrusaSlicer 2.4.2+win64 on 2022-08-15 at 22:43:02 UTC

; 

; external perimeters extrusion width = 0.45mm
; perimeters extrusion width = 0.45mm
; infill extrusion width = 0.45mm
; solid infill extrusion width = 0.45mm
; top infill extrusion width = 0.40mm
; first layer extrusion width = 0.42mm

M107 ; disable fan
M104 S200 ; set temperature
;TYPE:Custom
G28 ; home all axes
G1 Z5 F5000 ; lift nozzle
M109 S200 ; set temperature and wait for it to be reached
G21 ; set units to millimeters
G90 ; use absolute coordinates
M82 ; use absolute distances for extrusion
G92 E0 ; reset extrusion distance
; Filament gcode
M107 ; disable fan
;LAYER_CHANGE
;Z:0.2
;HEIGHT:0.2
G1 Z.2 F7800 ; move to next layer (0)
G1 E-2 F2400 ; retract
G92 E0 ; reset extrusion distance
G1 X94.19 Y96.646 F7800 ; move to first perimeter point
G1 E2 F2400 ;  ; unretract
;TYPE:External perimeter
;WIDTH:0.42
G1 F1350
G1 X100 Y93.292 E2.21033 ; perimeter
G1 X105.81 Y96.646 E2.42067 ; perimeter
G1 X105.81 Y103.354 E2.631 ; perimeter
G1 X100 Y106.708 E2.84134 ; perimeter
G1 X94.19 Y103.354 E3.05167 ; perimeter
G1 X94.19 Y96.706 E3.26012 ; perimeter
G1 X93.99 Y96.299 F7800 ; move inwards before travel
G1 X93.282 Y96.121 ; move to first perimeter point
G1 F1350
G1 X100 Y92.242 E3.50335 ; perimeter
G1 X106.718 Y96.121 E3.74659 ; perimeter
G1 X106.718 Y103.879 E3.98982 ; perimeter
G1 X100 Y107.758 E4.23305 ; perimeter
G1 X93.282 Y103.879 E4.47628 ; perimeter
G1 X93.282 Y96.181 E4.71763 ; perimeter
G1 X93.682 Y96.121 F7800 ; move inwards before travel
;LAYER_CHANGE
;Z:0.4
;HEIGHT:0.2
G1 Z.4 F7800 ; move to next layer (1)
G1 X94.175 Y96.646 ; move to first perimeter point
;WIDTH:0.45
G1 F900
G1 X100 Y93.274 E4.94543 ; perimeter
G1 X105.825 Y96.637 E5.17308 ; perimeter
G1 X105.825 Y103.363 E5.40074 ; perimeter
G1 X100 Y106.726 E5.62839 ; perimeter
G1 X94.175 Y103.363 E5.85605 ; perimeter
G1 X94.175 Y96.706 E6.08138 ; perimeter
G1 X93.975 Y96.3 F7800 ; move inwards before travel
G1 X93.297 Y96.13 ; move to first perimeter point
G1 F1210
G1 X100 Y92.26 E6.34337 ; perimeter
G1 X106.703 Y96.13 E6.60537 ; perimeter
G1 X106.703 Y103.87 E6.86737 ; perimeter
G1 X100 Y107.74 E7.12936 ; perimeter
G1 X93.297 Y103.87 E7.39136 ; perimeter
G1 X93.297 Y96.19 E7.65132 ; perimeter
G1 X93.697 Y96.13 F7800 ; move inwards before travel
;LAYER_CHANGE
;Z:0.6
;HEIGHT:0.2
G1 Z.6 F7800 ; move to next layer (2)
G1 X94.175 Y96.646 ; move to first perimeter point
G1 F900
G1 X100 Y93.274 E7.87913 ; perimeter
G1 X105.825 Y96.637 E8.10678 ; perimeter
G1 X105.825 Y103.363 E8.33443 ; perimeter
G1 X100 Y106.726 E8.56209 ; perimeter
G1 X94.175 Y103.363 E8.78974 ; perimeter
G1 X94.175 Y96.706 E9.01507 ; perimeter
G1 X93.975 Y96.3 F7800 ; move inwards before travel
G1 X93.297 Y96.13 ; move to first perimeter point
G1 F1210
G1 X100 Y92.26 E9.27707 ; perimeter
G1 X106.703 Y96.13 E9.53907 ; perimeter
G1 X106.703 Y103.87 E9.80106 ; perimeter
G1 X100 Y107.74 E10.06306 ; perimeter
G1 X93.297 Y103.87 E10.32505 ; perimeter
G1 X93.297 Y96.19 E10.58502 ; perimeter
G1 X93.697 Y96.13 F7800 ; move inwards before travel
M106 S252.45 ; enable fan
;LAYER_CHANGE
;Z:0.8
;HEIGHT:0.2
G1 Z.8 F7800 ; move to next layer (3)
G1 X94.175 Y96.646 ; move to first perimeter point
G1 F900
G1 X100 Y93.274 E10.81282 ; perimeter
G1 X105.825 Y96.637 E11.04047 ; perimeter
G1 X105.825 Y103.363 E11.26813 ; perimeter
G1 X100 Y106.726 E11.49578 ; perimeter
G1 X94.175 Y103.363 E11.72344 ; perimeter
G1 X94.175 Y96.706 E11.94877 ; perimeter
G1 X93.975 Y96.3 F7800 ; move inwards before travel
G1 X93.297 Y96.13 ; move to first perimeter point
G1 F1210
G1 X100 Y92.26 E12.21076 ; perimeter
G1 X106.703 Y96.13 E12.47276 ; perimeter
G1 X106.703 Y103.87 E12.73476 ; perimeter
G1 X100 Y107.74 E12.99675 ; perimeter
G1 X93.297 Y103.87 E13.25875 ; perimeter
G1 X93.297 Y96.19 E13.51871 ; perimeter
G1 X93.697 Y96.13 F7800 ; move inwards before travel
;LAYER_CHANGE
;Z:1
;HEIGHT:0.2
G1 Z1 F7800 ; move to next layer (4)
G1 X94.175 Y96.646 ; move to first perimeter point
G1 F900
G1 X100 Y93.274 E13.74652 ; perimeter
G1 X105.825 Y96.637 E13.97417 ; perimeter
G1 X105.825 Y103.363 E14.20182 ; perimeter
G1 X100 Y106.726 E14.42948 ; perimeter
G1 X94.175 Y103.363 E14.65713 ; perimeter
G1 X94.175 Y96.706 E14.88246 ; perimeter
G1 X93.975 Y96.3 F7800 ; move inwards before travel
G1 X93.297 Y96.13 ; move to first perimeter point
G1 F1210
G1 X100 Y92.26 E15.14446 ; perimeter
G1 X106.703 Y96.13 E15.40646 ; perimeter
G1 X106.703 Y103.87 E15.66845 ; perimeter
G1 X100 Y107.74 E15.93045 ; perimeter
G1 X93.297 Y103.87 E16.19244 ; perimeter
G1 X93.297 Y96.19 E16.45241 ; perimeter
G1 X93.697 Y96.13 F7800 ; move inwards before travel
;LAYER_CHANGE
;Z:1.2
;HEIGHT:0.2
G1 Z1.2 F7800 ; move to next layer (5)
G1 X94.175 Y96.646 ; move to first perimeter point
G1 F900
G1 X100 Y93.274 E16.68021 ; perimeter
G1 X105.825 Y96.637 E16.90786 ; perimeter
G1 X105.825 Y103.363 E17.13552 ; perimeter
G1 X100 Y106.726 E17.36317 ; perimeter
G1 X94.175 Y103.363 E17.59083 ; perimeter
G1 X94.175 Y96.706 E17.81616 ; perimeter
G1 X93.975 Y96.3 F7800 ; move inwards before travel
G1 X93.297 Y96.13 ; move to first perimeter point
G1 F1210
G1 X100 Y92.26 E18.07815 ; perimeter
G1 X106.703 Y96.13 E18.34015 ; perimeter
G1 X106.703 Y103.87 E18.60215 ; perimeter
G1 X100 Y107.74 E18.86414 ; perimeter
G1 X93.297 Y103.87 E19.12614 ; perimeter
G1 X93.297 Y96.19 E19.3861 ; perimeter
G1 X93.697 Y96.13 F7800 ; move inwards before travel
;LAYER_CHANGE
;Z:1.4
;HEIGHT:0.2
G1 Z1.4 F7800 ; move to next layer (6)
G1 X94.175 Y96.646 ; move to first perimeter point
G1 F900
G1 X100 Y93.274 E19.61391 ; perimeter
G1 X105.825 Y96.637 E19.84156 ; perimeter
G1 X105.825 Y103.363 E20.06921 ; perimeter
G1 X100 Y106.726 E20.29687 ; perimeter
G1 X94.175 Y103.363 E20.52452 ; perimeter
G1 X94.175 Y96.706 E20.74985 ; perimeter
G1 X93.975 Y96.3 F7800 ; move inwards before travel
G1 X93.297 Y96.13 ; move to first perimeter point
G1 F1210
G1 X100 Y92.26 E21.01185 ; perimeter
G1 X106.703 Y96.13 E21.27385 ; perimeter
G1 X106.703 Y103.87 E21.53584 ; perimeter
G1 X100 Y107.74 E21.79784 ; perimeter
G1 X93.297 Y103.87 E22.05983 ; perimeter
G1 X93.297 Y96.19 E22.3198 ; perimeter
G1 X93.697 Y96.13 F7800 ; move inwards before travel
;LAYER_CHANGE
;Z:1.6
;HEIGHT:0.2
G1 Z1.6 F7800 ; move to next layer (7)
G1 X94.175 Y96.646 ; move to first perimeter point
G1 F900
G1 X100 Y93.274 E22.5476 ; perimeter
G1 X105.825 Y96.637 E22.77525 ; perimeter
G1 X105.825 Y103.363 E23.00291 ; perimeter
G1 X100 Y106.726 E23.23056 ; perimeter
G1 X94.175 Y103.363 E23.45822 ; perimeter
G1 X94.175 Y96.706 E23.68355 ; perimeter
G1 X93.975 Y96.3 F7800 ; move inwards before travel
G1 X93.297 Y96.13 ; move to first perimeter point
G1 F1210
G1 X100 Y92.26 E23.94554 ; perimeter
G1 X106.703 Y96.13 E24.20754 ; perimeter
G1 X106.703 Y103.87 E24.46954 ; perimeter
G1 X100 Y107.74 E24.73153 ; perimeter
G1 X93.297 Y103.87 E24.99353 ; perimeter
G1 X93.297 Y96.19 E25.25349 ; perimeter
G1 X93.697 Y96.13 F7800 ; move inwards before travel
;LAYER_CHANGE
;Z:1.8
;HEIGHT:0.2
G1 Z1.8 F7800 ; move to next layer (8)
G1 X94.175 Y96.646 ; move to first perimeter point
G1 F900
G1 X100 Y93.274 E25.4813 ; perimeter
G1 X105.825 Y96.637 E25.70895 ; perimeter
G1 X105.825 Y103.363 E25.9366 ; perimeter
G1 X100 Y106.726 E26.16426 ; perimeter
G1 X94.175 Y103.363 E26.39191 ; perimeter
G1 X94.175 Y96.706 E26.61724 ; perimeter
G1 X93.975 Y96.3 F7800 ; move inwards before travel
G1 X93.297 Y96.13 ; move to first perimeter point
G1 F1210
G1 X100 Y92.26 E26.87924 ; perimeter
G1 X106.703 Y96.13 E27.14124 ; perimeter
G1 X106.703 Y103.87 E27.40323 ; perimeter
G1 X100 Y107.74 E27.66523 ; perimeter
G1 X93.297 Y103.87 E27.92722 ; perimeter
G1 X93.297 Y96.19 E28.18719 ; perimeter
G1 X93.697 Y96.13 F7800 ; move inwards before travel
;LAYER_CHANGE
;Z:2
;HEIGHT:0.2
G1 Z2 F7800 ; move to next layer (9)
G1 X94.175 Y96.646 ; move to first perimeter point
G1 F900
G1 X100 Y93.274 E28.41499 ; perimeter
G1 X105.825 Y96.637 E28.64264 ; perimeter
G1 X105.825 Y103.363 E28.8703 ; perimeter
G1 X100 Y106.726 E29.09795 ; perimeter
G1 X94.175 Y103.363 E29.32561 ; perimeter
G1 X94.175 Y96.706 E29.55094 ; perimeter
G1 X93.975 Y96.3 F7800 ; move inwards before travel
G1 X93.297 Y96.13 ; move to first perimeter point
G1 F1210
G1 X100 Y92.26 E29.81293 ; perimeter
G1 X106.703 Y96.13 E30.07493 ; perimeter
G1 X106.703 Y103.87 E30.33693 ; perimeter
G1 X100 Y107.74 E30.59892 ; perimeter
G1 X93.297 Y103.87 E30.86092 ; perimeter
G1 X93.297 Y96.19 E31.12088 ; perimeter
G1 X93.697 Y96.13 F7800 ; move inwards before travel
;LAYER_CHANGE
;Z:2.2
;HEIGHT:0.2
G1 Z2.2 F7800 ; move to next layer (10)
G1 X94.175 Y96.646 ; move to first perimeter point
G1 F900
G1 X100 Y93.274 E31.34869 ; perimeter
G1 X105.825 Y96.637 E31.57634 ; perimeter
G1 X105.825 Y103.363 E31.80399 ; perimeter
G1 X100 Y106.726 E32.03165 ; perimeter
G1 X94.175 Y103.363 E32.2593 ; perimeter
G1 X94.175 Y96.706 E32.48463 ; perimeter
G1 X93.975 Y96.3 F7800 ; move inwards before travel
G1 X93.297 Y96.13 ; move to first perimeter point
G1 F1210
G1 X100 Y92.26 E32.74663 ; perimeter
G1 X106.703 Y96.13 E33.00863 ; perimeter
G1 X106.703 Y103.87 E33.27062 ; perimeter
G1 X100 Y107.74 E33.53262 ; perimeter
G1 X93.297 Y103.87 E33.79461 ; perimeter
G1 X93.297 Y96.19 E34.05458 ; perimeter
G1 X93.697 Y96.13 F7800 ; move inwards before travel
;LAYER_CHANGE
;Z:2.4
;HEIGHT:0.2
G1 Z2.4 F7800 ; move to next layer (11)
G1 X94.175 Y96.646 ; move to first perimeter point
G1 F900
G1 X100 Y93.274 E34.28238 ; perimeter
G1 X105.825 Y96.637 E34.51003 ; perimeter
G1 X105.825 Y103.363 E34.73769 ; perimeter
G1 X100 Y106.726 E34.96534 ; perimeter
G1 X94.175 Y103.363 E35.193 ; perimeter
G1 X94.175 Y96.706 E35.41833 ; perimeter
G1 X93.975 Y96.3 F7800 ; move inwards before travel
G1 X93.297 Y96.13 ; move to first perimeter point
G1 F1210
G1 X100 Y92.26 E35.68032 ; perimeter
G1 X106.703 Y96.13 E35.94232 ; perimeter
G1 X106.703 Y103.87 E36.20432 ; perimeter
G1 X100 Y107.74 E36.46631 ; perimeter
G1 X93.297 Y103.87 E36.72831 ; perimeter
G1 X93.297 Y96.19 E36.98827 ; perimeter
G1 X93.697 Y96.13 F7800 ; move inwards before travel
;LAYER_CHANGE
;Z:2.6
;HEIGHT:0.2
G1 Z2.6 F7800 ; move to next layer (12)
G1 X94.175 Y96.646 ; move to first perimeter point
G1 F900
G1 X100 Y93.274 E37.21608 ; perimeter
G1 X105.825 Y96.637 E37.44373 ; perimeter
G1 X105.825 Y103.363 E37.67138 ; perimeter
G1 X100 Y106.726 E37.89904 ; perimeter
G1 X94.175 Y103.363 E38.12669 ; perimeter
G1 X94.175 Y96.706 E38.35202 ; perimeter
G1 X93.975 Y96.3 F7800 ; move inwards before travel
G1 X93.297 Y96.13 ; move to first perimeter point
G1 F1210
G1 X100 Y92.26 E38.61402 ; perimeter
G1 X106.703 Y96.13 E38.87602 ; perimeter
G1 X106.703 Y103.87 E39.13801 ; perimeter
G1 X100 Y107.74 E39.40001 ; perimeter
G1 X93.297 Y103.87 E39.662 ; perimeter
G1 X93.297 Y96.19 E39.92197 ; perimeter
G1 X93.697 Y96.13 F7800 ; move inwards before travel
;LAYER_CHANGE
;Z:2.8
;HEIGHT:0.2
G1 Z2.8 F7800 ; move to next layer (13)
G1 X94.175 Y96.646 ; move to first perimeter point
G1 F900
G1 X100 Y93.274 E40.14977 ; perimeter
G1 X105.825 Y96.637 E40.37742 ; perimeter
G1 X105.825 Y103.363 E40.60508 ; perimeter
G1 X100 Y106.726 E40.83273 ; perimeter
G1 X94.175 Y103.363 E41.06039 ; perimeter
G1 X94.175 Y96.706 E41.28572 ; perimeter
G1 X93.975 Y96.3 F7800 ; move inwards before travel
G1 X93.297 Y96.13 ; move to first perimeter point
G1 F1210
G1 X100 Y92.26 E41.54771 ; perimeter
G1 X106.703 Y96.13 E41.80971 ; perimeter
G1 X106.703 Y103.87 E42.07171 ; perimeter
G1 X100 Y107.74 E42.3337 ; perimeter
G1 X93.297 Y103.87 E42.5957 ; perimeter
G1 X93.297 Y96.19 E42.85566 ; perimeter
G1 X93.697 Y96.13 F7800 ; move inwards before travel
;LAYER_CHANGE
;Z:3
;HEIGHT:0.2
G1 Z3 F7800 ; move to next layer (14)
G1 X94.175 Y96.646 ; move to first perimeter point
G1 F900
G1 X100 Y93.274 E43.08347 ; perimeter
G1 X105.825 Y96.637 E43.31112 ; perimeter
G1 X105.825 Y103.363 E43.53877 ; perimeter
G1 X100 Y106.726 E43.76643 ; perimeter
G1 X94.175 Y103.363 E43.99408 ; perimeter
G1 X94.175 Y96.706 E44.21941 ; perimeter
G1 X93.975 Y96.3 F7800 ; move inwards before travel
G1 X93.297 Y96.13 ; move to first perimeter point
G1 F1210
G1 X100 Y92.26 E44.48141 ; perimeter
G1 X106.703 Y96.13 E44.74341 ; perimeter
G1 X106.703 Y103.87 E45.0054 ; perimeter
G1 X100 Y107.74 E45.2674 ; perimeter
G1 X93.297 Y103.87 E45.52939 ; perimeter
G1 X93.297 Y96.19 E45.78936 ; perimeter
G1 X93.697 Y96.13 F7800 ; move inwards before travel
;LAYER_CHANGE
;Z:3.2
;HEIGHT:0.2
G1 Z3.2 F7800 ; move to next layer (15)
G1 X94.175 Y96.646 ; move to first perimeter point
G1 F900
G1 X100 Y93.274 E46.01716 ; perimeter
G1 X105.825 Y96.637 E46.24481 ; perimeter
G1 X105.825 Y103.363 E46.47247 ; perimeter
G1 X100 Y106.726 E46.70012 ; perimeter
G1 X94.175 Y103.363 E46.92778 ; perimeter
G1 X94.175 Y96.706 E47.15311 ; perimeter
G1 X93.975 Y96.3 F7800 ; move inwards before travel
G1 X93.297 Y96.13 ; move to first perimeter point
G1 F1210
G1 X100 Y92.26 E47.4151 ; perimeter
G1 X106.703 Y96.13 E47.6771 ; perimeter
G1 X106.703 Y103.87 E47.9391 ; perimeter
G1 X100 Y107.74 E48.20109 ; perimeter
G1 X93.297 Y103.87 E48.46309 ; perimeter
G1 X93.297 Y96.19 E48.72305 ; perimeter
G1 X93.697 Y96.13 F7800 ; move inwards before travel
;LAYER_CHANGE
;Z:3.4
;HEIGHT:0.2
G1 Z3.4 F7800 ; move to next layer (16)
G1 X94.175 Y96.646 ; move to first perimeter point
G1 F900
G1 X100 Y93.274 E48.95086 ; perimeter
G1 X105.825 Y96.637 E49.17851 ; perimeter
G1 X105.825 Y103.363 E49.40616 ; perimeter
G1 X100 Y106.726 E49.63382 ; perimeter
G1 X94.175 Y103.363 E49.86147 ; perimeter
G1 X94.175 Y96.706 E50.0868 ; perimeter
G1 X93.975 Y96.3 F7800 ; move inwards before travel
G1 X93.297 Y96.13 ; move to first perimeter point
G1 F1210
G1 X100 Y92.26 E50.3488 ; perimeter
G1 X106.703 Y96.13 E50.6108 ; perimeter
G1 X106.703 Y103.87 E50.87279 ; perimeter
G1 X100 Y107.74 E51.13479 ; perimeter
G1 X93.297 Y103.87 E51.39678 ; perimeter
G1 X93.297 Y96.19 E51.65675 ; perimeter
G1 X93.697 Y96.13 F7800 ; move inwards before travel
;LAYER_CHANGE
;Z:3.6
;HEIGHT:0.2
G1 Z3.6 F7800 ; move to next layer (17)
G1 X94.175 Y96.646 ; move to first perimeter point
G1 F900
G1 X100 Y93.274 E51.88455 ; perimeter
G1 X105.825 Y96.637 E52.1122 ; perimeter
G1 X105.825 Y103.363 E52.33986 ; perimeter
G1 X100 Y106.726 E52.56751 ; perimeter
G1 X94.175 Y103.363 E52.79517 ; perimeter
G1 X94.175 Y96.706 E53.0205 ; perimeter
G1 X93.975 Y96.3 F7800 ; move inwards before travel
G1 X93.297 Y96.13 ; move to first perimeter point
G1 F1210
G1 X100 Y92.26 E53.28249 ; perimeter
G1 X106.703 Y96.13 E53.54449 ; perimeter
G1 X106.703 Y103.87 E53.80649 ; perimeter
G1 X100 Y107.74 E54.06848 ; perimeter
G1 X93.297 Y103.87 E54.33048 ; perimeter
G1 X93.297 Y96.19 E54.59044 ; perimeter
G1 X93.697 Y96.13 F7800 ; move inwards before travel
;LAYER_CHANGE
;Z:3.8
;HEIGHT:0.2
G1 Z3.8 F7800 ; move to next layer (18)
G1 X94.175 Y96.646 ; move to first perimeter point
G1 F900
G1 X100 Y93.274 E54.81825 ; perimeter
G1 X105.825 Y96.637 E55.0459 ; perimeter
G1 X105.825 Y103.363 E55.27355 ; perimeter
G1 X100 Y106.726 E55.50121 ; perimeter
G1 X94.175 Y103.363 E55.72886 ; perimeter
G1 X94.175 Y96.706 E55.95419 ; perimeter
G1 X93.975 Y96.3 F7800 ; move inwards before travel
G1 X93.297 Y96.13 ; move to first perimeter point
G1 F1210
G1 X100 Y92.26 E56.21619 ; perimeter
G1 X106.703 Y96.13 E56.47819 ; perimeter
G1 X106.703 Y103.87 E56.74018 ; perimeter
G1 X100 Y107.74 E57.00218 ; perimeter
G1 X93.297 Y103.87 E57.26417 ; perimeter
G1 X93.297 Y96.19 E57.52414 ; perimeter
G1 X93.697 Y96.13 F7800 ; move inwards before travel
;LAYER_CHANGE
;Z:4
;HEIGHT:0.2
G1 Z4 F7800 ; move to next layer (19)
G1 X94.175 Y96.646 ; move to first perimeter point
G1 F900
G1 X100 Y93.274 E57.75194 ; perimeter
G1 X105.825 Y96.637 E57.97959 ; perimeter
G1 X105.825 Y103.363 E58.20725 ; perimeter
G1 X100 Y106.726 E58.4349 ; perimeter
G1 X94.175 Y103.363 E58.66256 ; perimeter
G1 X94.175 Y96.706 E58.88789 ; perimeter
G1 X93.975 Y96.3 F7800 ; move inwards before travel
