;FLAVOR:Marlin
;TIME:14847
;Filament used: 10.246m
;Layer height: 0.1
;Generated with Cura_SteamEngine 1.2.3
M140 S60
M104 S230
M109 S230
G28
G1 Z50.00 F400
G92 E0
G1 F200 E3
G92 E0
M132 X Y Z A
M907 X100 Y100 Z50 A100
;LAYER_COUNT:299
;LAYER:0
M107
M204 S2000
G0 F3600 X29.991 Y-24.79 Z0.2
;TYPE:SKIRT
G1 F1500 X30.609 Y-24.75 E0.0206
G1 X31.217 Y-24.631 E0.0412
G1 X31.804 Y-24.434 E0.0618
G1 X32.361 Y-24.164 E0.08239
G1 X32.879 Y-23.824 E0.10299
G1 X33.349 Y-23.42 E0.12361
G1 X33.762 Y-22.959 E0.14419
G1 X34.113 Y-22.449 E0.16479
G1 X34.396 Y-21.898 E0.18539
G1 X34.605 Y-21.314 E0.20602
G1 X34.737 Y-20.709 E0.22661
G1 X34.791 Y-19.99 E0.25059
G1 X34.791 Y19.991 E1.58037
G1 X34.751 Y20.609 E1.60097
G1 X34.632 Y21.217 E1.62157
G1 X34.435 Y21.804 E1.64217
G1 X34.165 Y22.361 E1.66275
G1 X33.825 Y22.879 E1.68336
G1 X33.421 Y23.349 E1.70398
G1 X32.96 Y23.762 E1.72456
G1 X32.45 Y24.113 E1.74515
G1 X31.899 Y24.396 E1.76576
G1 X31.316 Y24.605 E1.78635
G1 X30.71 Y24.737 E1.80698
G1 X29.991 Y24.791 E1.83096
G1 X-29.991 Y24.791 E3.82597
G1 X-30.609 Y24.751 E3.84657
G1 X-31.217 Y24.632 E3.86718
G1 X-31.804 Y24.435 E3.88777
G1 X-32.361 Y24.165 E3.90836
G1 X-32.879 Y23.825 E3.92897
G1 X-33.349 Y23.421 E3.94958
G1 X-33.762 Y22.96 E3.97017
G1 X-34.113 Y22.45 E3.99076
G1 X-34.396 Y21.899 E4.01136
G1 X-34.605 Y21.316 E4.03196
G1 X-34.737 Y20.71 E4.05259
G1 X-34.791 Y19.991 E4.07657
G1 X-34.791 Y-19.991 E5.40638
G1 X-34.751 Y-20.609 E5.42697
G1 X-34.632 Y-21.217 E5.44758
G1 X-34.435 Y-21.804 E5.46817
G1 X-34.165 Y-22.361 E5.48876
G1 X-33.825 Y-22.879 E5.50937
G1 X-33.421 Y-23.349 E5.52998
G1 X-32.96 Y-23.762 E5.55057
G1 X-32.45 Y-24.113 E5.57116
G1 X-31.899 Y-24.396 E5.59176
G1 X-31.316 Y-24.605 E5.61236
G1 X-30.71 Y-24.737 E5.63299
G1 X-29.991 Y-24.791 E5.65697
G1 X29.991 Y-24.79 E7.65198
G0 F3600 X29.991 Y-24.39
G1 F1500 X30.583 Y-24.35 E7.67172
G1 X31.164 Y-24.231 E7.69144
G1 X31.723 Y-24.035 E7.71114
G1 X32.251 Y-23.765 E7.73087
G1 X32.738 Y-23.427 E7.75059
G1 X33.175 Y-23.026 E7.77031
G1 X33.555 Y-22.571 E7.79003
G1 X33.869 Y-22.068 E7.80975
G1 X34.114 Y-21.528 E7.82947
G1 X34.283 Y-20.959 E7.84922
G1 X34.374 Y-20.373 E7.86894
G1 X34.391 Y-19.99 E7.88169
G1 X34.391 Y19.991 E9.21146
G1 X34.351 Y20.583 E9.2312
G1 X34.232 Y21.163 E9.25089
G1 X34.036 Y21.723 E9.27063
G1 X33.766 Y22.251 E9.29035
G1 X33.428 Y22.738 E9.31007
G1 X33.027 Y23.175 E9.32979
G1 X32.572 Y23.555 E9.34951
G1 X32.069 Y23.869 E9.36923
G1 X31.529 Y24.114 E9.38895
G1 X30.96 Y24.283 E9.4087
G1 X30.375 Y24.374 E9.42839
G1 X29.991 Y24.391 E9.44117
G1 X-29.991 Y24.391 E11.43618
G1 X-30.583 Y24.351 E11.45592
G1 X-31.163 Y24.232 E11.47561
G1 X-31.723 Y24.036 E11.49534
G1 X-32.251 Y23.766 E11.51507
G1 X-32.738 Y23.428 E11.53478
G1 X-33.175 Y23.027 E11.55451
G1 X-33.555 Y22.572 E11.57423
G1 X-33.869 Y22.069 E11.59395
G1 X-34.114 Y21.529 E11.61367
G1 X-34.283 Y20.96 E11.63341
G1 X-34.374 Y20.375 E11.65311
G1 X-34.391 Y19.991 E11.66589
G1 X-34.391 Y-19.991 E12.9957
G1 X-34.351 Y-20.583 E13.01543
G1 X-34.232 Y-21.163 E13.03512
G1 X-34.036 Y-21.723 E13.05486
G1 X-33.766 Y-22.251 E13.07458
G1 X-33.428 Y-22.738 E13.0943
G1 X-33.027 Y-23.175 E13.11403
G1 X-32.572 Y-23.555 E13.13374
G1 X-32.069 Y-23.869 E13.15346
G1 X-31.529 Y-24.114 E13.17319
G1 X-30.96 Y-24.283 E13.19293
G1 X-30.375 Y-24.374 E13.21262
G1 X-29.991 Y-24.391 E13.2254
G1 X29.991 Y-24.39 E15.22041
G0 F3600 X29.991 Y-23.99
G1 F1500 X30.555 Y-23.95 E15.23922
G1 X31.108 Y-23.831 E15.25803
G1 X31.638 Y-23.635 E15.27683
G1 X32.135 Y-23.367 E15.29561
G1 X32.59 Y-23.031 E15.31442
G1 X32.993 Y-22.634 E15.33324
G1 X33.335 Y-22.184 E15.35204
G1 X33.611 Y-21.691 E15.37083
G1 X33.815 Y-21.163 E15.38965
G1 X33.942 Y-20.613 E15.40843
G1 X33.991 Y-19.99 E15.42921
G1 X33.991 Y19.991 E16.75899
G1 X33.951 Y20.555 E16.77779
G1 X33.832 Y21.108 E16.79661
G1 X33.636 Y21.638 E16.8154
G1 X33.368 Y22.135 E16.83418
G1 X33.032 Y22.59 E16.85299
G1 X32.635 Y22.993 E16.87181
G1 X32.185 Y23.335 E16.89061
G1 X31.692 Y23.611 E16.9094
G1 X31.164 Y23.815 E16.92823
G1 X30.614 Y23.942 E16.947
G1 X29.991 Y23.991 E16.96779
G1 X-29.991 Y23.991 E18.9628
G1 X-30.555 Y23.951 E18.9816
G1 X-31.108 Y23.832 E19.00042
G1 X-31.638 Y23.636 E19.01921
G1 X-32.135 Y23.368 E19.03799
G1 X-32.59 Y23.032 E19.0568
G1 X-32.993 Y22.635 E19.07562
G1 X-33.335 Y22.185 E19.09442
G1 X-33.611 Y21.692 E19.11321
G1 X-33.815 Y21.164 E19.13204
G1 X-33.942 Y20.614 E19.15081
G1 X-33.991 Y19.991 E19.1716
G1 X-33.991 Y-19.991 E20.5014
G1 X-33.951 Y-20.555 E20.52021
G1 X-33.832 Y-21.108 E20.53902
G1 X-33.636 Y-21.638 E20.55782
G1 X-33.368 Y-22.135 E20.5766
G1 X-33.032 Y-22.59 E20.59541
G1 X-32.635 Y-22.993 E20.61423
G1 X-32.185 Y-23.335 E20.63302
G1 X-31.692 Y-23.611 E20.65182
G1 X-31.164 Y-23.815 E20.67064
G1 X-30.614 Y-23.942 E20.68942
G1 X-29.991 Y-23.991 E20.7102
G1 X29.991 Y-23.99 E22.70521
G0 F3600 X29.991 Y-23.59
G1 F1500 X30.526 Y-23.55 E22.72306
G1 X31.049 Y-23.431 E22.7409
G1 X31.548 Y-23.236 E22.75871
G1 X32.013 Y-22.968 E22.77656
G1 X32.433 Y-22.635 E22.79439
G1 X32.799 Y-22.243 E22.81223
G1 X33.102 Y-21.801 E22.83005
G1 X33.337 Y-21.318 E22.84792
G1 X33.497 Y-20.807 E22.86573
G1 X33.58 Y-20.277 E22.88357
G1 X33.591 Y-19.99 E22.89312
G1 X33.591 Y19.991 E24.2229
G1 X33.551 Y20.526 E24.24074
G1 X33.432 Y21.049 E24.25858
G1 X33.237 Y21.548 E24.2764
G1 X32.969 Y22.013 E24.29425
G1 X32.636 Y22.433 E24.31208
G1 X32.244 Y22.799 E24.32991
G1 X31.802 Y23.102 E24.34774
G1 X31.319 Y23.337 E24.3656
G1 X30.808 Y23.497 E24.38341
G1 X30.278 Y23.58 E24.40126
G1 X29.991 Y23.591 E24.41081
G1 X-29.991 Y23.591 E26.40582
G1 X-30.526 Y23.551 E26.42366
G1 X-31.049 Y23.432 E26.4415
G1 X-31.548 Y23.237 E26.45932
G1 X-32.013 Y22.969 E26.47717
G1 X-32.433 Y22.636 E26.495
G1 X-32.799 Y22.244 E26.51284
G1 X-33.102 Y21.802 E26.53066
G1 X-33.337 Y21.319 E26.54852
G1 X-33.497 Y20.808 E26.56633
G1 X-33.58 Y20.278 E26.58418
G1 X-33.591 Y19.991 E26.59373
G1 X-33.591 Y-19.991 E27.92354
G1 X-33.551 Y-20.526 E27.94138
G1 X-33.432 Y-21.049 E27.95922
G1 X-33.237 Y-21.548 E27.97704
G1 X-32.969 Y-22.013 E27.99489
G1 X-32.636 Y-22.433 E28.01272
G1 X-32.244 Y-22.799 E28.03055
G1 X-31.802 Y-23.102 E28.04838
G1 X-31.319 Y-23.337 E28.06624
G1 X-30.808 Y-23.497 E28.08405
G1 X-30.278 Y-23.58 E28.1019
G1 X-29.991 Y-23.591 E28.11145
G1 X29.991 Y-23.59 E30.10646
G0 F3600 X29.991 Y-23.19
G1 F1500 X30.495 Y-23.15 E30.12327
G1 X30.986 Y-23.031 E30.14008
G1 X31.453 Y-22.836 E30.15691
G1 X31.883 Y-22.571 E30.17371
G1 X32.266 Y-22.241 E30.19052
G1 X32.592 Y-21.854 E30.20735
G1 X32.853 Y-21.421 E30.22417
G1 X33.043 Y-20.953 E30.24097
G1 X33.156 Y-20.46 E30.25779
G1 X33.191 Y-19.99 E30.27347
G1 X33.191 Y19.991 E31.60324
G1 X33.151 Y20.495 E31.62006
G1 X33.032 Y20.986 E31.63686
G1 X32.838 Y21.453 E31.65368
G1 X32.572 Y21.883 E31.6705
G1 X32.242 Y22.266 E31.68731
G1 X31.855 Y22.592 E31.70414
G1 X31.422 Y22.853 E31.72096
G1 X30.954 Y23.043 E31.73776
G1 X30.461 Y23.156 E31.75458
G1 X29.991 Y23.191 E31.77025
G1 X-29.991 Y23.191 E33.76526
G1 X-30.495 Y23.151 E33.78208
G1 X-30.986 Y23.032 E33.79888
G1 X-31.453 Y22.838 E33.8157
G1 X-31.883 Y22.572 E33.83252
G1 X-32.266 Y22.242 E33.84933
G1 X-32.592 Y21.855 E33.86616
G1 X-32.853 Y21.422 E33.88298
G1 X-33.043 Y20.954 E33.89978
G1 X-33.156 Y20.461 E33.9166
G1 X-33.191 Y19.991 E33.93228
G1 X-33.191 Y-19.991 E35.26208
G1 X-33.151 Y-20.495 E35.2789
G1 X-33.032 Y-20.986 E35.2957
G1 X-32.838 Y-21.453 E35.31252
G1 X-32.572 Y-21.883 E35.32934
G1 X-32.242 Y-22.266 E35.34616
G1 X-31.855 Y-22.592 E35.36299
G1 X-31.422 Y-22.853 E35.3798
G1 X-30.954 Y-23.043 E35.3966
G1 X-30.461 Y-23.156 E35.41342
G1 X-29.991 Y-23.191 E35.4291
G1 X29.991 Y-23.19 E37.42411
G0 F3600 X29 Y-19
;TYPE:WALL-INNER
G1 F1500 X29 Y19 E38.68799
G1 X-29 Y19 E40.61708
G1 X-29 Y-19 E41.88097
G1 X29 Y-19 E43.81005
G0 F3600 X29.4 Y-19.4
G1 F1500 X29.4 Y19.4 E45.10055
G1 X-29.4 Y19.4 E47.05624
G1 X-29.4 Y-19.4 E48.34674
G1 X29.4 Y-19.4 E50.30243
G0 F3600 X29.8 Y-19.8
;TYPE:WALL-OUTER
G1 F1500 X29.8 Y19.8 E51.61953
G1 X-29.8 Y19.8 E53.60184
G1 X-29.8 Y-19.8 E54.91894
G1 X29.8 Y-19.8 E56.90124
G0 F3600 X29.8 Y-19.6
G0 X28.8 Y-18.8
G0 X28.304 Y-18.647
;TYPE:SKIN
G1 F1500 X28.647 Y-18.304 E56.91738
G0 F3600 X28.304 Y-18.647
G1 F1500 X27.738 Y-18.647 E56.9362
G1 X28.647 Y-17.738 E56.97896
G1 X28.647 Y-17.172 E56.99778
G1 X27.172 Y-18.647 E57.06716
G1 X26.607 Y-18.647 E57.08596
G1 X28.647 Y-16.607 E57.18191
G1 X28.647 Y-16.041 E57.20074
G1 X26.041 Y-18.647 E57.32331
G1 X25.475 Y-18.647 E57.34214
G1 X28.647 Y-15.475 E57.49134
G1 X28.647 Y-14.91 E57.51013
G1 X24.909 Y-18.647 E57.68593
G1 X24.344 Y-18.647 E57.70472
G1 X28.647 Y-14.344 E57.90712
G1 X28.647 Y-13.778 E57.92595
G1 X23.778 Y-18.647 E58.15497
G1 X23.212 Y-18.647 E58.1738
G1 X28.647 Y-13.212 E58.42944
G1 X28.647 Y-12.647 E58.44824
G1 X22.647 Y-18.647 E58.73046
G1 X22.081 Y-18.647 E58.74928
G1 X28.647 Y-12.081 E59.05813
G1 X28.647 Y-11.515 E59.07695
G1 X21.515 Y-18.647 E59.41242
G1 X20.95 Y-18.647 E59.43121
G1 X28.647 Y-10.95 E59.79326
G1 X28.647 Y-10.384 E59.81208
G1 X20.384 Y-18.647 E60.20075
G1 X19.818 Y-18.647 E60.21957
G1 X28.647 Y-9.818 E60.63486
G1 X28.647 Y-9.253 E60.65365
G1 X19.253 Y-18.647 E61.09552
G1 X18.687 Y-18.647 E61.11434
G1 X28.647 Y-8.687 E61.58283
G1 X28.647 Y-8.121 E61.60166
G1 X18.121 Y-18.647 E62.09677
G1 X17.556 Y-18.647 E62.11556
G1 X28.647 Y-7.556 E62.63725
G1 X28.647 Y-6.99 E62.65607
G1 X16.99 Y-18.647 E63.20438
G1 X16.424 Y-18.647 E63.22321
G1 X28.647 Y-6.424 E63.79814
G1 X28.647 Y-5.859 E63.81693
G1 X15.858 Y-18.647 E64.41846
G1 X15.293 Y-18.647 E64.43725
G1 X28.647 Y-5.293 E65.06539
G1 X28.647 Y-4.727 E65.08421
G1 X14.727 Y-18.647 E65.73896
G1 X14.161 Y-18.647 E65.75779
G1 X28.647 Y-4.162 E66.43914
G1 X28.647 Y-3.596 E66.45797
G1 X13.596 Y-18.647 E67.16592
G1 X13.03 Y-18.647 E67.18475
G1 X28.647 Y-3.03 E67.91932
G1 X28.647 Y-2.464 E67.93815
G1 X12.464 Y-18.647 E68.69935
G1 X11.899 Y-18.647 E68.71814
G1 X28.647 Y-1.899 E69.50591
G1 X28.647 Y-1.333 E69.52474
G1 X11.333 Y-18.647 E70.33914
G1 X10.767 Y-18.647 E70.35796
G1 X28.647 Y-.767 E71.19898
G1 X28.647 Y-.202 E71.21777
G1 X10.202 Y-18.647 E72.08537
G1 X9.636 Y-18.647 E72.10419
G1 X28.647 Y0.363 E72.99839
G1 X28.647 Y0.929 E73.01722
G1 X9.07 Y-18.647 E73.93803
G1 X8.505 Y-18.647 E73.95683
G1 X28.647 Y1.494 E74.90422
G1 X28.647 Y2.06 E74.92305
G1 X7.939 Y-18.647 E75.89706
G1 X7.373 Y-18.647 E75.91589
G1 X28.647 Y2.626 E76.91653
G1 X28.647 Y3.191 E76.93532
G1 X6.808 Y-18.647 E77.96254
G1 X6.242 Y-18.647 E77.98136
G1 X28.647 Y3.757 E79.0352
G1 X28.647 Y4.323 E79.05403
G1 X5.676 Y-18.647 E80.13449
G1 X5.11 Y-18.647 E80.15331
G1 X28.647 Y4.888 E81.26037
G1 X28.647 Y5.454 E81.2792
G1 X4.545 Y-18.647 E82.41286
G1 X3.979 Y-18.647 E82.43169
G1 X28.647 Y6.02 E83.59197
G1 X28.647 Y6.585 E83.61076
G1 X3.413 Y-18.647 E84.79764
G1 X2.848 Y-18.647 E84.81644
G1 X28.647 Y7.151 E86.02992
G1 X28.647 Y7.717 E86.04874
G1 X2.282 Y-18.647 E87.28885
G1 X1.716 Y-18.647 E87.30767
G1 X28.647 Y8.283 E88.5744
G1 X28.647 Y8.848 E88.59319
G1 X1.151 Y-18.647 E89.8865
G1 X0.585 Y-18.647 E89.90532
G1 X28.647 Y9.414 E91.22525
G1 X28.647 Y9.98 E91.24408
G1 X0.019 Y-18.647 E92.59063
G1 X-.545 Y-18.647 E92.60938
G1 X28.647 Y10.545 E93.98249
G1 X28.647 Y11.111 E94.00131
G1 X-1.111 Y-18.647 E95.40104
G1 X-1.677 Y-18.647 E95.41986
G1 X28.647 Y11.677 E96.84621
G1 X28.647 Y12.242 E96.865
G1 X-2.242 Y-18.647 E98.31793
G1 X-2.808 Y-18.647 E98.33675
G1 X28.647 Y12.808 E99.8163
G1 X28.647 Y13.374 E99.83512
G1 X-3.374 Y-18.647 E101.34129
G1 X-3.939 Y-18.647 E101.36008
G1 X28.647 Y13.939 E102.89283
G1 X28.647 Y14.505 E102.91166
G1 X-4.505 Y-18.647 E104.47102
G1 X-5.071 Y-18.647 E104.48985
G1 X28.647 Y15.071 E106.07584
G1 X28.647 Y15.636 E106.09463
G1 X-5.637 Y-18.647 E107.70722
G1 X-6.202 Y-18.647 E107.72602
G1 X28.647 Y16.202 E109.36521
G1 X28.647 Y16.768 E109.38403
G1 X-6.768 Y-18.647 E111.04984
G1 X-7.334 Y-18.647 E111.06867
G1 X28.647 Y17.334 E112.7611
G1 X28.647 Y17.899 E112.7799
G1 X-7.899 Y-18.647 E114.49891
G1 X-8.465 Y-18.647 E114.51773
G1 X28.647 Y18.465 E116.26337
G1 X28.647 Y18.647 E116.26942
G1 X28.264 Y18.647 E116.28216
G1 X-9.031 Y-18.647 E118.03638
G1 X-9.596 Y-18.647 E118.05517
G1 X27.698 Y18.647 E119.80937
G1 X27.133 Y18.647 E119.82816
G1 X-10.162 Y-18.647 E121.58238
G1 X-10.728 Y-18.647 E121.6012
G1 X26.567 Y18.647 E123.35542
G1 X26.001 Y18.647 E123.37425
G1 X-11.293 Y-18.647 E125.12844
G1 X-11.859 Y-18.647 E125.14727
G1 X25.436 Y18.647 E126.90149
G1 X24.87 Y18.647 E126.92031
G1 X-12.425 Y-18.647 E128.67453
G1 X-12.99 Y-18.647 E128.69332
G1 X24.304 Y18.647 E130.44752
G1 X23.738 Y18.647 E130.46634
G1 X-13.556 Y-18.647 E132.22054
G1 X-14.122 Y-18.647 E132.23936
G1 X23.173 Y18.647 E133.99358
G1 X22.607 Y18.647 E134.01241
G1 X-14.688 Y-18.647 E135.76663
G1 X-15.253 Y-18.647 E135.78542
G1 X22.041 Y18.647 E137.53961
G1 X21.476 Y18.647 E137.55841
G1 X-15.819 Y-18.647 E139.31263
G1 X-16.385 Y-18.647 E139.33145
G1 X20.91 Y18.647 E141.08567
G1 X20.344 Y18.647 E141.10449
G1 X-16.95 Y-18.647 E142.85869
G1 X-17.516 Y-18.647 E142.87752
G1 X19.779 Y18.647 E144.63173
G1 X19.213 Y18.647 E144.65056
G1 X-18.082 Y-18.647 E146.40478
G1 X-18.647 Y-18.647 E146.42357
G1 X18.647 Y18.647 E148.17777
G1 X18.082 Y18.647 E148.19656
G1 X-19.213 Y-18.647 E149.95078
G1 X-19.779 Y-18.647 E149.9696
G1 X17.516 Y18.647 E151.72382
G1 X16.95 Y18.647 E151.74265
G1 X-20.344 Y-18.647 E153.49684
G1 X-20.91 Y-18.647 E153.51567
G1 X16.385 Y18.647 E155.26989
G1 X15.819 Y18.647 E155.28871
G1 X-21.476 Y-18.647 E157.04293
G1 X-22.041 Y-18.647 E157.06172
G1 X15.253 Y18.647 E158.81592
G1 X14.688 Y18.647 E158.83471
G1 X-22.607 Y-18.647 E160.58893
G1 X-23.173 Y-18.647 E160.60775
G1 X14.122 Y18.647 E162.36197
G1 X13.556 Y18.647 E162.3808
G1 X-23.738 Y-18.647 E164.13499
G1 X-24.304 Y-18.647 E164.15382
G1 X12.99 Y18.647 E165.90801
G1 X12.425 Y18.647 E165.92681
G1 X-24.87 Y-18.647 E167.68102
G1 X-25.436 Y-18.647 E167.69985
G1 X11.859 Y18.647 E169.45407
G1 X11.293 Y18.647 E169.47289
G1 X-26.001 Y-18.647 E171.22709
G1 X-26.567 Y-18.647 E171.24591
G1 X10.728 Y18.647 E173.00013
G1 X10.162 Y18.647 E173.01896
G1 X-27.133 Y-18.647 E174.77318
G1 X-27.698 Y-18.647 E174.79197
G1 X9.596 Y18.647 E176.54617
G1 X9.031 Y18.647 E176.56496
G1 X-28.264 Y-18.647 E178.31918
G1 X-28.647 Y-18.647 E178.33191
G1 X-28.647 Y-18.465 E178.33797
G1 X8.465 Y18.647 E180.0836
G1 X7.899 Y18.647 E180.10243
G1 X-28.647 Y-17.899 E181.82144
G1 X-28.647 Y-17.334 E181.84023
G1 X7.334 Y18.647 E183.53267
G1 X6.768 Y18.647 E183.55149
G1 X-28.647 Y-16.768 E185.21731
G1 X-28.647 Y-16.202 E185.23613
G1 X6.202 Y18.647 E186.87532
G1 X5.637 Y18.647 E186.89411
G1 X-28.647 Y-15.636 E188.5067
G1 X-28.647 Y-15.071 E188.5255
G1 X5.071 Y18.647 E190.11149
G1 X4.505 Y18.647 E190.13031
G1 X-28.647 Y-14.505 E191.68968
G1 X-28.647 Y-13.939 E191.70851
G1 X3.939 Y18.647 E193.24125
G1 X3.374 Y18.647 E193.26004
G1 X-28.647 Y-13.374 E194.76621
G1 X-28.647 Y-12.808 E194.78504
G1 X2.808 Y18.647 E196.26459
G1 X2.242 Y18.647 E196.28341
G1 X-28.647 Y-12.242 E197.73633
G1 X-28.647 Y-11.677 E197.75513
G1 X1.677 Y18.647 E199.18147
G1 X1.111 Y18.647 E199.2003
G1 X-28.647 Y-11.111 E200.60002
G1 X-28.647 Y-10.545 E200.61885
G1 X0.545 Y18.647 E201.99195
G1 X-0.019 Y18.647 E202.01071
G1 X-28.647 Y-9.98 E203.35726
G1 X-28.647 Y-9.414 E203.37609
G1 X-.585 Y18.647 E204.69601
G1 X-1.151 Y18.647 E204.71484
G1 X-28.647 Y-8.848 E206.00814
G1 X-28.647 Y-8.283 E206.02693
G1 X-1.716 Y18.647 E207.29366
G1 X-2.282 Y18.647 E207.31249
G1 X-28.647 Y-7.717 E208.55259
G1 X-28.647 Y-7.151 E208.57142
G1 X-2.848 Y18.647 E209.7849
