%
(G-code output for Universal Robots' Remote TCP & Toolpath URCap)
(Compatible with Polyscope 5.11.4 and above)
(Generated by AUTODESK Fusion 360 CAM 2.0.13619)
(Post version: 43523)
(Creation date: Thursday, August 11, 2022 19:09:13)
N1 G90
N2 G21
(--------------------------------)
(Selected Profile: PLA 1.75mm - no adhesion)
(--------------------------------)
(Selected Printer: Autodesk, Generic FFF Machine)
(--------------------------------)
(Spindle Speed      = 0 RPM)
(Tool               = FFF)
(Toolpath name      = 1001_1)
(Head angle         = 0 deg)
N3 G00 X10. Y10. Z10. F1000
(First Toolpath Point)
(--------------------------------)
(Part 1)
(rapid-leaky)
N4 X-130. Y-129.25 Z0.2
N5 G01 X-130. Y-129.25 Z0.2 F1800
(bead-prime)
N6 X70. Y-129.25 Z0.2 F480
N7 X70. Y-129.25 Z0.2 F1800
N8 G00 X69.2 Y-129.25 Z0.2 F1000
N9 X70. Y-129.25 Z0.2
(rapid-dry)
N10 X35.6 Y-25.6 Z0.2
N11 G01 X35.6 Y-25.6 Z0.2 F1800
(bead-skirtbrim)
N12 X35.6 Y25.6 Z0.2 F1200
N13 X-35.6 Y25.6 Z0.2
N14 X-35.6 Y-25.6 Z0.2
N15 X35.6 Y-25.6 Z0.2
N16 X35.6 Y-25.6 Z0.2 F1800
N17 G00 X35.6 Y-24.8 Z0.2 F1000
N18 X35.6 Y-25.6 Z0.2
(rapid-leaky)
N19 X35.2 Y-25.2 Z0.2
N20 G01 X35.2 Y-25.2 Z0.2 F1800
(bead-skirtbrim)
N21 X35.2 Y25.2 Z0.2 F1200
N22 X-35.2 Y25.2 Z0.2
N23 X-35.2 Y-25.2 Z0.2
N24 X35.2 Y-25.2 Z0.2
N25 X35.2 Y-25.2 Z0.2 F1800
N26 G00 X35.2 Y-24.4 Z0.2 F1000
N27 X35.2 Y-25.2 Z0.2
(rapid-dry)
N28 X29.8 Y19.8 Z0.2
N29 G01 X29.8 Y19.8 Z0.2 F1800
(bead-perimeter_outer)
N30 X-29.8 Y19.8 Z0.2 F900
N31 X-29.8 Y-19.8 Z0.2
N32 X29.8 Y-19.8 Z0.2
N33 X29.8 Y19.8 Z0.2
N34 X29.8 Y19.8 Z0.2 F1800
N35 G00 X29. Y19.8 Z0.2 F1000
N36 X29.8 Y19.8 Z0.2
(rapid-leaky)
N37 X29.44 Y19.44 Z0.2
N38 G01 X29.44 Y19.44 Z0.2 F1800
(bead-perimeter_inner)
N39 X-29.44 Y19.44 Z0.2 F1200
N40 X-29.44 Y-19.44 Z0.2
N41 X29.44 Y-19.44 Z0.2
N42 X29.44 Y19.44 Z0.2
N43 X29.44 Y19.44 Z0.2 F1800
N44 G00 X28.64 Y19.44 Z0.2 F1000
N45 X29.44 Y19.44 Z0.2
(rapid-leaky)
N46 X28.835 Y19.12 Z0.2
N47 G01 X28.835 Y19.12 Z0.2 F1800
(bead-solid_infill)
N48 X29.12 Y18.835 Z0.2 F900
N49 X29.12 Y18.269 Z0.2
N50 X28.269 Y19.12 Z0.2
N51 X27.703 Y19.12 Z0.2
N52 X29.12 Y17.703 Z0.2
N53 X29.12 Y17.138 Z0.2
N54 X27.138 Y19.12 Z0.2
N55 X26.572 Y19.12 Z0.2
N56 X29.12 Y16.572 Z0.2
N57 X29.12 Y16.006 Z0.2
N58 X26.006 Y19.12 Z0.2
N59 X25.441 Y19.12 Z0.2
N60 X29.12 Y15.441 Z0.2
N61 X29.12 Y14.875 Z0.2
N62 X24.875 Y19.12 Z0.2
N63 X24.309 Y19.12 Z0.2
N64 X29.12 Y14.309 Z0.2
N65 X29.12 Y13.744 Z0.2
N66 X23.744 Y19.12 Z0.2
N67 X23.178 Y19.12 Z0.2
N68 X29.12 Y13.178 Z0.2
N69 X29.12 Y12.612 Z0.2
N70 X22.612 Y19.12 Z0.2
N71 X22.047 Y19.12 Z0.2
N72 X29.12 Y12.047 Z0.2
N73 X29.12 Y11.481 Z0.2
N74 X21.481 Y19.12 Z0.2
N75 X20.915 Y19.12 Z0.2
N76 X29.12 Y10.915 Z0.2
N77 X29.12 Y10.349 Z0.2
N78 X20.349 Y19.12 Z0.2
N79 X19.784 Y19.12 Z0.2
N80 X29.12 Y9.784 Z0.2
N81 X29.12 Y9.218 Z0.2
N82 X19.218 Y19.12 Z0.2
N83 X18.652 Y19.12 Z0.2
N84 X29.12 Y8.652 Z0.2
N85 X29.12 Y8.087 Z0.2
N86 X18.087 Y19.12 Z0.2
N87 X17.521 Y19.12 Z0.2
N88 X29.12 Y7.521 Z0.2
N89 X29.12 Y6.955 Z0.2
N90 X16.955 Y19.12 Z0.2
N91 X16.39 Y19.12 Z0.2
N92 X29.12 Y6.39 Z0.2
N93 X29.12 Y5.824 Z0.2
N94 X15.824 Y19.12 Z0.2
N95 X15.258 Y19.12 Z0.2
N96 X29.12 Y5.258 Z0.2
N97 X29.12 Y4.693 Z0.2
N98 X14.693 Y19.12 Z0.2
N99 X14.127 Y19.12 Z0.2
N100 X29.12 Y4.127 Z0.2
N101 X29.12 Y3.561 Z0.2
N102 X13.561 Y19.12 Z0.2
N103 X12.996 Y19.12 Z0.2
N104 X29.12 Y2.996 Z0.2
N105 X29.12 Y2.43 Z0.2
N106 X12.43 Y19.12 Z0.2
N107 X11.864 Y19.12 Z0.2
N108 X29.12 Y1.864 Z0.2
N109 X29.12 Y1.299 Z0.2
N110 X11.299 Y19.12 Z0.2
N111 X10.733 Y19.12 Z0.2
N112 X29.12 Y0.733 Z0.2
N113 X29.12 Y0.167 Z0.2
N114 X10.167 Y19.12 Z0.2
N115 X9.601 Y19.12 Z0.2
N116 X29.12 Y-0.399 Z0.2
N117 X29.12 Y-0.964 Z0.2
N118 X9.036 Y19.12 Z0.2
N119 X8.47 Y19.12 Z0.2
N120 X29.12 Y-1.53 Z0.2
N121 X29.12 Y-2.096 Z0.2
N122 X7.904 Y19.12 Z0.2
N123 X7.339 Y19.12 Z0.2
N124 X29.12 Y-2.661 Z0.2
N125 X29.12 Y-3.227 Z0.2
N126 X6.773 Y19.12 Z0.2
N127 X6.207 Y19.12 Z0.2
N128 X29.12 Y-3.793 Z0.2
N129 X29.12 Y-4.358 Z0.2
N130 X5.642 Y19.12 Z0.2
N131 X5.076 Y19.12 Z0.2
N132 X29.12 Y-4.924 Z0.2
N133 X29.12 Y-5.49 Z0.2
N134 X4.51 Y19.12 Z0.2
N135 X3.945 Y19.12 Z0.2
N136 X29.12 Y-6.055 Z0.2
N137 X29.12 Y-6.621 Z0.2
N138 X3.379 Y19.12 Z0.2
N139 X2.813 Y19.12 Z0.2
N140 X29.12 Y-7.187 Z0.2
N141 X29.12 Y-7.752 Z0.2
N142 X2.248 Y19.12 Z0.2
N143 X1.682 Y19.12 Z0.2
N144 X29.12 Y-8.318 Z0.2
N145 X29.12 Y-8.884 Z0.2
N146 X1.116 Y19.12 Z0.2
N147 X0.55 Y19.12 Z0.2
N148 X29.12 Y-9.449 Z0.2
N149 X29.12 Y-10.015 Z0.2
N150 X-0.015 Y19.12 Z0.2
N151 X-0.581 Y19.12 Z0.2
N152 X29.12 Y-10.581 Z0.2
N153 X29.12 Y-11.147 Z0.2
N154 X-1.147 Y19.12 Z0.2
N155 X-1.712 Y19.12 Z0.2
N156 X29.12 Y-11.712 Z0.2
N157 X29.12 Y-12.278 Z0.2
N158 X-2.278 Y19.12 Z0.2
N159 X-2.844 Y19.12 Z0.2
N160 X29.12 Y-12.844 Z0.2
N161 X29.12 Y-13.409 Z0.2
N162 X-3.409 Y19.12 Z0.2
N163 X-3.975 Y19.12 Z0.2
N164 X29.12 Y-13.975 Z0.2
N165 X29.12 Y-14.541 Z0.2
N166 X-4.541 Y19.12 Z0.2
N167 X-5.106 Y19.12 Z0.2
N168 X29.12 Y-15.106 Z0.2
N169 X29.12 Y-15.672 Z0.2
N170 X-5.672 Y19.12 Z0.2
N171 X-6.238 Y19.12 Z0.2
N172 X29.12 Y-16.238 Z0.2
N173 X29.12 Y-16.803 Z0.2
N174 X-6.803 Y19.12 Z0.2
N175 X-7.369 Y19.12 Z0.2
N176 X29.12 Y-17.369 Z0.2
N177 X29.12 Y-17.935 Z0.2
N178 X-7.935 Y19.12 Z0.2
N179 X-8.501 Y19.12 Z0.2
N180 X29.12 Y-18.5 Z0.2
N181 X29.12 Y-19.066 Z0.2
N182 X-9.066 Y19.12 Z0.2
N183 X-9.632 Y19.12 Z0.2
N184 X28.608 Y-19.12 Z0.2
N185 X28.042 Y-19.12 Z0.2
N186 X-10.198 Y19.12 Z0.2
N187 X-10.763 Y19.12 Z0.2
N188 X27.477 Y-19.12 Z0.2
N189 X26.911 Y-19.12 Z0.2
N190 X-11.329 Y19.12 Z0.2
N191 X-11.895 Y19.12 Z0.2
N192 X26.345 Y-19.12 Z0.2
N193 X25.78 Y-19.12 Z0.2
N194 X-12.46 Y19.12 Z0.2
N195 X-13.026 Y19.12 Z0.2
N196 X25.214 Y-19.12 Z0.2
N197 X24.648 Y-19.12 Z0.2
N198 X-13.592 Y19.12 Z0.2
N199 X-14.157 Y19.12 Z0.2
N200 X24.083 Y-19.12 Z0.2
N201 X23.517 Y-19.12 Z0.2
N202 X-14.723 Y19.12 Z0.2
N203 X-15.289 Y19.12 Z0.2
N204 X22.951 Y-19.12 Z0.2
N205 X22.386 Y-19.12 Z0.2
N206 X-15.854 Y19.12 Z0.2
N207 X-16.42 Y19.12 Z0.2
N208 X21.82 Y-19.12 Z0.2
N209 X21.254 Y-19.12 Z0.2
N210 X-16.986 Y19.12 Z0.2
N211 X-17.551 Y19.12 Z0.2
N212 X20.689 Y-19.12 Z0.2
N213 X20.123 Y-19.12 Z0.2
N214 X-18.117 Y19.12 Z0.2
N215 X-18.683 Y19.12 Z0.2
N216 X19.557 Y-19.12 Z0.2
N217 X18.992 Y-19.12 Z0.2
N218 X-19.249 Y19.12 Z0.2
N219 X-19.814 Y19.12 Z0.2
N220 X18.426 Y-19.12 Z0.2
N221 X17.86 Y-19.12 Z0.2
N222 X-20.38 Y19.12 Z0.2
N223 X-20.946 Y19.12 Z0.2
N224 X17.294 Y-19.12 Z0.2
N225 X16.729 Y-19.12 Z0.2
N226 X-21.511 Y19.12 Z0.2
N227 X-22.077 Y19.12 Z0.2
N228 X16.163 Y-19.12 Z0.2
N229 X15.597 Y-19.12 Z0.2
N230 X-22.643 Y19.12 Z0.2
N231 X-23.208 Y19.12 Z0.2
N232 X15.032 Y-19.12 Z0.2
N233 X14.466 Y-19.12 Z0.2
N234 X-23.774 Y19.12 Z0.2
N235 X-24.34 Y19.12 Z0.2
N236 X13.9 Y-19.12 Z0.2
N237 X13.335 Y-19.12 Z0.2
N238 X-24.905 Y19.12 Z0.2
N239 X-25.471 Y19.12 Z0.2
N240 X12.769 Y-19.12 Z0.2
N241 X12.203 Y-19.12 Z0.2
N242 X-26.037 Y19.12 Z0.2
N243 X-26.602 Y19.12 Z0.2
N244 X11.638 Y-19.12 Z0.2
N245 X11.072 Y-19.12 Z0.2
N246 X-27.168 Y19.12 Z0.2
N247 X-27.734 Y19.12 Z0.2
N248 X10.506 Y-19.12 Z0.2
N249 X9.941 Y-19.12 Z0.2
N250 X-28.3 Y19.12 Z0.2
N251 X-28.865 Y19.12 Z0.2
N252 X9.375 Y-19.12 Z0.2
N253 X8.809 Y-19.12 Z0.2
N254 X-29.12 Y18.809 Z0.2
N255 X-29.12 Y18.243 Z0.2
N256 X8.243 Y-19.12 Z0.2
N257 X7.678 Y-19.12 Z0.2
N258 X-29.12 Y17.678 Z0.2
N259 X-29.12 Y17.112 Z0.2
N260 X7.112 Y-19.12 Z0.2
N261 X6.546 Y-19.12 Z0.2
N262 X-29.12 Y16.546 Z0.2
N263 X-29.12 Y15.981 Z0.2
N264 X5.981 Y-19.12 Z0.2
N265 X5.415 Y-19.12 Z0.2
N266 X-29.12 Y15.415 Z0.2
N267 X-29.12 Y14.849 Z0.2
N268 X4.849 Y-19.12 Z0.2
N269 X4.284 Y-19.12 Z0.2
N270 X-29.12 Y14.284 Z0.2
N271 X-29.12 Y13.718 Z0.2
N272 X3.718 Y-19.12 Z0.2
N273 X3.152 Y-19.12 Z0.2
N274 X-29.12 Y13.152 Z0.2
N275 X-29.12 Y12.587 Z0.2
N276 X2.587 Y-19.12 Z0.2
N277 X2.021 Y-19.12 Z0.2
N278 X-29.12 Y12.021 Z0.2
N279 X-29.12 Y11.455 Z0.2
N280 X1.455 Y-19.12 Z0.2
N281 X0.89 Y-19.12 Z0.2
N282 X-29.12 Y10.89 Z0.2
N283 X-29.12 Y10.324 Z0.2
N284 X0.324 Y-19.12 Z0.2
N285 X-0.242 Y-19.12 Z0.2
N286 X-29.12 Y9.758 Z0.2
N287 X-29.12 Y9.192 Z0.2
N288 X-0.807 Y-19.12 Z0.2
N289 X-1.373 Y-19.12 Z0.2
N290 X-29.12 Y8.627 Z0.2
N291 X-29.12 Y8.061 Z0.2
N292 X-1.939 Y-19.12 Z0.2
N293 X-2.505 Y-19.12 Z0.2
N294 X-29.12 Y7.495 Z0.2
N295 X-29.12 Y6.93 Z0.2
N296 X-3.07 Y-19.12 Z0.2
N297 X-3.636 Y-19.12 Z0.2
N298 X-29.12 Y6.364 Z0.2
N299 X-29.12 Y5.798 Z0.2
N300 X-4.202 Y-19.12 Z0.2
N301 X-4.767 Y-19.12 Z0.2
N302 X-29.12 Y5.233 Z0.2
N303 X-29.12 Y4.667 Z0.2
N304 X-5.333 Y-19.12 Z0.2
N305 X-5.899 Y-19.12 Z0.2
N306 X-29.12 Y4.101 Z0.2
N307 X-29.12 Y3.536 Z0.2
N308 X-6.464 Y-19.12 Z0.2
N309 X-7.03 Y-19.12 Z0.2
N310 X-29.12 Y2.97 Z0.2
N311 X-29.12 Y2.404 Z0.2
N312 X-7.596 Y-19.12 Z0.2
N313 X-8.161 Y-19.12 Z0.2
N314 X-29.12 Y1.839 Z0.2
N315 X-29.12 Y1.273 Z0.2
N316 X-8.727 Y-19.12 Z0.2
N317 X-9.293 Y-19.12 Z0.2
N318 X-29.12 Y0.707 Z0.2
N319 X-29.12 Y0.142 Z0.2
N320 X-9.858 Y-19.12 Z0.2
N321 X-10.424 Y-19.12 Z0.2
N322 X-29.12 Y-0.424 Z0.2
N323 X-29.12 Y-0.99 Z0.2
N324 X-10.99 Y-19.12 Z0.2
N325 X-11.556 Y-19.12 Z0.2
N326 X-29.12 Y-1.556 Z0.2
N327 X-29.12 Y-2.121 Z0.2
N328 X-12.121 Y-19.12 Z0.2
N329 X-12.687 Y-19.12 Z0.2
N330 X-29.12 Y-2.687 Z0.2
N331 X-29.12 Y-3.253 Z0.2
N332 X-13.253 Y-19.12 Z0.2
N333 X-13.818 Y-19.12 Z0.2
N334 X-29.12 Y-3.818 Z0.2
N335 X-29.12 Y-4.384 Z0.2
N336 X-14.384 Y-19.12 Z0.2
N337 X-14.95 Y-19.12 Z0.2
N338 X-29.12 Y-4.95 Z0.2
N339 X-29.12 Y-5.515 Z0.2
N340 X-15.515 Y-19.12 Z0.2
N341 X-16.081 Y-19.12 Z0.2
N342 X-29.12 Y-6.081 Z0.2
N343 X-29.12 Y-6.647 Z0.2
N344 X-16.647 Y-19.12 Z0.2
N345 X-17.212 Y-19.12 Z0.2
N346 X-29.12 Y-7.212 Z0.2
N347 X-29.12 Y-7.778 Z0.2
N348 X-17.778 Y-19.12 Z0.2
N349 X-18.344 Y-19.12 Z0.2
N350 X-29.12 Y-8.344 Z0.2
N351 X-29.12 Y-8.909 Z0.2
N352 X-18.909 Y-19.12 Z0.2
N353 X-19.475 Y-19.12 Z0.2
N354 X-29.12 Y-9.475 Z0.2
N355 X-29.12 Y-10.041 Z0.2
N356 X-20.041 Y-19.12 Z0.2
N357 X-20.606 Y-19.12 Z0.2
N358 X-29.12 Y-10.607 Z0.2
N359 X-29.12 Y-11.172 Z0.2
N360 X-21.172 Y-19.12 Z0.2
N361 X-21.738 Y-19.12 Z0.2
N362 X-29.12 Y-11.738 Z0.2
N363 X-29.12 Y-12.304 Z0.2
N364 X-22.304 Y-19.12 Z0.2
N365 X-22.869 Y-19.12 Z0.2
N366 X-29.12 Y-12.869 Z0.2
N367 X-29.12 Y-13.435 Z0.2
N368 X-23.435 Y-19.12 Z0.2
N369 X-24.001 Y-19.12 Z0.2
N370 X-29.12 Y-14.001 Z0.2
N371 X-29.12 Y-14.566 Z0.2
N372 X-24.566 Y-19.12 Z0.2
N373 X-25.132 Y-19.12 Z0.2
N374 X-29.12 Y-15.132 Z0.2
N375 X-29.12 Y-15.698 Z0.2
N376 X-25.698 Y-19.12 Z0.2
N377 X-26.263 Y-19.12 Z0.2
N378 X-29.12 Y-16.263 Z0.2
N379 X-29.12 Y-16.829 Z0.2
N380 X-26.829 Y-19.12 Z0.2
N381 X-27.395 Y-19.12 Z0.2
N382 X-29.12 Y-17.395 Z0.2
N383 X-29.12 Y-17.96 Z0.2
N384 X-27.96 Y-19.12 Z0.2
N385 X-28.526 Y-19.12 Z0.2
N386 X-29.12 Y-18.526 Z0.2
N387 X-29.12 Y-19.092 Z0.2
N388 X-29.092 Y-19.12 Z0.2
N389 X-29.092 Y-19.12 Z0.2 F1800
N390 G00 X-29.12 Y-19.092 Z0.2 F1000
N391 X-29.12 Y-18.526 Z0.2
N392 X-28.983 Y-18.664 Z0.2
N393 X-29.12 Y-18.526 Z0.2
N394 X-29.12 Y-19.092 Z0.2
N395 X-29.092 Y-19.12 Z0.2
(rapid-dry)
N396 X-29.8 Y19.8 Z0.35
N397 G01 X-29.8 Y19.8 Z0.35 F1800
(bead-perimeter_outer)
N398 X-29.8 Y-19.8 Z0.35
N399 X29.8 Y-19.8 Z0.35
N400 X29.8 Y19.8 Z0.35
N401 X-29.8 Y19.8 Z0.35
N402 X-29.8 Y19.8 Z0.35
N403 G00 X-29.8 Y19. Z0.35 F1000
N404 X-29.8 Y19.8 Z0.35
(rapid-leaky)
N405 X-29.44 Y19.44 Z0.35
N406 G01 X-29.44 Y19.44 Z0.35 F1800
(bead-perimeter_inner)
N407 X-29.44 Y-19.44 Z0.35 F2400
N408 X29.44 Y-19.44 Z0.35
N409 X29.44 Y19.44 Z0.35
N410 X-29.44 Y19.44 Z0.35
N411 X-29.44 Y19.44 Z0.35 F1800
N412 G00 X-29.44 Y18.64 Z0.35 F1000
N413 X-29.44 Y19.44 Z0.35
(rapid-leaky)
N414 X-29.12 Y19.092 Z0.35
N415 G01 X-29.12 Y19.092 Z0.35 F1800
(bead-solid_infill)
N416 X-29.092 Y19.12 Z0.35
N417 X-28.526 Y19.12 Z0.35
N418 X-29.12 Y18.526 Z0.35
N419 X-29.12 Y17.96 Z0.35
N420 X-27.96 Y19.12 Z0.35
N421 X-27.395 Y19.12 Z0.35
N422 X-29.12 Y17.395 Z0.35
N423 X-29.12 Y16.829 Z0.35
N424 X-26.829 Y19.12 Z0.35
N425 X-26.263 Y19.12 Z0.35
N426 X-29.12 Y16.263 Z0.35
N427 X-29.12 Y15.698 Z0.35
N428 X-25.698 Y19.12 Z0.35
N429 X-25.132 Y19.12 Z0.35
N430 X-29.12 Y15.132 Z0.35
N431 X-29.12 Y14.566 Z0.35
N432 X-24.566 Y19.12 Z0.35
N433 X-24.001 Y19.12 Z0.35
N434 X-29.12 Y14.001 Z0.35
N435 X-29.12 Y13.435 Z0.35
N436 X-23.435 Y19.12 Z0.35
N437 X-22.869 Y19.12 Z0.35
N438 X-29.12 Y12.869 Z0.35
N439 X-29.12 Y12.304 Z0.35
N440 X-22.304 Y19.12 Z0.35
N441 X-21.738 Y19.12 Z0.35
N442 X-29.12 Y11.738 Z0.35
N443 X-29.12 Y11.172 Z0.35
N444 X-21.172 Y19.12 Z0.35
N445 X-20.607 Y19.12 Z0.35
N446 X-29.12 Y10.606 Z0.35
N447 X-29.12 Y10.041 Z0.35
N448 X-20.041 Y19.12 Z0.35
N449 X-19.475 Y19.12 Z0.35
N450 X-29.12 Y9.475 Z0.35
N451 X-29.12 Y8.909 Z0.35
N452 X-18.909 Y19.12 Z0.35
N453 X-18.344 Y19.12 Z0.35
N454 X-29.12 Y8.344 Z0.35
N455 X-29.12 Y7.778 Z0.35
N456 X-17.778 Y19.12 Z0.35
N457 X-17.212 Y19.12 Z0.35
N458 X-29.12 Y7.212 Z0.35
N459 X-29.12 Y6.647 Z0.35
N460 X-16.647 Y19.12 Z0.35
N461 X-16.081 Y19.12 Z0.35
N462 X-29.12 Y6.081 Z0.35
N463 X-29.12 Y5.515 Z0.35
N464 X-15.515 Y19.12 Z0.35
N465 X-14.95 Y19.12 Z0.35
N466 X-29.12 Y4.95 Z0.35
N467 X-29.12 Y4.384 Z0.35
N468 X-14.384 Y19.12 Z0.35
N469 X-13.818 Y19.12 Z0.35
N470 X-29.12 Y3.818 Z0.35
N471 X-29.12 Y3.253 Z0.35
N472 X-13.253 Y19.12 Z0.35
N473 X-12.687 Y19.12 Z0.35
N474 X-29.12 Y2.687 Z0.35
N475 X-29.12 Y2.121 Z0.35
N476 X-12.121 Y19.12 Z0.35
N477 X-11.556 Y19.12 Z0.35
N478 X-29.12 Y1.556 Z0.35
N479 X-29.12 Y0.99 Z0.35
N480 X-10.99 Y19.12 Z0.35
N481 X-10.424 Y19.12 Z0.35
N482 X-29.12 Y0.424 Z0.35
N483 X-29.12 Y-0.142 Z0.35
N484 X-9.858 Y19.12 Z0.35
N485 X-9.293 Y19.12 Z0.35
N486 X-29.12 Y-0.707 Z0.35
N487 X-29.12 Y-1.273 Z0.35
N488 X-8.727 Y19.12 Z0.35
N489 X-8.161 Y19.12 Z0.35
N490 X-29.12 Y-1.839 Z0.35
N491 X-29.12 Y-2.404 Z0.35
N492 X-7.596 Y19.12 Z0.35
N493 X-7.03 Y19.12 Z0.35
N494 X-29.12 Y-2.97 Z0.35
N495 X-29.12 Y-3.536 Z0.35
N496 X-6.464 Y19.12 Z0.35
N497 X-5.899 Y19.12 Z0.35
N498 X-29.12 Y-4.101 Z0.35
N499 X-29.12 Y-4.667 Z0.35
N500 X-5.333 Y19.12 Z0.35
N501 X-4.767 Y19.12 Z0.35
N502 X-29.12 Y-5.233 Z0.35
N503 X-29.12 Y-5.798 Z0.35
N504 X-4.202 Y19.12 Z0.35
N505 X-3.636 Y19.12 Z0.35
N506 X-29.12 Y-6.364 Z0.35
N507 X-29.12 Y-6.93 Z0.35
N508 X-3.07 Y19.12 Z0.35
N509 X-2.505 Y19.12 Z0.35
N510 X-29.12 Y-7.495 Z0.35
N511 X-29.12 Y-8.061 Z0.35
N512 X-1.939 Y19.12 Z0.35
N513 X-1.373 Y19.12 Z0.35
N514 X-29.12 Y-8.627 Z0.35
N515 X-29.12 Y-9.193 Z0.35
N516 X-0.808 Y19.12 Z0.35
N517 X-0.242 Y19.12 Z0.35
N518 X-29.12 Y-9.758 Z0.35
N519 X-29.12 Y-10.324 Z0.35
N520 X0.324 Y19.12 Z0.35
N521 X0.89 Y19.12 Z0.35
N522 X-29.12 Y-10.89 Z0.35
N523 X-29.12 Y-11.455 Z0.35
N524 X1.455 Y19.12 Z0.35
N525 X2.021 Y19.12 Z0.35
N526 X-29.12 Y-12.021 Z0.35
N527 X-29.12 Y-12.587 Z0.35
N528 X2.587 Y19.12 Z0.35
N529 X3.152 Y19.12 Z0.35
N530 X-29.12 Y-13.152 Z0.35
N531 X-29.12 Y-13.718 Z0.35
N532 X3.718 Y19.12 Z0.35
N533 X4.284 Y19.12 Z0.35
N534 X-29.12 Y-14.284 Z0.35
N535 X-29.12 Y-14.849 Z0.35
N536 X4.849 Y19.12 Z0.35
N537 X5.415 Y19.12 Z0.35
N538 X-29.12 Y-15.415 Z0.35
N539 X-29.12 Y-15.981 Z0.35
N540 X5.981 Y19.12 Z0.35
N541 X6.546 Y19.12 Z0.35
N542 X-29.12 Y-16.546 Z0.35
N543 X-29.12 Y-17.112 Z0.35
N544 X7.112 Y19.12 Z0.35
N545 X7.678 Y19.12 Z0.35
N546 X-29.12 Y-17.678 Z0.35
N547 X-29.12 Y-18.243 Z0.35
N548 X8.243 Y19.12 Z0.35
N549 X8.809 Y19.12 Z0.35
N550 X-29.12 Y-18.809 Z0.35
N551 X-29.12 Y-19.12 Z0.35
N552 X-28.865 Y-19.12 Z0.35
N553 X9.375 Y19.12 Z0.35
N554 X9.94 Y19.12 Z0.35
N555 X-28.299 Y-19.12 Z0.35
N556 X-27.734 Y-19.12 Z0.35
N557 X10.506 Y19.12 Z0.35
N558 X11.072 Y19.12 Z0.35
N559 X-27.168 Y-19.12 Z0.35
N560 X-26.602 Y-19.12 Z0.35
N561 X11.638 Y19.12 Z0.35
N562 X12.203 Y19.12 Z0.35
N563 X-26.037 Y-19.12 Z0.35
N564 X-25.471 Y-19.12 Z0.35
N565 X12.769 Y19.12 Z0.35
N566 X13.335 Y19.12 Z0.35
N567 X-24.905 Y-19.12 Z0.35
N568 X-24.34 Y-19.12 Z0.35
N569 X13.9 Y19.12 Z0.35
N570 X14.466 Y19.12 Z0.35
N571 X-23.774 Y-19.12 Z0.35
N572 X-23.208 Y-19.12 Z0.35
N573 X15.032 Y19.12 Z0.35
N574 X15.597 Y19.12 Z0.35
N575 X-22.643 Y-19.12 Z0.35
N576 X-22.077 Y-19.12 Z0.35
N577 X16.163 Y19.12 Z0.35
N578 X16.729 Y19.12 Z0.35
N579 X-21.511 Y-19.12 Z0.35
N580 X-20.946 Y-19.12 Z0.35
N581 X17.294 Y19.12 Z0.35
N582 X17.86 Y19.12 Z0.35
N583 X-20.38 Y-19.12 Z0.35
N584 X-19.814 Y-19.12 Z0.35
N585 X18.426 Y19.12 Z0.35
N586 X18.991 Y19.12 Z0.35
N587 X-19.248 Y-19.12 Z0.35
N588 X-18.683 Y-19.12 Z0.35
N589 X19.557 Y19.12 Z0.35
N590 X20.123 Y19.12 Z0.35
N591 X-18.117 Y-19.12 Z0.35
N592 X-17.551 Y-19.12 Z0.35
N593 X20.689 Y19.12 Z0.35
N594 X21.254 Y19.12 Z0.35
N595 X-16.986 Y-19.12 Z0.35
N596 X-16.42 Y-19.12 Z0.35
N597 X21.82 Y19.12 Z0.35
N598 X22.386 Y19.12 Z0.35
N599 X-15.854 Y-19.12 Z0.35
N600 X-15.289 Y-19.12 Z0.35
N601 X22.951 Y19.12 Z0.35
N602 X23.517 Y19.12 Z0.35
N603 X-14.723 Y-19.12 Z0.35
N604 X-14.157 Y-19.12 Z0.35
N605 X24.083 Y19.12 Z0.35
N606 X24.648 Y19.12 Z0.35
N607 X-13.592 Y-19.12 Z0.35
N608 X-13.026 Y-19.12 Z0.35
N609 X25.214 Y19.12 Z0.35
N610 X25.78 Y19.12 Z0.35
N611 X-12.46 Y-19.12 Z0.35
N612 X-11.895 Y-19.12 Z0.35
N613 X26.345 Y19.12 Z0.35
N614 X26.911 Y19.12 Z0.35
N615 X-11.329 Y-19.12 Z0.35
N616 X-10.763 Y-19.12 Z0.35
N617 X27.477 Y19.12 Z0.35
N618 X28.042 Y19.12 Z0.35
N619 X-10.198 Y-19.12 Z0.35
N620 X-9.632 Y-19.12 Z0.35
N621 X28.608 Y19.12 Z0.35
N622 X29.12 Y19.12 Z0.35
N623 X29.12 Y19.066 Z0.35
N624 X-9.066 Y-19.12 Z0.35
N625 X-8.5 Y-19.12 Z0.35
N626 X29.12 Y18.501 Z0.35
N627 X29.12 Y17.935 Z0.35
N628 X-7.935 Y-19.12 Z0.35
N629 X-7.369 Y-19.12 Z0.35
N630 X29.12 Y17.369 Z0.35
N631 X29.12 Y16.803 Z0.35
N632 X-6.803 Y-19.12 Z0.35
N633 X-6.238 Y-19.12 Z0.35
N634 X29.12 Y16.238 Z0.35
N635 X29.12 Y15.672 Z0.35
N636 X-5.672 Y-19.12 Z0.35
N637 X-5.106 Y-19.12 Z0.35
N638 X29.12 Y15.106 Z0.35
N639 X29.12 Y14.541 Z0.35
N640 X-4.541 Y-19.12 Z0.35
N641 X-3.975 Y-19.12 Z0.35
N642 X29.12 Y13.975 Z0.35
N643 X29.12 Y13.409 Z0.35
N644 X-3.409 Y-19.12 Z0.35
N645 X-2.844 Y-19.12 Z0.35
N646 X29.12 Y12.844 Z0.35
N647 X29.12 Y12.278 Z0.35
N648 X-2.278 Y-19.12 Z0.35
N649 X-1.712 Y-19.12 Z0.35
N650 X29.12 Y11.712 Z0.35
N651 X29.12 Y11.147 Z0.35
N652 X-1.147 Y-19.12 Z0.35
N653 X-0.581 Y-19.12 Z0.35
N654 X29.12 Y10.581 Z0.35
N655 X29.12 Y10.015 Z0.35
N656 X-0.015 Y-19.12 Z0.35
N657 X0.55 Y-19.12 Z0.35
N658 X29.12 Y9.45 Z0.35
N659 X29.12 Y8.884 Z0.35
N660 X1.116 Y-19.12 Z0.35
N661 X1.682 Y-19.12 Z0.35
N662 X29.12 Y8.318 Z0.35
N663 X29.12 Y7.753 Z0.35
N664 X2.248 Y-19.12 Z0.35
N665 X2.813 Y-19.12 Z0.35
N666 X29.12 Y7.187 Z0.35
N667 X29.12 Y6.621 Z0.35
N668 X3.379 Y-19.12 Z0.35
N669 X3.945 Y-19.12 Z0.35
N670 X29.12 Y6.055 Z0.35
N671 X29.12 Y5.49 Z0.35
N672 X4.51 Y-19.12 Z0.35
N673 X5.076 Y-19.12 Z0.35
N674 X29.12 Y4.924 Z0.35
N675 X29.12 Y4.358 Z0.35
N676 X5.642 Y-19.12 Z0.35
N677 X6.207 Y-19.12 Z0.35
N678 X29.12 Y3.793 Z0.35
N679 X29.12 Y3.227 Z0.35
N680 X6.773 Y-19.12 Z0.35
N681 X7.339 Y-19.12 Z0.35
N682 X29.12 Y2.661 Z0.35
N683 X29.12 Y2.096 Z0.35
N684 X7.904 Y-19.12 Z0.35
N685 X8.47 Y-19.12 Z0.35
N686 X29.12 Y1.53 Z0.35
N687 X29.12 Y0.964 Z0.35
N688 X9.036 Y-19.12 Z0.35
N689 X9.601 Y-19.12 Z0.35
N690 X29.12 Y0.399 Z0.35
N691 X29.12 Y-0.167 Z0.35
N692 X10.167 Y-19.12 Z0.35
N693 X10.733 Y-19.12 Z0.35
N694 X29.12 Y-0.733 Z0.35
N695 X29.12 Y-1.298 Z0.35
N696 X11.298 Y-19.12 Z0.35
N697 X11.864 Y-19.12 Z0.35
N698 X29.12 Y-1.864 Z0.35
N699 X29.12 Y-2.43 Z0.35
N700 X12.43 Y-19.12 Z0.35
N701 X12.996 Y-19.12 Z0.35
N702 X29.12 Y-2.996 Z0.35
N703 X29.12 Y-3.561 Z0.35
N704 X13.561 Y-19.12 Z0.35
N705 X14.127 Y-19.12 Z0.35
N706 X29.12 Y-4.127 Z0.35
N707 X29.12 Y-4.693 Z0.35
N708 X14.693 Y-19.12 Z0.35
N709 X15.258 Y-19.12 Z0.35
N710 X29.12 Y-5.258 Z0.35
N711 X29.12 Y-5.824 Z0.35
N712 X15.824 Y-19.12 Z0.35
N713 X16.39 Y-19.12 Z0.35
N714 X29.12 Y-6.39 Z0.35
N715 X29.12 Y-6.955 Z0.35
N716 X16.955 Y-19.12 Z0.35
N717 X17.521 Y-19.12 Z0.35
N718 X29.12 Y-7.521 Z0.35
N719 X29.12 Y-8.087 Z0.35
N720 X18.087 Y-19.12 Z0.35
N721 X18.652 Y-19.12 Z0.35
N722 X29.12 Y-8.652 Z0.35
N723 X29.12 Y-9.218 Z0.35
N724 X19.218 Y-19.12 Z0.35
N725 X19.784 Y-19.12 Z0.35
N726 X29.12 Y-9.784 Z0.35
N727 X29.12 Y-10.349 Z0.35
N728 X20.349 Y-19.12 Z0.35
N729 X20.915 Y-19.12 Z0.35
N730 X29.12 Y-10.915 Z0.35
N731 X29.12 Y-11.481 Z0.35
N732 X21.481 Y-19.12 Z0.35
N733 X22.047 Y-19.12 Z0.35
N734 X29.12 Y-12.047 Z0.35
N735 X29.12 Y-12.612 Z0.35
N736 X22.612 Y-19.12 Z0.35
N737 X23.178 Y-19.12 Z0.35
N738 X29.12 Y-13.178 Z0.35
N739 X29.12 Y-13.744 Z0.35
N740 X23.744 Y-19.12 Z0.35
N741 X24.309 Y-19.12 Z0.35
N742 X29.12 Y-14.309 Z0.35
N743 X29.12 Y-14.875 Z0.35
N744 X24.875 Y-19.12 Z0.35
N745 X25.441 Y-19.12 Z0.35
N746 X29.12 Y-15.441 Z0.35
N747 X29.12 Y-16.006 Z0.35
N748 X26.006 Y-19.12 Z0.35
N749 X26.572 Y-19.12 Z0.35
N750 X29.12 Y-16.572 Z0.35
N751 X29.12 Y-17.138 Z0.35
N752 X27.138 Y-19.12 Z0.35
N753 X27.703 Y-19.12 Z0.35
N754 X29.12 Y-17.703 Z0.35
N755 X29.12 Y-18.269 Z0.35
N756 X28.269 Y-19.12 Z0.35
N757 X28.835 Y-19.12 Z0.35
N758 X29.12 Y-18.835 Z0.35
N759 X29.12 Y-18.835 Z0.35
N760 G00 X28.835 Y-19.12 Z0.35 F1000
N761 X28.438 Y-19.12 Z0.35
N762 X28.835 Y-19.12 Z0.35
N763 X29.12 Y-18.835 Z0.35
(rapid-dry)
N764 X-29.8 Y-19.8 Z0.5
N765 G01 X-29.8 Y-19.8 Z0.5 F1800
(bead-perimeter_outer)
N766 X29.8 Y-19.8 Z0.5
N767 X29.8 Y19.8 Z0.5
N768 X-29.8 Y19.8 Z0.5
N769 X-29.8 Y-19.8 Z0.5
N770 X-29.8 Y-19.8 Z0.5
N771 G00 X-29. Y-19.8 Z0.5 F1000
N772 X-29.8 Y-19.8 Z0.5
(rapid-leaky)
N773 X-29.44 Y-19.44 Z0.5
N774 G01 X-29.44 Y-19.44 Z0.5 F1800
(bead-perimeter_inner)
N775 X29.44 Y-19.44 Z0.5 F2400
N776 X29.44 Y19.44 Z0.5
N777 X-29.44 Y19.44 Z0.5
N778 X-29.44 Y-19.44 Z0.5
N779 X-29.44 Y-19.44 Z0.5 F1800
N780 G00 X-28.64 Y-19.44 Z0.5 F1000
N781 X-29.44 Y-19.44 Z0.5
(rapid-leaky)
N782 X-29.092 Y-19.12 Z0.5
N783 G01 X-29.092 Y-19.12 Z0.5 F1800
(bead-solid_infill)
N784 X-29.12 Y-19.092 Z0.5
N785 X-29.12 Y-18.526 Z0.5
N786 X-28.526 Y-19.12 Z0.5
N787 X-27.96 Y-19.12 Z0.5
N788 X-29.12 Y-17.96 Z0.5
N789 X-29.12 Y-17.395 Z0.5
N790 X-27.395 Y-19.12 Z0.5
N791 X-26.829 Y-19.12 Z0.5
N792 X-29.12 Y-16.829 Z0.5
N793 X-29.12 Y-16.263 Z0.5
N794 X-26.263 Y-19.12 Z0.5
N795 X-25.698 Y-19.12 Z0.5
N796 X-29.12 Y-15.698 Z0.5
N797 X-29.12 Y-15.132 Z0.5
N798 X-25.132 Y-19.12 Z0.5
N799 X-24.566 Y-19.12 Z0.5
N800 X-29.12 Y-14.566 Z0.5
N801 X-29.12 Y-14.001 Z0.5
N802 X-24.001 Y-19.12 Z0.5
N803 X-23.435 Y-19.12 Z0.5
N804 X-29.12 Y-13.435 Z0.5
N805 X-29.12 Y-12.869 Z0.5
N806 X-22.869 Y-19.12 Z0.5
N807 X-22.304 Y-19.12 Z0.5
N808 X-29.12 Y-12.304 Z0.5
N809 X-29.12 Y-11.738 Z0.5
N810 X-21.738 Y-19.12 Z0.5
N811 X-21.172 Y-19.12 Z0.5
N812 X-29.12 Y-11.172 Z0.5
N813 X-29.12 Y-10.607 Z0.5
N814 X-20.606 Y-19.12 Z0.5
N815 X-20.041 Y-19.12 Z0.5
N816 X-29.12 Y-10.041 Z0.5
N817 X-29.12 Y-9.475 Z0.5
N818 X-19.475 Y-19.12 Z0.5
N819 X-18.909 Y-19.12 Z0.5
N820 X-29.12 Y-8.909 Z0.5
N821 X-29.12 Y-8.344 Z0.5
N822 X-18.344 Y-19.12 Z0.5
N823 X-17.778 Y-19.12 Z0.5
N824 X-29.12 Y-7.778 Z0.5
N825 X-29.12 Y-7.212 Z0.5
N826 X-17.212 Y-19.12 Z0.5
N827 X-16.647 Y-19.12 Z0.5
N828 X-29.12 Y-6.647 Z0.5
N829 X-29.12 Y-6.081 Z0.5
N830 X-16.081 Y-19.12 Z0.5
N831 X-15.515 Y-19.12 Z0.5
N832 X-29.12 Y-5.515 Z0.5
N833 X-29.12 Y-4.95 Z0.5
N834 X-14.95 Y-19.12 Z0.5
N835 X-14.384 Y-19.12 Z0.5
N836 X-29.12 Y-4.384 Z0.5
N837 X-29.12 Y-3.818 Z0.5
N838 X-13.818 Y-19.12 Z0.5
N839 X-13.253 Y-19.12 Z0.5
N840 X-29.12 Y-3.253 Z0.5
N841 X-29.12 Y-2.687 Z0.5
N842 X-12.687 Y-19.12 Z0.5
N843 X-12.121 Y-19.12 Z0.5
N844 X-29.12 Y-2.121 Z0.5
N845 X-29.12 Y-1.556 Z0.5
N846 X-11.556 Y-19.12 Z0.5
N847 X-10.99 Y-19.12 Z0.5
N848 X-29.12 Y-0.99 Z0.5
N849 X-29.12 Y-0.424 Z0.5
N850 X-10.424 Y-19.12 Z0.5
N851 X-9.858 Y-19.12 Z0.5
N852 X-29.12 Y0.142 Z0.5
N853 X-29.12 Y0.707 Z0.5
N854 X-9.293 Y-19.12 Z0.5
N855 X-8.727 Y-19.12 Z0.5
N856 X-29.12 Y1.273 Z0.5
N857 X-29.12 Y1.839 Z0.5
N858 X-8.161 Y-19.12 Z0.5
N859 X-7.596 Y-19.12 Z0.5
N860 X-29.12 Y2.404 Z0.5
N861 X-29.12 Y2.97 Z0.5
N862 X-7.03 Y-19.12 Z0.5
N863 X-6.464 Y-19.12 Z0.5
N864 X-29.12 Y3.536 Z0.5
N865 X-29.12 Y4.101 Z0.5
N866 X-5.899 Y-19.12 Z0.5
N867 X-5.333 Y-19.12 Z0.5
N868 X-29.12 Y4.667 Z0.5
N869 X-29.12 Y5.233 Z0.5
N870 X-4.767 Y-19.12 Z0.5
N871 X-4.202 Y-19.12 Z0.5
N872 X-29.12 Y5.798 Z0.5
N873 X-29.12 Y6.364 Z0.5
N874 X-3.636 Y-19.12 Z0.5
N875 X-3.07 Y-19.12 Z0.5
N876 X-29.12 Y6.93 Z0.5
N877 X-29.12 Y7.495 Z0.5
N878 X-2.505 Y-19.12 Z0.5
N879 X-1.939 Y-19.12 Z0.5
N880 X-29.12 Y8.061 Z0.5
N881 X-29.12 Y8.627 Z0.5
N882 X-1.373 Y-19.12 Z0.5
N883 X-0.807 Y-19.12 Z0.5
N884 X-29.12 Y9.192 Z0.5
N885 X-29.12 Y9.758 Z0.5
N886 X-0.242 Y-19.12 Z0.5
N887 X0.324 Y-19.12 Z0.5
N888 X-29.12 Y10.324 Z0.5
N889 X-29.12 Y10.89 Z0.5
N890 X0.89 Y-19.12 Z0.5
N891 X1.455 Y-19.12 Z0.5
N892 X-29.12 Y11.455 Z0.5
N893 X-29.12 Y12.021 Z0.5
N894 X2.021 Y-19.12 Z0.5
N895 X2.587 Y-19.12 Z0.5
N896 X-29.12 Y12.587 Z0.5
N897 X-29.12 Y13.152 Z0.5
N898 X3.152 Y-19.12 Z0.5
N899 X3.718 Y-19.12 Z0.5
N900 X-29.12 Y13.718 Z0.5
N901 X-29.12 Y14.284 Z0.5
N902 X4.284 Y-19.12 Z0.5
N903 X4.849 Y-19.12 Z0.5
N904 X-29.12 Y14.849 Z0.5
N905 X-29.12 Y15.415 Z0.5
N906 X5.415 Y-19.12 Z0.5
N907 X5.981 Y-19.12 Z0.5
N908 X-29.12 Y15.981 Z0.5
N909 X-29.12 Y16.546 Z0.5
N910 X6.546 Y-19.12 Z0.5
N911 X7.112 Y-19.12 Z0.5
N912 X-29.12 Y17.112 Z0.5
N913 X-29.12 Y17.678 Z0.5
N914 X7.678 Y-19.12 Z0.5
N915 X8.243 Y-19.12 Z0.5
N916 X-29.12 Y18.243 Z0.5
N917 X-29.12 Y18.809 Z0.5
N918 X8.809 Y-19.12 Z0.5
N919 X9.375 Y-19.12 Z0.5
N920 X-28.865 Y19.12 Z0.5
N921 X-28.3 Y19.12 Z0.5
N922 X9.941 Y-19.12 Z0.5
N923 X10.506 Y-19.12 Z0.5
N924 X-27.734 Y19.12 Z0.5
N925 X-27.168 Y19.12 Z0.5
N926 X11.072 Y-19.12 Z0.5
N927 X11.638 Y-19.12 Z0.5
N928 X-26.602 Y19.12 Z0.5
N929 X-26.037 Y19.12 Z0.5
N930 X12.203 Y-19.12 Z0.5
N931 X12.769 Y-19.12 Z0.5
N932 X-25.471 Y19.12 Z0.5
N933 X-24.905 Y19.12 Z0.5
N934 X13.335 Y-19.12 Z0.5
N935 X13.9 Y-19.12 Z0.5
N936 X-24.34 Y19.12 Z0.5
N937 X-23.774 Y19.12 Z0.5
N938 X14.466 Y-19.12 Z0.5
N939 X15.032 Y-19.12 Z0.5
N940 X-23.208 Y19.12 Z0.5
N941 X-22.643 Y19.12 Z0.5
N942 X15.597 Y-19.12 Z0.5
N943 X16.163 Y-19.12 Z0.5
N944 X-22.077 Y19.12 Z0.5
N945 X-21.511 Y19.12 Z0.5
N946 X16.729 Y-19.12 Z0.5
N947 X17.294 Y-19.12 Z0.5
N948 X-20.946 Y19.12 Z0.5
N949 X-20.38 Y19.12 Z0.5
N950 X17.86 Y-19.12 Z0.5
N951 X18.426 Y-19.12 Z0.5
N952 X-19.814 Y19.12 Z0.5
N953 X-19.249 Y19.12 Z0.5
N954 X18.992 Y-19.12 Z0.5
N955 X19.557 Y-19.12 Z0.5
N956 X-18.683 Y19.12 Z0.5
N957 X-18.117 Y19.12 Z0.5
N958 X20.123 Y-19.12 Z0.5
N959 X20.689 Y-19.12 Z0.5
N960 X-17.551 Y19.12 Z0.5
N961 X-16.986 Y19.12 Z0.5
N962 X21.254 Y-19.12 Z0.5
N963 X21.82 Y-19.12 Z0.5
N964 X-16.42 Y19.12 Z0.5
N965 X-15.854 Y19.12 Z0.5
N966 X22.386 Y-19.12 Z0.5
N967 X22.951 Y-19.12 Z0.5
N968 X-15.289 Y19.12 Z0.5
N969 X-14.723 Y19.12 Z0.5
N970 X23.517 Y-19.12 Z0.5
N971 X24.083 Y-19.12 Z0.5
N972 X-14.157 Y19.12 Z0.5
N973 X-13.592 Y19.12 Z0.5
N974 X24.648 Y-19.12 Z0.5
N975 X25.214 Y-19.12 Z0.5
N976 X-13.026 Y19.12 Z0.5
N977 X-12.46 Y19.12 Z0.5
N978 X25.78 Y-19.12 Z0.5
N979 X26.345 Y-19.12 Z0.5
N980 X-11.895 Y19.12 Z0.5
N981 X-11.329 Y19.12 Z0.5
N982 X26.911 Y-19.12 Z0.5
N983 X27.477 Y-19.12 Z0.5
N984 X-10.763 Y19.12 Z0.5
N985 X-10.198 Y19.12 Z0.5
N986 X28.042 Y-19.12 Z0.5
N987 X28.608 Y-19.12 Z0.5
N988 X-9.632 Y19.12 Z0.5
N989 X-9.066 Y19.12 Z0.5
N990 X29.12 Y-19.066 Z0.5
N991 X29.12 Y-18.5 Z0.5
N992 X-8.501 Y19.12 Z0.5
N993 X-7.935 Y19.12 Z0.5
N994 X29.12 Y-17.935 Z0.5
N995 X29.12 Y-17.369 Z0.5
N996 X-7.369 Y19.12 Z0.5
N997 X-6.803 Y19.12 Z0.5
N998 X29.12 Y-16.803 Z0.5
N999 X29.12 Y-16.238 Z0.5
N1000 X-6.238 Y19.12 Z0.5
N1001 X-5.672 Y19.12 Z0.5
N1002 X29.12 Y-15.672 Z0.5
N1003 X29.12 Y-15.106 Z0.5
N1004 X-5.106 Y19.12 Z0.5
N1005 X-4.541 Y19.12 Z0.5
N1006 X29.12 Y-14.541 Z0.5
N1007 X29.12 Y-13.975 Z0.5
N1008 X-3.975 Y19.12 Z0.5
N1009 X-3.409 Y19.12 Z0.5
N1010 X29.12 Y-13.409 Z0.5
N1011 X29.12 Y-12.844 Z0.5
N1012 X-2.844 Y19.12 Z0.5
N1013 X-2.278 Y19.12 Z0.5
N1014 X29.12 Y-12.278 Z0.5
N1015 X29.12 Y-11.712 Z0.5
N1016 X-1.712 Y19.12 Z0.5
N1017 X-1.147 Y19.12 Z0.5
N1018 X29.12 Y-11.147 Z0.5
N1019 X29.12 Y-10.581 Z0.5
N1020 X-0.581 Y19.12 Z0.5
N1021 X-0.015 Y19.12 Z0.5
N1022 X29.12 Y-10.015 Z0.5
N1023 X29.12 Y-9.449 Z0.5
N1024 X0.55 Y19.12 Z0.5
N1025 X1.116 Y19.12 Z0.5
N1026 X29.12 Y-8.884 Z0.5
N1027 X29.12 Y-8.318 Z0.5
N1028 X1.682 Y19.12 Z0.5
N1029 X2.248 Y19.12 Z0.5
N1030 X29.12 Y-7.752 Z0.5
N1031 X29.12 Y-7.187 Z0.5
N1032 X2.813 Y19.12 Z0.5
N1033 X3.379 Y19.12 Z0.5
N1034 X29.12 Y-6.621 Z0.5
N1035 X29.12 Y-6.055 Z0.5
N1036 X3.945 Y19.12 Z0.5
N1037 X4.51 Y19.12 Z0.5
N1038 X29.12 Y-5.49 Z0.5
N1039 X29.12 Y-4.924 Z0.5
N1040 X5.076 Y19.12 Z0.5
N1041 X5.642 Y19.12 Z0.5
N1042 X29.12 Y-4.358 Z0.5
N1043 X29.12 Y-3.793 Z0.5
N1044 X6.207 Y19.12 Z0.5
N1045 X6.773 Y19.12 Z0.5
N1046 X29.12 Y-3.227 Z0.5
N1047 X29.12 Y-2.661 Z0.5
N1048 X7.339 Y19.12 Z0.5
N1049 X7.904 Y19.12 Z0.5
N1050 X29.12 Y-2.096 Z0.5
N1051 X29.12 Y-1.53 Z0.5
N1052 X8.47 Y19.12 Z0.5
N1053 X9.036 Y19.12 Z0.5
N1054 X29.12 Y-0.964 Z0.5
N1055 X29.12 Y-0.399 Z0.5
N1056 X9.601 Y19.12 Z0.5
N1057 X10.167 Y19.12 Z0.5
N1058 X29.12 Y0.167 Z0.5
N1059 X29.12 Y0.733 Z0.5
N1060 X10.733 Y19.12 Z0.5
N1061 X11.299 Y19.12 Z0.5
N1062 X29.12 Y1.299 Z0.5
N1063 X29.12 Y1.864 Z0.5
N1064 X11.864 Y19.12 Z0.5
N1065 X12.43 Y19.12 Z0.5
N1066 X29.12 Y2.43 Z0.5
N1067 X29.12 Y2.996 Z0.5
N1068 X12.996 Y19.12 Z0.5
N1069 X13.561 Y19.12 Z0.5
N1070 X29.12 Y3.561 Z0.5
N1071 X29.12 Y4.127 Z0.5
N1072 X14.127 Y19.12 Z0.5
N1073 X14.693 Y19.12 Z0.5
N1074 X29.12 Y4.693 Z0.5
N1075 X29.12 Y5.258 Z0.5
N1076 X15.258 Y19.12 Z0.5
N1077 X15.824 Y19.12 Z0.5
N1078 X29.12 Y5.824 Z0.5
N1079 X29.12 Y6.39 Z0.5
N1080 X16.39 Y19.12 Z0.5
N1081 X16.955 Y19.12 Z0.5
N1082 X29.12 Y6.955 Z0.5
N1083 X29.12 Y7.521 Z0.5
N1084 X17.521 Y19.12 Z0.5
N1085 X18.087 Y19.12 Z0.5
N1086 X29.12 Y8.087 Z0.5
N1087 X29.12 Y8.652 Z0.5
N1088 X18.652 Y19.12 Z0.5
N1089 X19.218 Y19.12 Z0.5
N1090 X29.12 Y9.218 Z0.5
N1091 X29.12 Y9.784 Z0.5
N1092 X19.784 Y19.12 Z0.5
N1093 X20.349 Y19.12 Z0.5
N1094 X29.12 Y10.349 Z0.5
N1095 X29.12 Y10.915 Z0.5
N1096 X20.915 Y19.12 Z0.5
N1097 X21.481 Y19.12 Z0.5
N1098 X29.12 Y11.481 Z0.5
N1099 X29.12 Y12.047 Z0.5
N1100 X22.047 Y19.12 Z0.5
N1101 X22.612 Y19.12 Z0.5
N1102 X29.12 Y12.612 Z0.5
N1103 X29.12 Y13.178 Z0.5
N1104 X23.178 Y19.12 Z0.5
N1105 X23.744 Y19.12 Z0.5
N1106 X29.12 Y13.744 Z0.5
N1107 X29.12 Y14.309 Z0.5
N1108 X24.309 Y19.12 Z0.5
N1109 X24.875 Y19.12 Z0.5
N1110 X29.12 Y14.875 Z0.5
N1111 X29.12 Y15.441 Z0.5
N1112 X25.441 Y19.12 Z0.5
N1113 X26.006 Y19.12 Z0.5
N1114 X29.12 Y16.006 Z0.5
N1115 X29.12 Y16.572 Z0.5
N1116 X26.572 Y19.12 Z0.5
N1117 X27.138 Y19.12 Z0.5
N1118 X29.12 Y17.138 Z0.5
N1119 X29.12 Y17.703 Z0.5
N1120 X27.703 Y19.12 Z0.5
N1121 X28.269 Y19.12 Z0.5
N1122 X29.12 Y18.269 Z0.5
N1123 X29.12 Y18.835 Z0.5
N1124 X28.835 Y19.12 Z0.5
N1125 X28.835 Y19.12 Z0.5
N1126 G00 X29.12 Y18.835 Z0.5 F1000
N1127 X29.12 Y18.438 Z0.5
N1128 X29.12 Y18.835 Z0.5
N1129 X28.835 Y19.12 Z0.5
(rapid-leaky)
N1130 X29.8 Y19.8 Z0.65
N1131 G01 X29.8 Y19.8 Z0.65 F1800
(bead-perimeter_outer)
N1132 X-29.8 Y19.8 Z0.65
N1133 X-29.8 Y-19.8 Z0.65
N1134 X29.8 Y-19.8 Z0.65
N1135 X29.8 Y19.8 Z0.65
N1136 X29.8 Y19.8 Z0.65
N1137 G00 X29. Y19.8 Z0.65 F1000
N1138 X29.8 Y19.8 Z0.65
(rapid-leaky)
N1139 X29.44 Y19.44 Z0.65
N1140 G01 X29.44 Y19.44 Z0.65 F1800
(bead-perimeter_inner)
N1141 X-29.44 Y19.44 Z0.65 F2400
N1142 X-29.44 Y-19.44 Z0.65
N1143 X29.44 Y-19.44 Z0.65
N1144 X29.44 Y19.44 Z0.65
N1145 X29.44 Y19.44 Z0.65 F1800
N1146 G00 X28.64 Y19.44 Z0.65 F1000
N1147 X29.44 Y19.44 Z0.65
(rapid-leaky)
N1148 X29.12 Y17.052 Z0.65
N1149 G01 X29.12 Y17.052 Z0.65 F1800
(bead-sparse_infill)
N1150 X28.639 Y16.317 Z0.65 F3600
N1151 X28.41 Y15.249 Z0.65
N1152 X28.915 Y14.181 Z0.65
N1153 X29.12 Y14.022 Z0.65
N1154 X29.12 Y8.507 Z0.65
N1155 X28.639 Y7.772 Z0.65
N1156 X28.41 Y6.704 Z0.65
N1157 X28.915 Y5.635 Z0.65
N1158 X29.12 Y5.477 Z0.65
N1159 X29.12 Y-0.038 Z0.65
N1160 X28.639 Y-0.773 Z0.65
N1161 X28.41 Y-1.842 Z0.65
N1162 X28.915 Y-2.91 Z0.65
N1163 X29.12 Y-3.069 Z0.65
N1164 X29.12 Y-8.583 Z0.65
N1165 X28.639 Y-9.319 Z0.65
N1166 X28.41 Y-10.387 Z0.65
N1167 X28.915 Y-11.455 Z0.65
N1168 X29.12 Y-11.614 Z0.65
N1169 X29.12 Y-17.128 Z0.65
N1170 X28.639 Y-17.864 Z0.65
N1171 X28.41 Y-18.932 Z0.65
N1172 X28.499 Y-19.12 Z0.65
N1173 X25.308 Y-19.12 Z0.65
N1174 X25.065 Y-18.932 Z0.65
N1175 X24.367 Y-17.864 Z0.65
N1176 X24.137 Y-16.796 Z0.65
N1177 X24.642 Y-15.727 Z0.65
N1178 X26.022 Y-14.659 Z0.65
N1179 X26.72 Y-13.591 Z0.65
N1180 X26.95 Y-12.523 Z0.65
N1181 X26.444 Y-11.455 Z0.65
N1182 X25.065 Y-10.387 Z0.65
N1183 X24.367 Y-9.319 Z0.65
N1184 X24.137 Y-8.25 Z0.65
N1185 X24.642 Y-7.182 Z0.65
N1186 X26.022 Y-6.114 Z0.65
N1187 X26.72 Y-5.046 Z0.65
N1188 X26.95 Y-3.978 Z0.65
N1189 X26.444 Y-2.91 Z0.65
N1190 X25.065 Y-1.842 Z0.65
N1191 X24.367 Y-0.773 Z0.65
N1192 X24.137 Y0.295 Z0.65
N1193 X24.642 Y1.363 Z0.65
N1194 X26.022 Y2.431 Z0.65
N1195 X26.72 Y3.499 Z0.65
N1196 X26.95 Y4.567 Z0.65
N1197 X26.444 Y5.635 Z0.65
N1198 X25.065 Y6.704 Z0.65
N1199 X24.367 Y7.772 Z0.65
N1200 X24.137 Y8.84 Z0.65
N1201 X24.642 Y9.908 Z0.65
N1202 X26.022 Y10.976 Z0.65
N1203 X26.72 Y12.044 Z0.65
N1204 X26.95 Y13.112 Z0.65
N1205 X26.444 Y14.181 Z0.65
N1206 X25.065 Y15.249 Z0.65
N1207 X24.367 Y16.317 Z0.65
N1208 X24.137 Y17.385 Z0.65
N1209 X24.642 Y18.453 Z0.65
N1210 X25.503 Y19.12 Z0.65
N1211 X22.487 Y19.12 Z0.65
N1212 X22.172 Y18.453 Z0.65
N1213 X20.793 Y17.385 Z0.65
N1214 X20.094 Y16.317 Z0.65
N1215 X19.864 Y15.249 Z0.65
N1216 X20.37 Y14.181 Z0.65
N1217 X21.749 Y13.112 Z0.65
N1218 X22.448 Y12.044 Z0.65
N1219 X22.677 Y10.976 Z0.65
N1220 X22.172 Y9.908 Z0.65
N1221 X20.793 Y8.84 Z0.65
N1222 X20.094 Y7.772 Z0.65
N1223 X19.864 Y6.704 Z0.65
N1224 X20.37 Y5.635 Z0.65
N1225 X21.749 Y4.567 Z0.65
N1226 X22.448 Y3.499 Z0.65
N1227 X22.677 Y2.431 Z0.65
N1228 X22.172 Y1.363 Z0.65
N1229 X20.793 Y0.295 Z0.65
N1230 X20.094 Y-0.773 Z0.65
N1231 X19.864 Y-1.842 Z0.65
N1232 X20.37 Y-2.91 Z0.65
N1233 X21.749 Y-3.978 Z0.65
N1234 X22.448 Y-5.046 Z0.65
N1235 X22.677 Y-6.114 Z0.65
N1236 X22.172 Y-7.182 Z0.65
N1237 X20.793 Y-8.25 Z0.65
N1238 X20.094 Y-9.319 Z0.65
N1239 X19.864 Y-10.387 Z0.65
N1240 X20.37 Y-11.455 Z0.65
N1241 X21.749 Y-12.523 Z0.65
N1242 X22.448 Y-13.591 Z0.65
N1243 X22.677 Y-14.659 Z0.65
N1244 X22.172 Y-15.727 Z0.65
N1245 X20.793 Y-16.796 Z0.65
N1246 X20.094 Y-17.864 Z0.65
N1247 X19.864 Y-18.932 Z0.65
N1248 X19.953 Y-19.12 Z0.65
N1249 X16.763 Y-19.12 Z0.65
N1250 X16.52 Y-18.932 Z0.65
N1251 X15.821 Y-17.864 Z0.65
N1252 X15.592 Y-16.796 Z0.65
N1253 X16.097 Y-15.727 Z0.65
N1254 X17.476 Y-14.659 Z0.65
N1255 X18.175 Y-13.591 Z0.65
N1256 X18.405 Y-12.523 Z0.65
N1257 X17.899 Y-11.455 Z0.65
N1258 X16.52 Y-10.387 Z0.65
N1259 X15.821 Y-9.319 Z0.65
N1260 X15.592 Y-8.25 Z0.65
N1261 X16.097 Y-7.182 Z0.65
N1262 X17.476 Y-6.114 Z0.65
N1263 X18.175 Y-5.046 Z0.65
N1264 X18.405 Y-3.978 Z0.65
N1265 X17.899 Y-2.91 Z0.65
N1266 X16.52 Y-1.842 Z0.65
N1267 X15.821 Y-0.773 Z0.65
N1268 X15.592 Y0.295 Z0.65
N1269 X16.097 Y1.363 Z0.65
N1270 X17.476 Y2.431 Z0.65
N1271 X18.175 Y3.499 Z0.65
N1272 X18.405 Y4.567 Z0.65
N1273 X17.899 Y5.635 Z0.65
N1274 X16.52 Y6.704 Z0.65
N1275 X15.821 Y7.772 Z0.65
N1276 X15.592 Y8.84 Z0.65
N1277 X16.097 Y9.908 Z0.65
N1278 X17.476 Y10.976 Z0.65
N1279 X18.175 Y12.044 Z0.65
N1280 X18.405 Y13.112 Z0.65
N1281 X17.899 Y14.181 Z0.65
N1282 X16.52 Y15.249 Z0.65
N1283 X15.821 Y16.317 Z0.65
N1284 X15.592 Y17.385 Z0.65
N1285 X16.097 Y18.453 Z0.65
N1286 X16.958 Y19.12 Z0.65
N1287 X13.942 Y19.12 Z0.65
N1288 X13.627 Y18.453 Z0.65
N1289 X12.247 Y17.385 Z0.65
N1290 X11.549 Y16.317 Z0.65
N1291 X11.319 Y15.249 Z0.65
N1292 X11.825 Y14.181 Z0.65
N1293 X13.204 Y13.112 Z0.65
N1294 X13.902 Y12.044 Z0.65
N1295 X14.132 Y10.976 Z0.65
N1296 X13.627 Y9.908 Z0.65
N1297 X12.247 Y8.84 Z0.65
N1298 X11.549 Y7.772 Z0.65
N1299 X11.319 Y6.704 Z0.65
N1300 X11.825 Y5.635 Z0.65
N1301 X13.204 Y4.567 Z0.65
N1302 X13.902 Y3.499 Z0.65
N1303 X14.132 Y2.431 Z0.65
N1304 X13.627 Y1.363 Z0.65
N1305 X12.247 Y0.295 Z0.65
N1306 X11.549 Y-0.773 Z0.65
N1307 X11.319 Y-1.842 Z0.65
N1308 X11.825 Y-2.91 Z0.65
N1309 X13.204 Y-3.978 Z0.65
N1310 X13.902 Y-5.046 Z0.65
N1311 X14.132 Y-6.114 Z0.65
N1312 X13.627 Y-7.182 Z0.65
N1313 X12.247 Y-8.25 Z0.65
N1314 X11.549 Y-9.319 Z0.65
N1315 X11.319 Y-10.387 Z0.65
N1316 X11.825 Y-11.455 Z0.65
N1317 X13.204 Y-12.523 Z0.65
N1318 X13.902 Y-13.591 Z0.65
N1319 X14.132 Y-14.659 Z0.65
N1320 X13.627 Y-15.727 Z0.65
N1321 X12.247 Y-16.796 Z0.65
N1322 X11.549 Y-17.864 Z0.65
N1323 X11.319 Y-18.932 Z0.65
N1324 X11.408 Y-19.12 Z0.65
N1325 X8.218 Y-19.12 Z0.65
N1326 X7.975 Y-18.932 Z0.65
N1327 X7.276 Y-17.864 Z0.65
N1328 X7.047 Y-16.796 Z0.65
N1329 X7.552 Y-15.727 Z0.65
N1330 X8.931 Y-14.659 Z0.65
N1331 X9.63 Y-13.591 Z0.65
N1332 X9.86 Y-12.523 Z0.65
N1333 X9.354 Y-11.455 Z0.65
N1334 X7.975 Y-10.387 Z0.65
N1335 X7.276 Y-9.319 Z0.65
N1336 X7.047 Y-8.25 Z0.65
N1337 X7.552 Y-7.182 Z0.65
N1338 X8.931 Y-6.114 Z0.65
N1339 X9.63 Y-5.046 Z0.65
N1340 X9.86 Y-3.978 Z0.65
N1341 X9.354 Y-2.91 Z0.65
N1342 X7.975 Y-1.842 Z0.65
N1343 X7.276 Y-0.773 Z0.65
N1344 X7.047 Y0.295 Z0.65
N1345 X7.552 Y1.363 Z0.65
N1346 X8.931 Y2.431 Z0.65
N1347 X9.63 Y3.499 Z0.65
N1348 X9.86 Y4.567 Z0.65
N1349 X9.354 Y5.635 Z0.65
N1350 X7.975 Y6.704 Z0.65
N1351 X7.276 Y7.772 Z0.65
N1352 X7.047 Y8.84 Z0.65
N1353 X7.552 Y9.908 Z0.65
N1354 X8.931 Y10.976 Z0.65
N1355 X9.63 Y12.044 Z0.65
N1356 X9.86 Y13.112 Z0.65
N1357 X9.354 Y14.181 Z0.65
N1358 X7.975 Y15.249 Z0.65
N1359 X7.276 Y16.317 Z0.65
N1360 X7.047 Y17.385 Z0.65
N1361 X7.552 Y18.453 Z0.65
N1362 X8.413 Y19.12 Z0.65
N1363 X5.397 Y19.12 Z0.65
N1364 X5.082 Y18.453 Z0.65
N1365 X3.702 Y17.385 Z0.65
N1366 X3.004 Y16.317 Z0.65
N1367 X2.774 Y15.249 Z0.65
N1368 X3.279 Y14.181 Z0.65
N1369 X4.659 Y13.112 Z0.65
N1370 X5.357 Y12.044 Z0.65
N1371 X5.587 Y10.976 Z0.65
N1372 X5.082 Y9.908 Z0.65
N1373 X3.702 Y8.84 Z0.65
N1374 X3.004 Y7.772 Z0.65
N1375 X2.774 Y6.704 Z0.65
N1376 X3.279 Y5.635 Z0.65
N1377 X4.659 Y4.567 Z0.65
N1378 X5.357 Y3.499 Z0.65
N1379 X5.587 Y2.431 Z0.65
N1380 X5.082 Y1.363 Z0.65
N1381 X3.702 Y0.295 Z0.65
N1382 X3.004 Y-0.773 Z0.65
N1383 X2.774 Y-1.842 Z0.65
N1384 X3.279 Y-2.91 Z0.65
N1385 X4.659 Y-3.978 Z0.65
N1386 X5.357 Y-5.046 Z0.65
N1387 X5.587 Y-6.114 Z0.65
N1388 X5.082 Y-7.182 Z0.65
N1389 X3.702 Y-8.25 Z0.65
N1390 X3.004 Y-9.319 Z0.65
N1391 X2.774 Y-10.387 Z0.65
N1392 X3.279 Y-11.455 Z0.65
N1393 X4.659 Y-12.523 Z0.65
N1394 X5.357 Y-13.591 Z0.65
N1395 X5.587 Y-14.659 Z0.65
N1396 X5.082 Y-15.727 Z0.65
N1397 X3.702 Y-16.796 Z0.65
N1398 X3.004 Y-17.864 Z0.65
N1399 X2.774 Y-18.932 Z0.65
N1400 X2.863 Y-19.12 Z0.65
N1401 X-0.327 Y-19.12 Z0.65
N1402 X-0.57 Y-18.932 Z0.65
N1403 X-1.269 Y-17.864 Z0.65
N1404 X-1.498 Y-16.796 Z0.65
N1405 X-0.993 Y-15.727 Z0.65
N1406 X0.386 Y-14.659 Z0.65
N1407 X1.085 Y-13.591 Z0.65
N1408 X1.314 Y-12.523 Z0.65
N1409 X0.809 Y-11.455 Z0.65
N1410 X-0.57 Y-10.387 Z0.65
N1411 X-1.269 Y-9.319 Z0.65
N1412 X-1.498 Y-8.25 Z0.65
N1413 X-0.993 Y-7.182 Z0.65
N1414 X0.386 Y-6.114 Z0.65
N1415 X1.085 Y-5.046 Z0.65
N1416 X1.314 Y-3.978 Z0.65
N1417 X0.809 Y-2.91 Z0.65
N1418 X-0.57 Y-1.842 Z0.65
N1419 X-1.269 Y-0.773 Z0.65
N1420 X-1.498 Y0.295 Z0.65
N1421 X-0.993 Y1.363 Z0.65
N1422 X0.386 Y2.431 Z0.65
N1423 X1.085 Y3.499 Z0.65
N1424 X1.314 Y4.567 Z0.65
N1425 X0.809 Y5.635 Z0.65
N1426 X-0.57 Y6.704 Z0.65
N1427 X-1.269 Y7.772 Z0.65
N1428 X-1.498 Y8.84 Z0.65
N1429 X-0.993 Y9.908 Z0.65
N1430 X0.386 Y10.976 Z0.65
N1431 X1.085 Y12.044 Z0.65
N1432 X1.314 Y13.112 Z0.65
N1433 X0.809 Y14.181 Z0.65
N1434 X-0.57 Y15.249 Z0.65
N1435 X-1.269 Y16.317 Z0.65
N1436 X-1.498 Y17.385 Z0.65
N1437 X-0.993 Y18.453 Z0.65
N1438 X-0.132 Y19.12 Z0.65
N1439 X-3.148 Y19.12 Z0.65
N1440 X-3.464 Y18.453 Z0.65
N1441 X-4.843 Y17.385 Z0.65
N1442 X-5.541 Y16.317 Z0.65
N1443 X-5.771 Y15.249 Z0.65
N1444 X-5.266 Y14.181 Z0.65
N1445 X-3.886 Y13.112 Z0.65
N1446 X-3.188 Y12.044 Z0.65
N1447 X-2.958 Y10.976 Z0.65
N1448 X-3.464 Y9.908 Z0.65
N1449 X-4.843 Y8.84 Z0.65
N1450 X-5.541 Y7.772 Z0.65
N1451 X-5.771 Y6.704 Z0.65
N1452 X-5.266 Y5.635 Z0.65
N1453 X-3.886 Y4.567 Z0.65
N1454 X-3.188 Y3.499 Z0.65
N1455 X-2.958 Y2.431 Z0.65
N1456 X-3.464 Y1.363 Z0.65
N1457 X-4.843 Y0.295 Z0.65
N1458 X-5.541 Y-0.773 Z0.65
N1459 X-5.771 Y-1.842 Z0.65
N1460 X-5.266 Y-2.91 Z0.65
N1461 X-3.886 Y-3.978 Z0.65
N1462 X-3.188 Y-5.046 Z0.65
N1463 X-2.958 Y-6.114 Z0.65
N1464 X-3.464 Y-7.182 Z0.65
N1465 X-4.843 Y-8.25 Z0.65
N1466 X-5.541 Y-9.319 Z0.65
N1467 X-5.771 Y-10.387 Z0.65
N1468 X-5.266 Y-11.455 Z0.65
N1469 X-3.886 Y-12.523 Z0.65
N1470 X-3.188 Y-13.591 Z0.65
N1471 X-2.958 Y-14.659 Z0.65
N1472 X-3.464 Y-15.727 Z0.65
N1473 X-4.843 Y-16.796 Z0.65
N1474 X-5.541 Y-17.864 Z0.65
N1475 X-5.771 Y-18.932 Z0.65
N1476 X-5.682 Y-19.12 Z0.65
N1477 X-8.872 Y-19.12 Z0.65
N1478 X-9.115 Y-18.932 Z0.65
N1479 X-9.814 Y-17.864 Z0.65
N1480 X-10.044 Y-16.796 Z0.65
N1481 X-9.538 Y-15.727 Z0.65
N1482 X-8.159 Y-14.659 Z0.65
N1483 X-7.46 Y-13.591 Z0.65
N1484 X-7.231 Y-12.523 Z0.65
N1485 X-7.736 Y-11.455 Z0.65
N1486 X-9.115 Y-10.387 Z0.65
N1487 X-9.814 Y-9.319 Z0.65
N1488 X-10.044 Y-8.25 Z0.65
N1489 X-9.538 Y-7.182 Z0.65
N1490 X-8.159 Y-6.114 Z0.65
N1491 X-7.46 Y-5.046 Z0.65
N1492 X-7.231 Y-3.978 Z0.65
N1493 X-7.736 Y-2.91 Z0.65
N1494 X-9.115 Y-1.842 Z0.65
N1495 X-9.814 Y-0.773 Z0.65
N1496 X-10.044 Y0.295 Z0.65
N1497 X-9.538 Y1.363 Z0.65
N1498 X-8.159 Y2.431 Z0.65
N1499 X-7.46 Y3.499 Z0.65
N1500 X-7.231 Y4.567 Z0.65
N1501 X-7.736 Y5.635 Z0.65
N1502 X-9.115 Y6.704 Z0.65
N1503 X-9.814 Y7.772 Z0.65
N1504 X-10.044 Y8.84 Z0.65
N1505 X-9.538 Y9.908 Z0.65
N1506 X-8.159 Y10.976 Z0.65
N1507 X-7.46 Y12.044 Z0.65
N1508 X-7.231 Y13.112 Z0.65
N1509 X-7.736 Y14.181 Z0.65
N1510 X-9.115 Y15.249 Z0.65
N1511 X-9.814 Y16.317 Z0.65
N1512 X-10.044 Y17.385 Z0.65
N1513 X-9.538 Y18.453 Z0.65
N1514 X-8.677 Y19.12 Z0.65
N1515 X-11.693 Y19.12 Z0.65
N1516 X-12.009 Y18.453 Z0.65
N1517 X-13.388 Y17.385 Z0.65
N1518 X-14.087 Y16.317 Z0.65
N1519 X-14.316 Y15.249 Z0.65
N1520 X-13.811 Y14.181 Z0.65
N1521 X-12.432 Y13.112 Z0.65
N1522 X-11.733 Y12.044 Z0.65
N1523 X-11.503 Y10.976 Z0.65
N1524 X-12.009 Y9.908 Z0.65
N1525 X-13.388 Y8.84 Z0.65
N1526 X-14.087 Y7.772 Z0.65
N1527 X-14.316 Y6.704 Z0.65
N1528 X-13.811 Y5.635 Z0.65
N1529 X-12.432 Y4.567 Z0.65
N1530 X-11.733 Y3.499 Z0.65
N1531 X-11.503 Y2.431 Z0.65
N1532 X-12.009 Y1.363 Z0.65
N1533 X-13.388 Y0.295 Z0.65
N1534 X-14.087 Y-0.773 Z0.65
N1535 X-14.316 Y-1.842 Z0.65
N1536 X-13.811 Y-2.91 Z0.65
N1537 X-12.432 Y-3.978 Z0.65
N1538 X-11.733 Y-5.046 Z0.65
N1539 X-11.503 Y-6.114 Z0.65
N1540 X-12.009 Y-7.182 Z0.65
N1541 X-13.388 Y-8.25 Z0.65
N1542 X-14.087 Y-9.319 Z0.65
N1543 X-14.316 Y-10.387 Z0.65
N1544 X-13.811 Y-11.455 Z0.65
N1545 X-12.432 Y-12.523 Z0.65
N1546 X-11.733 Y-13.591 Z0.65
N1547 X-11.503 Y-14.659 Z0.65
N1548 X-12.009 Y-15.727 Z0.65
N1549 X-13.388 Y-16.796 Z0.65
N1550 X-14.087 Y-17.864 Z0.65
N1551 X-14.316 Y-18.932 Z0.65
N1552 X-14.227 Y-19.12 Z0.65
N1553 X-17.418 Y-19.12 Z0.65
N1554 X-17.661 Y-18.932 Z0.65
N1555 X-18.359 Y-17.864 Z0.65
N1556 X-18.589 Y-16.796 Z0.65
N1557 X-18.083 Y-15.727 Z0.65
N1558 X-16.704 Y-14.659 Z0.65
N1559 X-16.006 Y-13.591 Z0.65
N1560 X-15.776 Y-12.523 Z0.65
N1561 X-16.281 Y-11.455 Z0.65
N1562 X-17.661 Y-10.387 Z0.65
N1563 X-18.359 Y-9.319 Z0.65
N1564 X-18.589 Y-8.25 Z0.65
N1565 X-18.083 Y-7.182 Z0.65
N1566 X-16.704 Y-6.114 Z0.65
N1567 X-16.006 Y-5.046 Z0.65
N1568 X-15.776 Y-3.978 Z0.65
N1569 X-16.281 Y-2.91 Z0.65
N1570 X-17.661 Y-1.842 Z0.65
N1571 X-18.359 Y-0.773 Z0.65
N1572 X-18.589 Y0.295 Z0.65
N1573 X-18.083 Y1.363 Z0.65
N1574 X-16.704 Y2.431 Z0.65
N1575 X-16.006 Y3.499 Z0.65
N1576 X-15.776 Y4.567 Z0.65
N1577 X-16.281 Y5.635 Z0.65
N1578 X-17.661 Y6.704 Z0.65
N1579 X-18.359 Y7.772 Z0.65
N1580 X-18.589 Y8.84 Z0.65
N1581 X-18.083 Y9.908 Z0.65
N1582 X-16.704 Y10.976 Z0.65
N1583 X-16.006 Y12.044 Z0.65
N1584 X-15.776 Y13.112 Z0.65
N1585 X-16.281 Y14.181 Z0.65
N1586 X-17.661 Y15.249 Z0.65
N1587 X-18.359 Y16.317 Z0.65
N1588 X-18.589 Y17.385 Z0.65
N1589 X-18.083 Y18.453 Z0.65
N1590 X-17.222 Y19.12 Z0.65
N1591 X-20.238 Y19.12 Z0.65
N1592 X-20.554 Y18.453 Z0.65
N1593 X-21.933 Y17.385 Z0.65
N1594 X-22.632 Y16.317 Z0.65
N1595 X-22.861 Y15.249 Z0.65
N1596 X-22.356 Y14.181 Z0.65
N1597 X-20.977 Y13.112 Z0.65
N1598 X-20.278 Y12.044 Z0.65
N1599 X-20.048 Y10.976 Z0.65
N1600 X-20.554 Y9.908 Z0.65
N1601 X-21.933 Y8.84 Z0.65
N1602 X-22.632 Y7.772 Z0.65
N1603 X-22.861 Y6.704 Z0.65
N1604 X-22.356 Y5.635 Z0.65
N1605 X-20.977 Y4.567 Z0.65
N1606 X-20.278 Y3.499 Z0.65
N1607 X-20.048 Y2.431 Z0.65
N1608 X-20.554 Y1.363 Z0.65
N1609 X-21.933 Y0.295 Z0.65
N1610 X-22.632 Y-0.773 Z0.65
N1611 X-22.861 Y-1.842 Z0.65
N1612 X-22.356 Y-2.91 Z0.65
N1613 X-20.977 Y-3.978 Z0.65
N1614 X-20.278 Y-5.046 Z0.65
N1615 X-20.048 Y-6.114 Z0.65
N1616 X-20.554 Y-7.182 Z0.65
N1617 X-21.933 Y-8.25 Z0.65
N1618 X-22.632 Y-9.319 Z0.65
N1619 X-22.861 Y-10.387 Z0.65
N1620 X-22.356 Y-11.455 Z0.65
N1621 X-20.977 Y-12.523 Z0.65
N1622 X-20.278 Y-13.591 Z0.65
N1623 X-20.048 Y-14.659 Z0.65
N1624 X-20.554 Y-15.727 Z0.65
N1625 X-21.933 Y-16.796 Z0.65
N1626 X-22.632 Y-17.864 Z0.65
N1627 X-22.861 Y-18.932 Z0.65
N1628 X-22.772 Y-19.12 Z0.65
N1629 X-25.963 Y-19.12 Z0.65
N1630 X-26.206 Y-18.932 Z0.65
N1631 X-26.904 Y-17.864 Z0.65
N1632 X-27.134 Y-16.796 Z0.65
N1633 X-26.629 Y-15.727 Z0.65
N1634 X-25.249 Y-14.659 Z0.65
N1635 X-24.551 Y-13.591 Z0.65
N1636 X-24.321 Y-12.523 Z0.65
N1637 X-24.826 Y-11.455 Z0.65
N1638 X-26.206 Y-10.387 Z0.65
N1639 X-26.904 Y-9.319 Z0.65
N1640 X-27.134 Y-8.25 Z0.65
N1641 X-26.629 Y-7.182 Z0.65
N1642 X-25.249 Y-6.114 Z0.65
N1643 X-24.551 Y-5.046 Z0.65
N1644 X-24.321 Y-3.978 Z0.65
N1645 X-24.826 Y-2.91 Z0.65
N1646 X-26.206 Y-1.842 Z0.65
N1647 X-26.904 Y-0.773 Z0.65
N1648 X-27.134 Y0.295 Z0.65
N1649 X-26.629 Y1.363 Z0.65
N1650 X-25.249 Y2.431 Z0.65
N1651 X-24.551 Y3.499 Z0.65
N1652 X-24.321 Y4.567 Z0.65
N1653 X-24.826 Y5.635 Z0.65
N1654 X-26.206 Y6.704 Z0.65
N1655 X-26.904 Y7.772 Z0.65
N1656 X-27.134 Y8.84 Z0.65
N1657 X-26.629 Y9.908 Z0.65
N1658 X-25.249 Y10.976 Z0.65
N1659 X-24.551 Y12.044 Z0.65
N1660 X-24.321 Y13.112 Z0.65
N1661 X-24.826 Y14.181 Z0.65
N1662 X-26.206 Y15.249 Z0.65
N1663 X-26.904 Y16.317 Z0.65
N1664 X-27.134 Y17.385 Z0.65
N1665 X-26.629 Y18.453 Z0.65
N1666 X-25.767 Y19.12 Z0.65
N1667 X-28.783 Y19.12 Z0.65
N1668 X-29.099 Y18.453 Z0.65
N1669 X-29.12 Y18.437 Z0.65
N1670 X-29.12 Y12.498 Z0.65
N1671 X-28.823 Y12.044 Z0.65
N1672 X-28.594 Y10.976 Z0.65
N1673 X-29.099 Y9.908 Z0.65
N1674 X-29.12 Y9.892 Z0.65
N1675 X-29.12 Y3.953 Z0.65
N1676 X-28.823 Y3.499 Z0.65
N1677 X-28.594 Y2.431 Z0.65
N1678 X-29.099 Y1.363 Z0.65
N1679 X-29.12 Y1.347 Z0.65
N1680 X-29.12 Y-4.592 Z0.65
N1681 X-28.823 Y-5.046 Z0.65
N1682 X-28.594 Y-6.114 Z0.65
N1683 X-29.099 Y-7.182 Z0.65
N1684 X-29.12 Y-7.199 Z0.65
N1685 X-29.12 Y-13.137 Z0.65
N1686 X-28.823 Y-13.591 Z0.65
N1687 X-28.594 Y-14.659 Z0.65
N1688 X-29.099 Y-15.727 Z0.65
N1689 X-29.12 Y-15.744 Z0.65
N1690 X-29.12 Y-15.744 Z0.65 F1800
N1691 G00 X-29.099 Y-15.727 Z0.65 F1000
N1692 X-28.768 Y-15.028 Z0.65
N1693 X-29.099 Y-15.727 Z0.65
N1694 X-29.12 Y-15.744 Z0.65
(rapid-leaky)
N1695 X29.8 Y19.8 Z0.8
N1696 G01 X29.8 Y19.8 Z0.8 F1800
(bead-perimeter_outer)
N1697 X-29.8 Y19.8 Z0.8
N1698 X-29.8 Y-19.8 Z0.8
N1699 X29.8 Y-19.8 Z0.8
N1700 X29.8 Y19.8 Z0.8
N1701 X29.8 Y19.8 Z0.8
N1702 G00 X29. Y19.8 Z0.8 F1000
N1703 X29.8 Y19.8 Z0.8
(rapid-leaky)
N1704 X29.44 Y19.44 Z0.8
N1705 G01 X29.44 Y19.44 Z0.8 F1800
(bead-perimeter_inner)
N1706 X-29.44 Y19.44 Z0.8 F2400
N1707 X-29.44 Y-19.44 Z0.8
N1708 X29.44 Y-19.44 Z0.8
N1709 X29.44 Y19.44 Z0.8
N1710 X29.44 Y19.44 Z0.8 F1800
N1711 G00 X28.64 Y19.44 Z0.8 F1000
N1712 X29.44 Y19.44 Z0.8
(rapid-leaky)
N1713 X29.12 Y17.019 Z0.8
N1714 G01 X29.12 Y17.019 Z0.8 F1800
(bead-sparse_infill)
N1715 X28.588 Y16.317 Z0.8 F3600
N1716 X28.247 Y15.249 Z0.8
N1717 X28.601 Y14.181 Z0.8
N1718 X29.12 Y13.841 Z0.8
N1719 X29.12 Y8.474 Z0.8
N1720 X28.588 Y7.772 Z0.8
N1721 X28.247 Y6.704 Z0.8
N1722 X28.601 Y5.635 Z0.8
N1723 X29.12 Y5.296 Z0.8
N1724 X29.12 Y-0.071 Z0.8
N1725 X28.588 Y-0.773 Z0.8
N1726 X28.247 Y-1.842 Z0.8
N1727 X28.601 Y-2.91 Z0.8
N1728 X29.12 Y-3.249 Z0.8
N1729 X29.12 Y-8.616 Z0.8
N1730 X28.588 Y-9.319 Z0.8
N1731 X28.247 Y-10.387 Z0.8
N1732 X28.601 Y-11.455 Z0.8
N1733 X29.12 Y-11.794 Z0.8
N1734 X29.12 Y-17.161 Z0.8
N1735 X28.588 Y-17.864 Z0.8
N1736 X28.247 Y-18.932 Z0.8
N1737 X28.31 Y-19.12 Z0.8
N1738 X25.412 Y-19.12 Z0.8
N1739 X25.124 Y-18.932 Z0.8
N1740 X24.315 Y-17.864 Z0.8
N1741 X23.975 Y-16.796 Z0.8
N1742 X24.329 Y-15.727 Z0.8
N1743 X25.962 Y-14.659 Z0.8
N1744 X26.771 Y-13.591 Z0.8
N1745 X27.112 Y-12.523 Z0.8
N1746 X26.758 Y-11.455 Z0.8
N1747 X25.124 Y-10.387 Z0.8
N1748 X24.315 Y-9.319 Z0.8
N1749 X23.975 Y-8.25 Z0.8
N1750 X24.329 Y-7.182 Z0.8
N1751 X25.962 Y-6.114 Z0.8
N1752 X26.771 Y-5.046 Z0.8
N1753 X27.112 Y-3.978 Z0.8
N1754 X26.758 Y-2.91 Z0.8
N1755 X25.124 Y-1.842 Z0.8
N1756 X24.315 Y-0.773 Z0.8
N1757 X23.975 Y0.295 Z0.8
N1758 X24.329 Y1.363 Z0.8
N1759 X25.962 Y2.431 Z0.8
N1760 X26.771 Y3.499 Z0.8
N1761 X27.112 Y4.567 Z0.8
N1762 X26.758 Y5.635 Z0.8
N1763 X25.124 Y6.704 Z0.8
N1764 X24.315 Y7.772 Z0.8
N1765 X23.975 Y8.84 Z0.8
N1766 X24.329 Y9.908 Z0.8
N1767 X25.962 Y10.976 Z0.8
N1768 X26.771 Y12.044 Z0.8
N1769 X27.112 Y13.112 Z0.8
N1770 X26.758 Y14.181 Z0.8
N1771 X25.124 Y15.249 Z0.8
N1772 X24.315 Y16.317 Z0.8
N1773 X23.975 Y17.385 Z0.8
N1774 X24.329 Y18.453 Z0.8
N1775 X25.349 Y19.12 Z0.8
N1776 X22.706 Y19.12 Z0.8
N1777 X22.485 Y18.453 Z0.8
N1778 X20.852 Y17.385 Z0.8
N1779 X20.043 Y16.317 Z0.8
N1780 X19.702 Y15.249 Z0.8
N1781 X20.056 Y14.181 Z0.8
N1782 X21.69 Y13.112 Z0.8
N1783 X22.499 Y12.044 Z0.8
N1784 X22.839 Y10.976 Z0.8
N1785 X22.485 Y9.908 Z0.8
N1786 X20.852 Y8.84 Z0.8
N1787 X20.043 Y7.772 Z0.8
N1788 X19.702 Y6.704 Z0.8
N1789 X20.056 Y5.635 Z0.8
N1790 X21.69 Y4.567 Z0.8
N1791 X22.499 Y3.499 Z0.8
N1792 X22.839 Y2.431 Z0.8
N1793 X22.485 Y1.363 Z0.8
N1794 X20.852 Y0.295 Z0.8
N1795 X20.043 Y-0.773 Z0.8
N1796 X19.702 Y-1.842 Z0.8
N1797 X20.056 Y-2.91 Z0.8
N1798 X21.69 Y-3.978 Z0.8
N1799 X22.499 Y-5.046 Z0.8
N1800 X22.839 Y-6.114 Z0.8
N1801 X22.485 Y-7.182 Z0.8
N1802 X20.852 Y-8.25 Z0.8
N1803 X20.043 Y-9.319 Z0.8
N1804 X19.702 Y-10.387 Z0.8
N1805 X20.056 Y-11.455 Z0.8
N1806 X21.69 Y-12.523 Z0.8
N1807 X22.499 Y-13.591 Z0.8
N1808 X22.839 Y-14.659 Z0.8
N1809 X22.485 Y-15.727 Z0.8
N1810 X20.852 Y-16.796 Z0.8
N1811 X20.043 Y-17.864 Z0.8
N1812 X19.702 Y-18.932 Z0.8
N1813 X19.765 Y-19.12 Z0.8
N1814 X16.867 Y-19.12 Z0.8
N1815 X16.579 Y-18.932 Z0.8
N1816 X15.77 Y-17.864 Z0.8
N1817 X15.43 Y-16.796 Z0.8
N1818 X15.784 Y-15.727 Z0.8
N1819 X17.417 Y-14.659 Z0.8
N1820 X18.226 Y-13.591 Z0.8
N1821 X18.567 Y-12.523 Z0.8
N1822 X18.213 Y-11.455 Z0.8
N1823 X16.579 Y-10.387 Z0.8
N1824 X15.77 Y-9.319 Z0.8
N1825 X15.43 Y-8.25 Z0.8
N1826 X15.784 Y-7.182 Z0.8
N1827 X17.417 Y-6.114 Z0.8
N1828 X18.226 Y-5.046 Z0.8
N1829 X18.567 Y-3.978 Z0.8
N1830 X18.213 Y-2.91 Z0.8
N1831 X16.579 Y-1.842 Z0.8
N1832 X15.77 Y-0.773 Z0.8
N1833 X15.43 Y0.295 Z0.8
N1834 X15.784 Y1.363 Z0.8
N1835 X17.417 Y2.431 Z0.8
N1836 X18.226 Y3.499 Z0.8
N1837 X18.567 Y4.567 Z0.8
N1838 X18.213 Y5.635 Z0.8
N1839 X16.579 Y6.704 Z0.8
N1840 X15.77 Y7.772 Z0.8
N1841 X15.43 Y8.84 Z0.8
N1842 X15.784 Y9.908 Z0.8
N1843 X17.417 Y10.976 Z0.8
N1844 X18.226 Y12.044 Z0.8
N1845 X18.567 Y13.112 Z0.8
N1846 X18.213 Y14.181 Z0.8
N1847 X16.579 Y15.249 Z0.8
N1848 X15.77 Y16.317 Z0.8
N1849 X15.43 Y17.385 Z0.8
N1850 X15.784 Y18.453 Z0.8
N1851 X16.804 Y19.12 Z0.8
N1852 X14.161 Y19.12 Z0.8
N1853 X13.94 Y18.453 Z0.8
N1854 X12.307 Y17.385 Z0.8
N1855 X11.498 Y16.317 Z0.8
N1856 X11.157 Y15.249 Z0.8
N1857 X11.511 Y14.181 Z0.8
N1858 X13.145 Y13.112 Z0.8
N1859 X13.954 Y12.044 Z0.8
N1860 X14.294 Y10.976 Z0.8
N1861 X13.94 Y9.908 Z0.8
N1862 X12.307 Y8.84 Z0.8
N1863 X11.498 Y7.772 Z0.8
N1864 X11.157 Y6.704 Z0.8
N1865 X11.511 Y5.635 Z0.8
N1866 X13.145 Y4.567 Z0.8
N1867 X13.954 Y3.499 Z0.8
N1868 X14.294 Y2.431 Z0.8
N1869 X13.94 Y1.363 Z0.8
N1870 X12.307 Y0.295 Z0.8
N1871 X11.498 Y-0.773 Z0.8
N1872 X11.157 Y-1.842 Z0.8
N1873 X11.511 Y-2.91 Z0.8
N1874 X13.145 Y-3.978 Z0.8
N1875 X13.954 Y-5.046 Z0.8
N1876 X14.294 Y-6.114 Z0.8
N1877 X13.94 Y-7.182 Z0.8
N1878 X12.307 Y-8.25 Z0.8
N1879 X11.498 Y-9.319 Z0.8
N1880 X11.157 Y-10.387 Z0.8
N1881 X11.511 Y-11.455 Z0.8
N1882 X13.145 Y-12.523 Z0.8
N1883 X13.954 Y-13.591 Z0.8
N1884 X14.294 Y-14.659 Z0.8
N1885 X13.94 Y-15.727 Z0.8
N1886 X12.307 Y-16.796 Z0.8
N1887 X11.498 Y-17.864 Z0.8
N1888 X11.157 Y-18.932 Z0.8
N1889 X11.219 Y-19.12 Z0.8
N1890 X8.322 Y-19.12 Z0.8
N1891 X8.034 Y-18.932 Z0.8
N1892 X7.225 Y-17.864 Z0.8
N1893 X6.884 Y-16.796 Z0.8
N1894 X7.239 Y-15.727 Z0.8
N1895 X8.872 Y-14.659 Z0.8
N1896 X9.681 Y-13.591 Z0.8
N1897 X10.022 Y-12.523 Z0.8
N1898 X9.668 Y-11.455 Z0.8
N1899 X8.034 Y-10.387 Z0.8
N1900 X7.225 Y-9.319 Z0.8
N1901 X6.884 Y-8.25 Z0.8
N1902 X7.239 Y-7.182 Z0.8
N1903 X8.872 Y-6.114 Z0.8
N1904 X9.681 Y-5.046 Z0.8
N1905 X10.022 Y-3.978 Z0.8
N1906 X9.668 Y-2.91 Z0.8
N1907 X8.034 Y-1.842 Z0.8
N1908 X7.225 Y-0.773 Z0.8
N1909 X6.884 Y0.295 Z0.8
N1910 X7.239 Y1.363 Z0.8
N1911 X8.872 Y2.431 Z0.8
N1912 X9.681 Y3.499 Z0.8
N1913 X10.022 Y4.567 Z0.8
N1914 X9.668 Y5.635 Z0.8
N1915 X8.034 Y6.704 Z0.8
N1916 X7.225 Y7.772 Z0.8
N1917 X6.884 Y8.84 Z0.8
N1918 X7.239 Y9.908 Z0.8
N1919 X8.872 Y10.976 Z0.8
N1920 X9.681 Y12.044 Z0.8
N1921 X10.022 Y13.112 Z0.8
N1922 X9.668 Y14.181 Z0.8
N1923 X8.034 Y15.249 Z0.8
N1924 X7.225 Y16.317 Z0.8
N1925 X6.884 Y17.385 Z0.8
N1926 X7.239 Y18.453 Z0.8
N1927 X8.259 Y19.12 Z0.8
N1928 X5.616 Y19.12 Z0.8
N1929 X5.395 Y18.453 Z0.8
N1930 X3.761 Y17.385 Z0.8
N1931 X2.953 Y16.317 Z0.8
N1932 X2.612 Y15.249 Z0.8
N1933 X2.966 Y14.181 Z0.8
N1934 X4.6 Y13.112 Z0.8
N1935 X5.408 Y12.044 Z0.8
N1936 X5.749 Y10.976 Z0.8
N1937 X5.395 Y9.908 Z0.8
N1938 X3.761 Y8.84 Z0.8
N1939 X2.953 Y7.772 Z0.8
N1940 X2.612 Y6.704 Z0.8
N1941 X2.966 Y5.635 Z0.8
N1942 X4.6 Y4.567 Z0.8
N1943 X5.408 Y3.499 Z0.8
N1944 X5.749 Y2.431 Z0.8
N1945 X5.395 Y1.363 Z0.8
N1946 X3.761 Y0.295 Z0.8
N1947 X2.953 Y-0.773 Z0.8
N1948 X2.612 Y-1.842 Z0.8
N1949 X2.966 Y-2.91 Z0.8
N1950 X4.6 Y-3.978 Z0.8
N1951 X5.408 Y-5.046 Z0.8
N1952 X5.749 Y-6.114 Z0.8
N1953 X5.395 Y-7.182 Z0.8
N1954 X3.761 Y-8.25 Z0.8
N1955 X2.953 Y-9.319 Z0.8
N1956 X2.612 Y-10.387 Z0.8
N1957 X2.966 Y-11.455 Z0.8
N1958 X4.6 Y-12.523 Z0.8
N1959 X5.408 Y-13.591 Z0.8
N1960 X5.749 Y-14.659 Z0.8
N1961 X5.395 Y-15.727 Z0.8
N1962 X3.761 Y-16.796 Z0.8
N1963 X2.953 Y-17.864 Z0.8
N1964 X2.612 Y-18.932 Z0.8
N1965 X2.674 Y-19.12 Z0.8
N1966 X-0.223 Y-19.12 Z0.8
N1967 X-0.511 Y-18.932 Z0.8
N1968 X-1.32 Y-17.864 Z0.8
N1969 X-1.661 Y-16.796 Z0.8
N1970 X-1.306 Y-15.727 Z0.8
N1971 X0.327 Y-14.659 Z0.8
N1972 X1.136 Y-13.591 Z0.8
N1973 X1.477 Y-12.523 Z0.8
N1974 X1.122 Y-11.455 Z0.8
N1975 X-0.511 Y-10.387 Z0.8
N1976 X-1.32 Y-9.319 Z0.8
N1977 X-1.661 Y-8.25 Z0.8
N1978 X-1.306 Y-7.182 Z0.8
N1979 X0.327 Y-6.114 Z0.8
N1980 X1.136 Y-5.046 Z0.8
N1981 X1.477 Y-3.978 Z0.8
N1982 X1.122 Y-2.91 Z0.8
N1983 X-0.511 Y-1.842 Z0.8
N1984 X-1.32 Y-0.773 Z0.8
N1985 X-1.661 Y0.295 Z0.8
N1986 X-1.306 Y1.363 Z0.8
N1987 X0.327 Y2.431 Z0.8
N1988 X1.136 Y3.499 Z0.8
N1989 X1.477 Y4.567 Z0.8
N1990 X1.122 Y5.635 Z0.8
N1991 X-0.511 Y6.704 Z0.8
N1992 X-1.32 Y7.772 Z0.8
N1993 X-1.661 Y8.84 Z0.8
N1994 X-1.306 Y9.908 Z0.8
N1995 X0.327 Y10.976 Z0.8
N1996 X1.136 Y12.044 Z0.8
N1997 X1.477 Y13.112 Z0.8
N1998 X1.122 Y14.181 Z0.8
N1999 X-0.511 Y15.249 Z0.8
N2000 X-1.32 Y16.317 Z0.8
N2001 X-1.661 Y17.385 Z0.8
N2002 X-1.306 Y18.453 Z0.8
N2003 X-0.287 Y19.12 Z0.8
N2004 X-2.929 Y19.12 Z0.8
N2005 X-3.15 Y18.453 Z0.8
N2006 X-4.784 Y17.385 Z0.8
N2007 X-5.592 Y16.317 Z0.8
N2008 X-5.933 Y15.249 Z0.8
N2009 X-5.579 Y14.181 Z0.8
N2010 X-3.946 Y13.112 Z0.8
N2011 X-3.137 Y12.044 Z0.8
N2012 X-2.796 Y10.976 Z0.8
N2013 X-3.15 Y9.908 Z0.8
N2014 X-4.784 Y8.84 Z0.8
N2015 X-5.592 Y7.772 Z0.8
N2016 X-5.933 Y6.704 Z0.8
N2017 X-5.579 Y5.635 Z0.8
N2018 X-3.946 Y4.567 Z0.8
N2019 X-3.137 Y3.499 Z0.8
N2020 X-2.796 Y2.431 Z0.8
N2021 X-3.15 Y1.363 Z0.8
N2022 X-4.784 Y0.295 Z0.8
N2023 X-5.592 Y-0.773 Z0.8
N2024 X-5.933 Y-1.842 Z0.8
N2025 X-5.579 Y-2.91 Z0.8
N2026 X-3.946 Y-3.978 Z0.8
N2027 X-3.137 Y-5.046 Z0.8
N2028 X-2.796 Y-6.114 Z0.8
N2029 X-3.15 Y-7.182 Z0.8
N2030 X-4.784 Y-8.25 Z0.8
N2031 X-5.592 Y-9.319 Z0.8
N2032 X-5.933 Y-10.387 Z0.8
N2033 X-5.579 Y-11.455 Z0.8
N2034 X-3.946 Y-12.523 Z0.8
N2035 X-3.137 Y-13.591 Z0.8
N2036 X-2.796 Y-14.659 Z0.8
N2037 X-3.15 Y-15.727 Z0.8
N2038 X-4.784 Y-16.796 Z0.8
N2039 X-5.592 Y-17.864 Z0.8
N2040 X-5.933 Y-18.932 Z0.8
N2041 X-5.871 Y-19.12 Z0.8
N2042 X-8.769 Y-19.12 Z0.8
N2043 X-9.056 Y-18.932 Z0.8
N2044 X-9.865 Y-17.864 Z0.8
N2045 X-10.206 Y-16.796 Z0.8
N2046 X-9.852 Y-15.727 Z0.8
N2047 X-8.218 Y-14.659 Z0.8
N2048 X-7.409 Y-13.591 Z0.8
N2049 X-7.069 Y-12.523 Z0.8
N2050 X-7.423 Y-11.455 Z0.8
N2051 X-9.056 Y-10.387 Z0.8
N2052 X-9.865 Y-9.319 Z0.8
N2053 X-10.206 Y-8.25 Z0.8
N2054 X-9.852 Y-7.182 Z0.8
N2055 X-8.218 Y-6.114 Z0.8
N2056 X-7.409 Y-5.046 Z0.8
N2057 X-7.069 Y-3.978 Z0.8
N2058 X-7.423 Y-2.91 Z0.8
N2059 X-9.056 Y-1.842 Z0.8
N2060 X-9.865 Y-0.773 Z0.8
N2061 X-10.206 Y0.295 Z0.8
N2062 X-9.852 Y1.363 Z0.8
N2063 X-8.218 Y2.431 Z0.8
N2064 X-7.409 Y3.499 Z0.8
N2065 X-7.069 Y4.567 Z0.8
N2066 X-7.423 Y5.635 Z0.8
N2067 X-9.056 Y6.704 Z0.8
N2068 X-9.865 Y7.772 Z0.8
N2069 X-10.206 Y8.84 Z0.8
N2070 X-9.852 Y9.908 Z0.8
N2071 X-8.218 Y10.976 Z0.8
N2072 X-7.409 Y12.044 Z0.8
N2073 X-7.069 Y13.112 Z0.8
N2074 X-7.423 Y14.181 Z0.8
N2075 X-9.056 Y15.249 Z0.8
N2076 X-9.865 Y16.317 Z0.8
N2077 X-10.206 Y17.385 Z0.8
N2078 X-9.852 Y18.453 Z0.8
N2079 X-8.832 Y19.12 Z0.8
N2080 X-11.474 Y19.12 Z0.8
N2081 X-11.695 Y18.453 Z0.8
N2082 X-13.329 Y17.385 Z0.8
N2083 X-14.138 Y16.317 Z0.8
N2084 X-14.478 Y15.249 Z0.8
N2085 X-14.124 Y14.181 Z0.8
N2086 X-12.491 Y13.112 Z0.8
N2087 X-11.682 Y12.044 Z0.8
N2088 X-11.341 Y10.976 Z0.8
N2089 X-11.695 Y9.908 Z0.8
N2090 X-13.329 Y8.84 Z0.8
N2091 X-14.138 Y7.772 Z0.8
N2092 X-14.478 Y6.704 Z0.8
N2093 X-14.124 Y5.635 Z0.8
N2094 X-12.491 Y4.567 Z0.8
N2095 X-11.682 Y3.499 Z0.8
N2096 X-11.341 Y2.431 Z0.8
N2097 X-11.695 Y1.363 Z0.8
N2098 X-13.329 Y0.295 Z0.8
N2099 X-14.138 Y-0.773 Z0.8
N2100 X-14.478 Y-1.842 Z0.8
N2101 X-14.124 Y-2.91 Z0.8
N2102 X-12.491 Y-3.978 Z0.8
N2103 X-11.682 Y-5.046 Z0.8
N2104 X-11.341 Y-6.114 Z0.8
N2105 X-11.695 Y-7.182 Z0.8
N2106 X-13.329 Y-8.25 Z0.8
N2107 X-14.138 Y-9.319 Z0.8
N2108 X-14.478 Y-10.387 Z0.8
N2109 X-14.124 Y-11.455 Z0.8
N2110 X-12.491 Y-12.523 Z0.8
N2111 X-11.682 Y-13.591 Z0.8
N2112 X-11.341 Y-14.659 Z0.8
N2113 X-11.695 Y-15.727 Z0.8
N2114 X-13.329 Y-16.796 Z0.8
N2115 X-14.138 Y-17.864 Z0.8
N2116 X-14.478 Y-18.932 Z0.8
N2117 X-14.416 Y-19.12 Z0.8
N2118 X-17.314 Y-19.12 Z0.8
N2119 X-17.601 Y-18.932 Z0.8
N2120 X-18.41 Y-17.864 Z0.8
N2121 X-18.751 Y-16.796 Z0.8
N2122 X-18.397 Y-15.727 Z0.8
N2123 X-16.763 Y-14.659 Z0.8
N2124 X-15.954 Y-13.591 Z0.8
N2125 X-15.614 Y-12.523 Z0.8
N2126 X-15.968 Y-11.455 Z0.8
N2127 X-17.601 Y-10.387 Z0.8
N2128 X-18.41 Y-9.319 Z0.8
N2129 X-18.751 Y-8.25 Z0.8
N2130 X-18.397 Y-7.182 Z0.8
N2131 X-16.763 Y-6.114 Z0.8
N2132 X-15.954 Y-5.046 Z0.8
N2133 X-15.614 Y-3.978 Z0.8
N2134 X-15.968 Y-2.91 Z0.8
N2135 X-17.601 Y-1.842 Z0.8
N2136 X-18.41 Y-0.773 Z0.8
N2137 X-18.751 Y0.295 Z0.8
N2138 X-18.397 Y1.363 Z0.8
N2139 X-16.763 Y2.431 Z0.8
N2140 X-15.954 Y3.499 Z0.8
N2141 X-15.614 Y4.567 Z0.8
N2142 X-15.968 Y5.635 Z0.8
N2143 X-17.601 Y6.704 Z0.8
N2144 X-18.41 Y7.772 Z0.8
N2145 X-18.751 Y8.84 Z0.8
N2146 X-18.397 Y9.908 Z0.8
N2147 X-16.763 Y10.976 Z0.8
N2148 X-15.954 Y12.044 Z0.8
N2149 X-15.614 Y13.112 Z0.8
N2150 X-15.968 Y14.181 Z0.8
N2151 X-17.601 Y15.249 Z0.8
N2152 X-18.41 Y16.317 Z0.8
N2153 X-18.751 Y17.385 Z0.8
N2154 X-18.397 Y18.453 Z0.8
N2155 X-17.377 Y19.12 Z0.8
N2156 X-20.019 Y19.12 Z0.8
N2157 X-20.24 Y18.453 Z0.8
N2158 X-21.874 Y17.385 Z0.8
N2159 X-22.683 Y16.317 Z0.8
N2160 X-23.023 Y15.249 Z0.8
N2161 X-22.669 Y14.181 Z0.8
N2162 X-21.036 Y13.112 Z0.8
N2163 X-20.227 Y12.044 Z0.8
N2164 X-19.886 Y10.976 Z0.8
N2165 X-20.24 Y9.908 Z0.8
N2166 X-21.874 Y8.84 Z0.8
N2167 X-22.683 Y7.772 Z0.8
N2168 X-23.023 Y6.704 Z0.8
N2169 X-22.669 Y5.635 Z0.8
N2170 X-21.036 Y4.567 Z0.8
N2171 X-20.227 Y3.499 Z0.8
N2172 X-19.886 Y2.431 Z0.8
N2173 X-20.24 Y1.363 Z0.8
N2174 X-21.874 Y0.295 Z0.8
N2175 X-22.683 Y-0.773 Z0.8
N2176 X-23.023 Y-1.842 Z0.8
N2177 X-22.669 Y-2.91 Z0.8
N2178 X-21.036 Y-3.978 Z0.8
N2179 X-20.227 Y-5.046 Z0.8
N2180 X-19.886 Y-6.114 Z0.8
N2181 X-20.24 Y-7.182 Z0.8
N2182 X-21.874 Y-8.25 Z0.8
N2183 X-22.683 Y-9.319 Z0.8
N2184 X-23.023 Y-10.387 Z0.8
N2185 X-22.669 Y-11.455 Z0.8
N2186 X-21.036 Y-12.523 Z0.8
N2187 X-20.227 Y-13.591 Z0.8
N2188 X-19.886 Y-14.659 Z0.8
N2189 X-20.24 Y-15.727 Z0.8
N2190 X-21.874 Y-16.796 Z0.8
N2191 X-22.683 Y-17.864 Z0.8
N2192 X-23.023 Y-18.932 Z0.8
N2193 X-22.961 Y-19.12 Z0.8
N2194 X-25.859 Y-19.12 Z0.8
N2195 X-26.147 Y-18.932 Z0.8
N2196 X-26.955 Y-17.864 Z0.8
N2197 X-27.296 Y-16.796 Z0.8
N2198 X-26.942 Y-15.727 Z0.8
N2199 X-25.308 Y-14.659 Z0.8
N2200 X-24.5 Y-13.591 Z0.8
N2201 X-24.159 Y-12.523 Z0.8
N2202 X-24.513 Y-11.455 Z0.8
N2203 X-26.147 Y-10.387 Z0.8
N2204 X-26.955 Y-9.319 Z0.8
N2205 X-27.296 Y-8.25 Z0.8
N2206 X-26.942 Y-7.182 Z0.8
N2207 X-25.308 Y-6.114 Z0.8
N2208 X-24.5 Y-5.046 Z0.8
N2209 X-24.159 Y-3.978 Z0.8
N2210 X-24.513 Y-2.91 Z0.8
N2211 X-26.147 Y-1.842 Z0.8
N2212 X-26.955 Y-0.773 Z0.8
N2213 X-27.296 Y0.295 Z0.8
N2214 X-26.942 Y1.363 Z0.8
N2215 X-25.308 Y2.431 Z0.8
N2216 X-24.5 Y3.499 Z0.8
N2217 X-24.159 Y4.567 Z0.8
N2218 X-24.513 Y5.635 Z0.8
N2219 X-26.147 Y6.704 Z0.8
N2220 X-26.955 Y7.772 Z0.8
N2221 X-27.296 Y8.84 Z0.8
N2222 X-26.942 Y9.908 Z0.8
N2223 X-25.308 Y10.976 Z0.8
N2224 X-24.5 Y12.044 Z0.8
N2225 X-24.159 Y13.112 Z0.8
N2226 X-24.513 Y14.181 Z0.8
N2227 X-26.147 Y15.249 Z0.8
N2228 X-26.955 Y16.317 Z0.8
N2229 X-27.296 Y17.385 Z0.8
N2230 X-26.942 Y18.453 Z0.8
N2231 X-25.922 Y19.12 Z0.8
N2232 X-28.564 Y19.12 Z0.8
N2233 X-28.786 Y18.453 Z0.8
N2234 X-29.12 Y18.234 Z0.8
N2235 X-29.12 Y12.504 Z0.8
N2236 X-28.772 Y12.044 Z0.8
N2237 X-28.431 Y10.976 Z0.8
N2238 X-28.786 Y9.908 Z0.8
N2239 X-29.12 Y9.689 Z0.8
N2240 X-29.12 Y3.959 Z0.8
N2241 X-28.772 Y3.499 Z0.8
N2242 X-28.431 Y2.431 Z0.8
N2243 X-28.786 Y1.363 Z0.8
N2244 X-29.12 Y1.144 Z0.8
N2245 X-29.12 Y-4.587 Z0.8
N2246 X-28.772 Y-5.046 Z0.8
N2247 X-28.431 Y-6.114 Z0.8
N2248 X-28.786 Y-7.182 Z0.8
N2249 X-29.12 Y-7.401 Z0.8
N2250 X-29.12 Y-13.132 Z0.8
N2251 X-28.772 Y-13.591 Z0.8
N2252 X-28.431 Y-14.659 Z0.8
N2253 X-28.786 Y-15.727 Z0.8
N2254 X-29.12 Y-15.946 Z0.8
N2255 X-29.12 Y-15.946 Z0.8 F1800
N2256 G00 X-28.786 Y-15.727 Z0.8 F1000
N2257 X-28.66 Y-15.347 Z0.8
N2258 X-28.786 Y-15.727 Z0.8
N2259 X-29.12 Y-15.946 Z0.8
(rapid-leaky)
N2260 X29.8 Y-19.8 Z0.95
N2261 G01 X29.8 Y-19.8 Z0.95 F1800
(bead-perimeter_outer)
N2262 X29.8 Y19.8 Z0.95
N2263 X-29.8 Y19.8 Z0.95
N2264 X-29.8 Y-19.8 Z0.95
N2265 X29.8 Y-19.8 Z0.95
N2266 X29.8 Y-19.8 Z0.95
N2267 G00 X29.8 Y-19. Z0.95 F1000
N2268 X29.8 Y-19.8 Z0.95
(rapid-leaky)
N2269 X29.44 Y-19.44 Z0.95
N2270 G01 X29.44 Y-19.44 Z0.95 F1800
(bead-perimeter_inner)
N2271 X29.44 Y19.44 Z0.95 F2400
N2272 X-29.44 Y19.44 Z0.95
N2273 X-29.44 Y-19.44 Z0.95
N2274 X29.44 Y-19.44 Z0.95
N2275 X29.44 Y-19.44 Z0.95 F1800
N2276 G00 X29.44 Y-18.64 Z0.95 F1000
N2277 X29.44 Y-19.44 Z0.95
(rapid-leaky)
N2278 X29.12 Y17.001 Z0.95
N2279 G01 X29.12 Y17.001 Z0.95 F1800
(bead-sparse_infill)
N2280 X28.525 Y16.317 Z0.95 F3600
N2281 X28.06 Y15.249 Z0.95
N2282 X27.992 Y14.181 Z0.95
N2283 X29.12 Y13.63 Z0.95
N2284 X29.12 Y8.456 Z0.95
N2285 X28.525 Y7.772 Z0.95
N2286 X28.06 Y6.704 Z0.95
N2287 X27.992 Y5.635 Z0.95
N2288 X29.12 Y5.084 Z0.95
N2289 X29.12 Y-0.089 Z0.95
N2290 X28.525 Y-0.773 Z0.95
N2291 X28.06 Y-1.842 Z0.95
N2292 X27.992 Y-2.91 Z0.95
N2293 X29.12 Y-3.461 Z0.95
N2294 X29.12 Y-8.634 Z0.95
N2295 X28.525 Y-9.319 Z0.95
N2296 X28.06 Y-10.387 Z0.95
N2297 X27.992 Y-11.455 Z0.95
N2298 X29.12 Y-12.006 Z0.95
N2299 X29.12 Y-17.179 Z0.95
N2300 X28.525 Y-17.864 Z0.95
N2301 X28.06 Y-18.932 Z0.95
N2302 X28.048 Y-19.12 Z0.95
N2303 X25.566 Y-19.12 Z0.95
N2304 X25.181 Y-18.932 Z0.95
N2305 X24.253 Y-17.864 Z0.95
N2306 X23.788 Y-16.796 Z0.95
N2307 X23.72 Y-15.727 Z0.95
N2308 X25.906 Y-14.659 Z0.95
N2309 X26.834 Y-13.591 Z0.95
N2310 X27.299 Y-12.523 Z0.95
N2311 X27.367 Y-11.455 Z0.95
N2312 X25.181 Y-10.387 Z0.95
N2313 X24.253 Y-9.319 Z0.95
N2314 X23.788 Y-8.25 Z0.95
N2315 X23.72 Y-7.182 Z0.95
N2316 X25.906 Y-6.114 Z0.95
N2317 X26.834 Y-5.046 Z0.95
N2318 X27.299 Y-3.978 Z0.95
N2319 X27.367 Y-2.91 Z0.95
N2320 X25.181 Y-1.842 Z0.95
N2321 X24.253 Y-0.773 Z0.95
N2322 X23.788 Y0.295 Z0.95
N2323 X23.72 Y1.363 Z0.95
N2324 X25.906 Y2.431 Z0.95
N2325 X26.834 Y3.499 Z0.95
N2326 X27.299 Y4.567 Z0.95
N2327 X27.367 Y5.635 Z0.95
N2328 X25.181 Y6.704 Z0.95
N2329 X24.253 Y7.772 Z0.95
N2330 X23.788 Y8.84 Z0.95
N2331 X23.72 Y9.908 Z0.95
N2332 X25.906 Y10.976 Z0.95
N2333 X26.834 Y12.044 Z0.95
N2334 X27.299 Y13.112 Z0.95
N2335 X27.367 Y14.181 Z0.95
N2336 X25.181 Y15.249 Z0.95
N2337 X24.253 Y16.317 Z0.95
N2338 X23.788 Y17.385 Z0.95
N2339 X23.72 Y18.453 Z0.95
N2340 X25.085 Y19.12 Z0.95
N2341 X23.052 Y19.12 Z0.95
N2342 X23.094 Y18.453 Z0.95
N2343 X20.908 Y17.385 Z0.95
N2344 X19.98 Y16.317 Z0.95
N2345 X19.515 Y15.249 Z0.95
N2346 X19.447 Y14.181 Z0.95
N2347 X21.633 Y13.112 Z0.95
N2348 X22.562 Y12.044 Z0.95
N2349 X23.026 Y10.976 Z0.95
N2350 X23.094 Y9.908 Z0.95
N2351 X20.908 Y8.84 Z0.95
N2352 X19.98 Y7.772 Z0.95
N2353 X19.515 Y6.704 Z0.95
N2354 X19.447 Y5.635 Z0.95
N2355 X21.633 Y4.567 Z0.95
N2356 X22.562 Y3.499 Z0.95
N2357 X23.026 Y2.431 Z0.95
N2358 X23.094 Y1.363 Z0.95
N2359 X20.908 Y0.295 Z0.95
N2360 X19.98 Y-0.773 Z0.95
N2361 X19.515 Y-1.842 Z0.95
N2362 X19.447 Y-2.91 Z0.95
N2363 X21.633 Y-3.978 Z0.95
N2364 X22.562 Y-5.046 Z0.95
N2365 X23.026 Y-6.114 Z0.95
N2366 X23.094 Y-7.182 Z0.95
N2367 X20.908 Y-8.25 Z0.95
N2368 X19.98 Y-9.319 Z0.95
N2369 X19.515 Y-10.387 Z0.95
N2370 X19.447 Y-11.455 Z0.95
N2371 X21.633 Y-12.523 Z0.95
N2372 X22.562 Y-13.591 Z0.95
N2373 X23.026 Y-14.659 Z0.95
N2374 X23.094 Y-15.727 Z0.95
N2375 X20.908 Y-16.796 Z0.95
N2376 X19.98 Y-17.864 Z0.95
N2377 X19.515 Y-18.932 Z0.95
N2378 X19.503 Y-19.12 Z0.95
N2379 X17.021 Y-19.12 Z0.95
N2380 X16.636 Y-18.932 Z0.95
N2381 X15.707 Y-17.864 Z0.95
N2382 X15.243 Y-16.796 Z0.95
N2383 X15.175 Y-15.727 Z0.95
N2384 X17.361 Y-14.659 Z0.95
N2385 X18.289 Y-13.591 Z0.95
N2386 X18.754 Y-12.523 Z0.95
N2387 X18.822 Y-11.455 Z0.95
N2388 X16.636 Y-10.387 Z0.95
N2389 X15.707 Y-9.319 Z0.95
N2390 X15.243 Y-8.25 Z0.95
N2391 X15.175 Y-7.182 Z0.95
N2392 X17.361 Y-6.114 Z0.95
N2393 X18.289 Y-5.046 Z0.95
N2394 X18.754 Y-3.978 Z0.95
N2395 X18.822 Y-2.91 Z0.95
N2396 X16.636 Y-1.842 Z0.95
N2397 X15.707 Y-0.773 Z0.95
N2398 X15.243 Y0.295 Z0.95
N2399 X15.175 Y1.363 Z0.95
N2400 X17.361 Y2.431 Z0.95
N2401 X18.289 Y3.499 Z0.95
N2402 X18.754 Y4.567 Z0.95
N2403 X18.822 Y5.635 Z0.95
N2404 X16.636 Y6.704 Z0.95
N2405 X15.707 Y7.772 Z0.95
N2406 X15.243 Y8.84 Z0.95
N2407 X15.175 Y9.908 Z0.95
N2408 X17.361 Y10.976 Z0.95
N2409 X18.289 Y12.044 Z0.95
N2410 X18.754 Y13.112 Z0.95
N2411 X18.822 Y14.181 Z0.95
N2412 X16.636 Y15.249 Z0.95
N2413 X15.707 Y16.317 Z0.95
N2414 X15.243 Y17.385 Z0.95
N2415 X15.175 Y18.453 Z0.95
N2416 X16.54 Y19.12 Z0.95
N2417 X14.507 Y19.12 Z0.95
N2418 X14.549 Y18.453 Z0.95
N2419 X12.363 Y17.385 Z0.95
N2420 X11.435 Y16.317 Z0.95
N2421 X10.97 Y15.249 Z0.95
N2422 X10.902 Y14.181 Z0.95
N2423 X13.088 Y13.112 Z0.95
N2424 X14.016 Y12.044 Z0.95
N2425 X14.481 Y10.976 Z0.95
N2426 X14.549 Y9.908 Z0.95
N2427 X12.363 Y8.84 Z0.95
N2428 X11.435 Y7.772 Z0.95
N2429 X10.97 Y6.704 Z0.95
N2430 X10.902 Y5.635 Z0.95
N2431 X13.088 Y4.567 Z0.95
N2432 X14.016 Y3.499 Z0.95
N2433 X14.481 Y2.431 Z0.95
N2434 X14.549 Y1.363 Z0.95
N2435 X12.363 Y0.295 Z0.95
N2436 X11.435 Y-0.773 Z0.95
N2437 X10.97 Y-1.842 Z0.95
N2438 X10.902 Y-2.91 Z0.95
N2439 X13.088 Y-3.978 Z0.95
N2440 X14.016 Y-5.046 Z0.95
N2441 X14.481 Y-6.114 Z0.95
N2442 X14.549 Y-7.182 Z0.95
N2443 X12.363 Y-8.25 Z0.95
N2444 X11.435 Y-9.319 Z0.95
N2445 X10.97 Y-10.387 Z0.95
N2446 X10.902 Y-11.455 Z0.95
N2447 X13.088 Y-12.523 Z0.95
N2448 X14.016 Y-13.591 Z0.95
N2449 X14.481 Y-14.659 Z0.95
N2450 X14.549 Y-15.727 Z0.95
N2451 X12.363 Y-16.796 Z0.95
N2452 X11.435 Y-17.864 Z0.95
N2453 X10.97 Y-18.932 Z0.95
N2454 X10.958 Y-19.12 Z0.95
N2455 X8.475 Y-19.12 Z0.95
N2456 X8.09 Y-18.932 Z0.95
N2457 X7.162 Y-17.864 Z0.95
N2458 X6.697 Y-16.796 Z0.95
N2459 X6.63 Y-15.727 Z0.95
N2460 X8.816 Y-14.659 Z0.95
N2461 X9.744 Y-13.591 Z0.95
N2462 X10.209 Y-12.523 Z0.95
N2463 X10.277 Y-11.455 Z0.95
N2464 X8.09 Y-10.387 Z0.95
N2465 X7.162 Y-9.319 Z0.95
N2466 X6.697 Y-8.25 Z0.95
N2467 X6.63 Y-7.182 Z0.95
N2468 X8.816 Y-6.114 Z0.95
N2469 X9.744 Y-5.046 Z0.95
N2470 X10.209 Y-3.978 Z0.95
N2471 X10.277 Y-2.91 Z0.95
N2472 X8.09 Y-1.842 Z0.95
N2473 X7.162 Y-0.773 Z0.95
N2474 X6.697 Y0.295 Z0.95
N2475 X6.63 Y1.363 Z0.95
N2476 X8.816 Y2.431 Z0.95
N2477 X9.744 Y3.499 Z0.95
N2478 X10.209 Y4.567 Z0.95
N2479 X10.277 Y5.635 Z0.95
N2480 X8.09 Y6.704 Z0.95
N2481 X7.162 Y7.772 Z0.95
N2482 X6.697 Y8.84 Z0.95
N2483 X6.63 Y9.908 Z0.95
N2484 X8.816 Y10.976 Z0.95
N2485 X9.744 Y12.044 Z0.95
N2486 X10.209 Y13.112 Z0.95
N2487 X10.277 Y14.181 Z0.95
N2488 X8.09 Y15.249 Z0.95
N2489 X7.162 Y16.317 Z0.95
N2490 X6.697 Y17.385 Z0.95
N2491 X6.63 Y18.453 Z0.95
N2492 X7.995 Y19.12 Z0.95
N2493 X5.962 Y19.12 Z0.95
N2494 X6.004 Y18.453 Z0.95
N2495 X3.818 Y17.385 Z0.95
N2496 X2.89 Y16.317 Z0.95
N2497 X2.425 Y15.249 Z0.95
N2498 X2.357 Y14.181 Z0.95
N2499 X4.543 Y13.112 Z0.95
N2500 X5.471 Y12.044 Z0.95
N2501 X5.936 Y10.976 Z0.95
N2502 X6.004 Y9.908 Z0.95
N2503 X3.818 Y8.84 Z0.95
N2504 X2.89 Y7.772 Z0.95
N2505 X2.425 Y6.704 Z0.95
N2506 X2.357 Y5.635 Z0.95
N2507 X4.543 Y4.567 Z0.95
N2508 X5.471 Y3.499 Z0.95
N2509 X5.936 Y2.431 Z0.95
N2510 X6.004 Y1.363 Z0.95
N2511 X3.818 Y0.295 Z0.95
N2512 X2.89 Y-0.773 Z0.95
N2513 X2.425 Y-1.842 Z0.95
N2514 X2.357 Y-2.91 Z0.95
N2515 X4.543 Y-3.978 Z0.95
N2516 X5.471 Y-5.046 Z0.95
N2517 X5.936 Y-6.114 Z0.95
N2518 X6.004 Y-7.182 Z0.95
N2519 X3.818 Y-8.25 Z0.95
N2520 X2.89 Y-9.319 Z0.95
N2521 X2.425 Y-10.387 Z0.95
N2522 X2.357 Y-11.455 Z0.95
N2523 X4.543 Y-12.523 Z0.95
N2524 X5.471 Y-13.591 Z0.95
N2525 X5.936 Y-14.659 Z0.95
N2526 X6.004 Y-15.727 Z0.95
N2527 X3.818 Y-16.796 Z0.95
N2528 X2.89 Y-17.864 Z0.95
N2529 X2.425 Y-18.932 Z0.95
N2530 X2.413 Y-19.12 Z0.95
N2531 X-0.07 Y-19.12 Z0.95
N2532 X-0.455 Y-18.932 Z0.95
N2533 X-1.383 Y-17.864 Z0.95
N2534 X-1.848 Y-16.796 Z0.95
N2535 X-1.916 Y-15.727 Z0.95
N2536 X0.271 Y-14.659 Z0.95
N2537 X1.199 Y-13.591 Z0.95
N2538 X1.664 Y-12.523 Z0.95
N2539 X1.731 Y-11.455 Z0.95
N2540 X-0.455 Y-10.387 Z0.95
N2541 X-1.383 Y-9.319 Z0.95
N2542 X-1.848 Y-8.25 Z0.95
N2543 X-1.916 Y-7.182 Z0.95
N2544 X0.271 Y-6.114 Z0.95
N2545 X1.199 Y-5.046 Z0.95
N2546 X1.664 Y-3.978 Z0.95
N2547 X1.731 Y-2.91 Z0.95
N2548 X-0.455 Y-1.842 Z0.95
N2549 X-1.383 Y-0.773 Z0.95
N2550 X-1.848 Y0.295 Z0.95
N2551 X-1.916 Y1.363 Z0.95
N2552 X0.271 Y2.431 Z0.95
N2553 X1.199 Y3.499 Z0.95
N2554 X1.664 Y4.567 Z0.95
N2555 X1.731 Y5.635 Z0.95
N2556 X-0.455 Y6.704 Z0.95
N2557 X-1.383 Y7.772 Z0.95
N2558 X-1.848 Y8.84 Z0.95
N2559 X-1.916 Y9.908 Z0.95
N2560 X0.271 Y10.976 Z0.95
N2561 X1.199 Y12.044 Z0.95
N2562 X1.664 Y13.112 Z0.95
N2563 X1.731 Y14.181 Z0.95
N2564 X-0.455 Y15.249 Z0.95
N2565 X-1.383 Y16.317 Z0.95
N2566 X-1.848 Y17.385 Z0.95
N2567 X-1.916 Y18.453 Z0.95
N2568 X-0.551 Y19.12 Z0.95
N2569 X-2.583 Y19.12 Z0.95
N2570 X-2.541 Y18.453 Z0.95
N2571 X-4.727 Y17.385 Z0.95
N2572 X-5.655 Y16.317 Z0.95
N2573 X-6.12 Y15.249 Z0.95
N2574 X-6.188 Y14.181 Z0.95
N2575 X-4.002 Y13.112 Z0.95
N2576 X-3.074 Y12.044 Z0.95
N2577 X-2.609 Y10.976 Z0.95
N2578 X-2.541 Y9.908 Z0.95
N2579 X-4.727 Y8.84 Z0.95
N2580 X-5.655 Y7.772 Z0.95
N2581 X-6.12 Y6.704 Z0.95
N2582 X-6.188 Y5.635 Z0.95
N2583 X-4.002 Y4.567 Z0.95
N2584 X-3.074 Y3.499 Z0.95
N2585 X-2.609 Y2.431 Z0.95
N2586 X-2.541 Y1.363 Z0.95
N2587 X-4.727 Y0.295 Z0.95
N2588 X-5.655 Y-0.773 Z0.95
N2589 X-6.12 Y-1.842 Z0.95
N2590 X-6.188 Y-2.91 Z0.95
N2591 X-4.002 Y-3.978 Z0.95
N2592 X-3.074 Y-5.046 Z0.95
N2593 X-2.609 Y-6.114 Z0.95
N2594 X-2.541 Y-7.182 Z0.95
N2595 X-4.727 Y-8.25 Z0.95
N2596 X-5.655 Y-9.319 Z0.95
N2597 X-6.12 Y-10.387 Z0.95
N2598 X-6.188 Y-11.455 Z0.95
N2599 X-4.002 Y-12.523 Z0.95
N2600 X-3.074 Y-13.591 Z0.95
N2601 X-2.609 Y-14.659 Z0.95
N2602 X-2.541 Y-15.727 Z0.95
N2603 X-4.727 Y-16.796 Z0.95
N2604 X-5.655 Y-17.864 Z0.95
N2605 X-6.12 Y-18.932 Z0.95
N2606 X-6.132 Y-19.12 Z0.95
N2607 X-8.615 Y-19.12 Z0.95
N2608 X-9. Y-18.932 Z0.95
N2609 X-9.928 Y-17.864 Z0.95
N2610 X-10.393 Y-16.796 Z0.95
N2611 X-10.461 Y-15.727 Z0.95
N2612 X-8.274 Y-14.659 Z0.95
N2613 X-7.346 Y-13.591 Z0.95
N2614 X-6.881 Y-12.523 Z0.95
N2615 X-6.814 Y-11.455 Z0.95
N2616 X-9. Y-10.387 Z0.95
N2617 X-9.928 Y-9.319 Z0.95
N2618 X-10.393 Y-8.25 Z0.95
N2619 X-10.461 Y-7.182 Z0.95
N2620 X-8.274 Y-6.114 Z0.95
N2621 X-7.346 Y-5.046 Z0.95
N2622 X-6.881 Y-3.978 Z0.95
N2623 X-6.814 Y-2.91 Z0.95
N2624 X-9. Y-1.842 Z0.95
N2625 X-9.928 Y-0.773 Z0.95
N2626 X-10.393 Y0.295 Z0.95
N2627 X-10.461 Y1.363 Z0.95
N2628 X-8.274 Y2.431 Z0.95
N2629 X-7.346 Y3.499 Z0.95
N2630 X-6.881 Y4.567 Z0.95
N2631 X-6.814 Y5.635 Z0.95
N2632 X-9. Y6.704 Z0.95
N2633 X-9.928 Y7.772 Z0.95
N2634 X-10.393 Y8.84 Z0.95
N2635 X-10.461 Y9.908 Z0.95
N2636 X-8.274 Y10.976 Z0.95
N2637 X-7.346 Y12.044 Z0.95
N2638 X-6.881 Y13.112 Z0.95
N2639 X-6.814 Y14.181 Z0.95
N2640 X-9. Y15.249 Z0.95
N2641 X-9.928 Y16.317 Z0.95
N2642 X-10.393 Y17.385 Z0.95
N2643 X-10.461 Y18.453 Z0.95
N2644 X-9.096 Y19.12 Z0.95
N2645 X-11.129 Y19.12 Z0.95
N2646 X-11.086 Y18.453 Z0.95
N2647 X-13.272 Y17.385 Z0.95
N2648 X-14.201 Y16.317 Z0.95
N2649 X-14.665 Y15.249 Z0.95
N2650 X-14.733 Y14.181 Z0.95
N2651 X-12.547 Y13.112 Z0.95
N2652 X-11.619 Y12.044 Z0.95
N2653 X-11.154 Y10.976 Z0.95
N2654 X-11.086 Y9.908 Z0.95
N2655 X-13.272 Y8.84 Z0.95
N2656 X-14.201 Y7.772 Z0.95
N2657 X-14.665 Y6.704 Z0.95
N2658 X-14.733 Y5.635 Z0.95
N2659 X-12.547 Y4.567 Z0.95
N2660 X-11.619 Y3.499 Z0.95
N2661 X-11.154 Y2.431 Z0.95
N2662 X-11.086 Y1.363 Z0.95
N2663 X-13.272 Y0.295 Z0.95
N2664 X-14.201 Y-0.773 Z0.95
N2665 X-14.665 Y-1.842 Z0.95
N2666 X-14.733 Y-2.91 Z0.95
N2667 X-12.547 Y-3.978 Z0.95
N2668 X-11.619 Y-5.046 Z0.95
N2669 X-11.154 Y-6.114 Z0.95
N2670 X-11.086 Y-7.182 Z0.95
N2671 X-13.272 Y-8.25 Z0.95
N2672 X-14.201 Y-9.319 Z0.95
N2673 X-14.665 Y-10.387 Z0.95
N2674 X-14.733 Y-11.455 Z0.95
N2675 X-12.547 Y-12.523 Z0.95
N2676 X-11.619 Y-13.591 Z0.95
N2677 X-11.154 Y-14.659 Z0.95
N2678 X-11.086 Y-15.727 Z0.95
N2679 X-13.272 Y-16.796 Z0.95
N2680 X-14.201 Y-17.864 Z0.95
N2681 X-14.665 Y-18.932 Z0.95
N2682 X-14.677 Y-19.12 Z0.95
N2683 X-17.16 Y-19.12 Z0.95
N2684 X-17.545 Y-18.932 Z0.95
N2685 X-18.473 Y-17.864 Z0.95
N2686 X-18.938 Y-16.796 Z0.95
N2687 X-19.006 Y-15.727 Z0.95
N2688 X-16.82 Y-14.659 Z0.95
N2689 X-15.892 Y-13.591 Z0.95
N2690 X-15.427 Y-12.523 Z0.95
N2691 X-15.359 Y-11.455 Z0.95
N2692 X-17.545 Y-10.387 Z0.95
N2693 X-18.473 Y-9.319 Z0.95
N2694 X-18.938 Y-8.25 Z0.95
N2695 X-19.006 Y-7.182 Z0.95
N2696 X-16.82 Y-6.114 Z0.95
N2697 X-15.892 Y-5.046 Z0.95
N2698 X-15.427 Y-3.978 Z0.95
N2699 X-15.359 Y-2.91 Z0.95
N2700 X-17.545 Y-1.842 Z0.95
N2701 X-18.473 Y-0.773 Z0.95
N2702 X-18.938 Y0.295 Z0.95
N2703 X-19.006 Y1.363 Z0.95
N2704 X-16.82 Y2.431 Z0.95
N2705 X-15.892 Y3.499 Z0.95
N2706 X-15.427 Y4.567 Z0.95
N2707 X-15.359 Y5.635 Z0.95
N2708 X-17.545 Y6.704 Z0.95
N2709 X-18.473 Y7.772 Z0.95
N2710 X-18.938 Y8.84 Z0.95
N2711 X-19.006 Y9.908 Z0.95
N2712 X-16.82 Y10.976 Z0.95
N2713 X-15.892 Y12.044 Z0.95
N2714 X-15.427 Y13.112 Z0.95
N2715 X-15.359 Y14.181 Z0.95
N2716 X-17.545 Y15.249 Z0.95
N2717 X-18.473 Y16.317 Z0.95
N2718 X-18.938 Y17.385 Z0.95
N2719 X-19.006 Y18.453 Z0.95
N2720 X-17.641 Y19.12 Z0.95
N2721 X-19.674 Y19.12 Z0.95
N2722 X-19.631 Y18.453 Z0.95
N2723 X-21.818 Y17.385 Z0.95
N2724 X-22.746 Y16.317 Z0.95
N2725 X-23.211 Y15.249 Z0.95
N2726 X-23.278 Y14.181 Z0.95
N2727 X-21.092 Y13.112 Z0.95
N2728 X-20.164 Y12.044 Z0.95
N2729 X-19.699 Y10.976 Z0.95
N2730 X-19.631 Y9.908 Z0.95
N2731 X-21.818 Y8.84 Z0.95
N2732 X-22.746 Y7.772 Z0.95
N2733 X-23.211 Y6.704 Z0.95
N2734 X-23.278 Y5.635 Z0.95
N2735 X-21.092 Y4.567 Z0.95
N2736 X-20.164 Y3.499 Z0.95
N2737 X-19.699 Y2.431 Z0.95
N2738 X-19.631 Y1.363 Z0.95
N2739 X-21.818 Y0.295 Z0.95
N2740 X-22.746 Y-0.773 Z0.95
N2741 X-23.211 Y-1.842 Z0.95
N2742 X-23.278 Y-2.91 Z0.95
N2743 X-21.092 Y-3.978 Z0.95
N2744 X-20.164 Y-5.046 Z0.95
N2745 X-19.699 Y-6.114 Z0.95
N2746 X-19.631 Y-7.182 Z0.95
N2747 X-21.818 Y-8.25 Z0.95
N2748 X-22.746 Y-9.319 Z0.95
N2749 X-23.211 Y-10.387 Z0.95
N2750 X-23.278 Y-11.455 Z0.95
N2751 X-21.092 Y-12.523 Z0.95
N2752 X-20.164 Y-13.591 Z0.95
N2753 X-19.699 Y-14.659 Z0.95
N2754 X-19.631 Y-15.727 Z0.95
N2755 X-21.818 Y-16.796 Z0.95
N2756 X-22.746 Y-17.864 Z0.95
N2757 X-23.211 Y-18.932 Z0.95
N2758 X-23.222 Y-19.12 Z0.95
N2759 X-25.705 Y-19.12 Z0.95
N2760 X-26.09 Y-18.932 Z0.95
N2761 X-27.018 Y-17.864 Z0.95
N2762 X-27.483 Y-16.796 Z0.95
N2763 X-27.551 Y-15.727 Z0.95
N2764 X-25.365 Y-14.659 Z0.95
N2765 X-24.437 Y-13.591 Z0.95
N2766 X-23.972 Y-12.523 Z0.95
N2767 X-23.904 Y-11.455 Z0.95
N2768 X-26.09 Y-10.387 Z0.95
N2769 X-27.018 Y-9.319 Z0.95
N2770 X-27.483 Y-8.25 Z0.95
N2771 X-27.551 Y-7.182 Z0.95
N2772 X-25.365 Y-6.114 Z0.95
N2773 X-24.437 Y-5.046 Z0.95
N2774 X-23.972 Y-3.978 Z0.95
N2775 X-23.904 Y-2.91 Z0.95
N2776 X-26.09 Y-1.842 Z0.95
N2777 X-27.018 Y-0.773 Z0.95
N2778 X-27.483 Y0.295 Z0.95
N2779 X-27.551 Y1.363 Z0.95
N2780 X-25.365 Y2.431 Z0.95
N2781 X-24.437 Y3.499 Z0.95
N2782 X-23.972 Y4.567 Z0.95
N2783 X-23.904 Y5.635 Z0.95
N2784 X-26.09 Y6.704 Z0.95
N2785 X-27.018 Y7.772 Z0.95
N2786 X-27.483 Y8.84 Z0.95
N2787 X-27.551 Y9.908 Z0.95
N2788 X-25.365 Y10.976 Z0.95
N2789 X-24.437 Y12.044 Z0.95
N2790 X-23.972 Y13.112 Z0.95
N2791 X-23.904 Y14.181 Z0.95
N2792 X-26.09 Y15.249 Z0.95
N2793 X-27.018 Y16.317 Z0.95
N2794 X-27.483 Y17.385 Z0.95
N2795 X-27.551 Y18.453 Z0.95
N2796 X-26.186 Y19.12 Z0.95
N2797 X-28.219 Y19.12 Z0.95
N2798 X-28.176 Y18.453 Z0.95
N2799 X-29.12 Y17.992 Z0.95
N2800 X-29.12 Y12.517 Z0.95
N2801 X-28.709 Y12.044 Z0.95
N2802 X-28.244 Y10.976 Z0.95
N2803 X-28.176 Y9.908 Z0.95
N2804 X-29.12 Y9.447 Z0.95
N2805 X-29.12 Y3.972 Z0.95
N2806 X-28.709 Y3.499 Z0.95
N2807 X-28.244 Y2.431 Z0.95
N2808 X-28.176 Y1.363 Z0.95
N2809 X-29.12 Y0.902 Z0.95
N2810 X-29.12 Y-4.573 Z0.95
N2811 X-28.709 Y-5.046 Z0.95
N2812 X-28.244 Y-6.114 Z0.95
N2813 X-28.176 Y-7.182 Z0.95
N2814 X-29.12 Y-7.643 Z0.95
N2815 X-29.12 Y-13.118 Z0.95
N2816 X-28.709 Y-13.591 Z0.95
N2817 X-28.244 Y-14.659 Z0.95
N2818 X-28.176 Y-15.727 Z0.95
N2819 X-29.12 Y-16.188 Z0.95
N2820 X-29.12 Y-16.188 Z0.95 F1800
N2821 G00 X-28.401 Y-15.837 Z0.95 F1000
N2822 X-29.12 Y-16.188 Z0.95
(rapid-leaky)
N2823 X-29.8 Y19.8 Z1.1
N2824 G01 X-29.8 Y19.8 Z1.1 F1800
(bead-perimeter_outer)
N2825 X-29.8 Y-19.8 Z1.1
N2826 X29.8 Y-19.8 Z1.1
N2827 X29.8 Y19.8 Z1.1
N2828 X-29.8 Y19.8 Z1.1
N2829 X-29.8 Y19.8 Z1.1
N2830 G00 X-29.8 Y19. Z1.1 F1000
N2831 X-29.8 Y19.8 Z1.1
(rapid-leaky)
N2832 X-29.44 Y19.44 Z1.1
N2833 G01 X-29.44 Y19.44 Z1.1 F1800
(bead-perimeter_inner)
N2834 X-29.44 Y-19.44 Z1.1 F2400
N2835 X29.44 Y-19.44 Z1.1
N2836 X29.44 Y19.44 Z1.1
N2837 X-29.44 Y19.44 Z1.1
N2838 X-29.44 Y19.44 Z1.1 F1800
N2839 G00 X-29.44 Y18.64 Z1.1 F1000
N2840 X-29.44 Y19.44 Z1.1
(rapid-leaky)
N2841 X24.886 Y19.12 Z1.1
N2842 G01 X24.886 Y19.12 Z1.1 F1800
(bead-sparse_infill)
N2843 X24.475 Y18.978 Z1.1 F3600
N2844 X23.965 Y19.12 Z1.1
N2845 X16.341 Y19.12 Z1.1
N2846 X15.93 Y18.978 Z1.1
N2847 X15.42 Y19.12 Z1.1
N2848 X7.796 Y19.12 Z1.1
N2849 X7.385 Y18.978 Z1.1
N2850 X6.875 Y19.12 Z1.1
N2851 X-0.75 Y19.12 Z1.1
N2852 X-1.16 Y18.978 Z1.1
N2853 X-1.67 Y19.12 Z1.1
N2854 X-9.295 Y19.12 Z1.1
N2855 X-9.705 Y18.978 Z1.1
N2856 X-10.215 Y19.12 Z1.1
N2857 X-17.84 Y19.12 Z1.1
N2858 X-18.25 Y18.978 Z1.1
N2859 X-18.761 Y19.12 Z1.1
N2860 X-26.385 Y19.12 Z1.1
N2861 X-26.796 Y18.978 Z1.1
N2862 X-27.306 Y19.12 Z1.1
N2863 X-29.12 Y19.12 Z1.1
N2864 X-29.12 Y17.863 Z1.1
N2865 X-28.932 Y17.928 Z1.1
N2866 X-27.864 Y17.631 Z1.1
N2867 X-26.796 Y15.912 Z1.1
N2868 X-25.727 Y15.075 Z1.1
N2869 X-24.659 Y14.705 Z1.1
N2870 X-23.591 Y15.003 Z1.1
N2871 X-22.523 Y16.722 Z1.1
N2872 X-21.455 Y17.559 Z1.1
N2873 X-20.387 Y17.928 Z1.1
N2874 X-19.319 Y17.631 Z1.1
N2875 X-18.25 Y15.912 Z1.1
N2876 X-17.182 Y15.075 Z1.1
N2877 X-16.114 Y14.705 Z1.1
N2878 X-15.046 Y15.003 Z1.1
N2879 X-13.978 Y16.722 Z1.1
N2880 X-12.91 Y17.559 Z1.1
N2881 X-11.842 Y17.928 Z1.1
N2882 X-10.773 Y17.631 Z1.1
N2883 X-9.705 Y15.912 Z1.1
N2884 X-8.637 Y15.075 Z1.1
N2885 X-7.569 Y14.705 Z1.1
N2886 X-6.501 Y15.003 Z1.1
N2887 X-5.433 Y16.722 Z1.1
N2888 X-4.365 Y17.559 Z1.1
N2889 X-3.296 Y17.928 Z1.1
N2890 X-2.228 Y17.631 Z1.1
N2891 X-1.16 Y15.912 Z1.1
N2892 X-0.092 Y15.075 Z1.1
N2893 X0.976 Y14.705 Z1.1
N2894 X2.044 Y15.003 Z1.1
N2895 X3.112 Y16.722 Z1.1
N2896 X4.181 Y17.559 Z1.1
N2897 X5.249 Y17.928 Z1.1
N2898 X6.317 Y17.631 Z1.1
N2899 X7.385 Y15.912 Z1.1
N2900 X8.453 Y15.075 Z1.1
N2901 X9.521 Y14.705 Z1.1
N2902 X10.589 Y15.003 Z1.1
N2903 X11.658 Y16.722 Z1.1
N2904 X12.726 Y17.559 Z1.1
N2905 X13.794 Y17.928 Z1.1
N2906 X14.862 Y17.631 Z1.1
N2907 X15.93 Y15.912 Z1.1
N2908 X16.998 Y15.075 Z1.1
N2909 X18.066 Y14.705 Z1.1
N2910 X19.135 Y15.003 Z1.1
N2911 X20.203 Y16.722 Z1.1
N2912 X21.271 Y17.559 Z1.1
N2913 X22.339 Y17.928 Z1.1
N2914 X23.407 Y17.631 Z1.1
N2915 X24.475 Y15.912 Z1.1
N2916 X25.543 Y15.075 Z1.1
N2917 X26.611 Y14.705 Z1.1
N2918 X27.68 Y15.003 Z1.1
N2919 X28.748 Y16.722 Z1.1
N2920 X29.12 Y17.014 Z1.1
N2921 X29.12 Y13.527 Z1.1
N2922 X28.748 Y13.656 Z1.1
N2923 X27.68 Y13.358 Z1.1
N2924 X26.611 Y11.639 Z1.1
N2925 X25.543 Y10.802 Z1.1
N2926 X24.475 Y10.433 Z1.1
N2927 X23.407 Y10.73 Z1.1
N2928 X22.339 Y12.449 Z1.1
N2929 X21.271 Y13.286 Z1.1
N2930 X20.203 Y13.656 Z1.1
N2931 X19.135 Y13.358 Z1.1
N2932 X18.066 Y11.639 Z1.1
N2933 X16.998 Y10.802 Z1.1
N2934 X15.93 Y10.433 Z1.1
N2935 X14.862 Y10.73 Z1.1
N2936 X13.794 Y12.449 Z1.1
N2937 X12.726 Y13.286 Z1.1
N2938 X11.658 Y13.656 Z1.1
N2939 X10.589 Y13.358 Z1.1
N2940 X9.521 Y11.639 Z1.1
N2941 X8.453 Y10.802 Z1.1
N2942 X7.385 Y10.433 Z1.1
N2943 X6.317 Y10.73 Z1.1
N2944 X5.249 Y12.449 Z1.1
N2945 X4.181 Y13.286 Z1.1
N2946 X3.112 Y13.656 Z1.1
N2947 X2.044 Y13.358 Z1.1
N2948 X0.976 Y11.639 Z1.1
N2949 X-0.092 Y10.802 Z1.1
N2950 X-1.16 Y10.433 Z1.1
N2951 X-2.228 Y10.73 Z1.1
N2952 X-3.296 Y12.449 Z1.1
N2953 X-4.365 Y13.286 Z1.1
N2954 X-5.433 Y13.656 Z1.1
N2955 X-6.501 Y13.358 Z1.1
N2956 X-7.569 Y11.639 Z1.1
N2957 X-8.637 Y10.802 Z1.1
N2958 X-9.705 Y10.433 Z1.1
N2959 X-10.773 Y10.73 Z1.1
N2960 X-11.842 Y12.449 Z1.1
N2961 X-12.91 Y13.286 Z1.1
N2962 X-13.978 Y13.656 Z1.1
N2963 X-15.046 Y13.358 Z1.1
N2964 X-16.114 Y11.639 Z1.1
N2965 X-17.182 Y10.802 Z1.1
N2966 X-18.25 Y10.433 Z1.1
N2967 X-19.319 Y10.73 Z1.1
N2968 X-20.387 Y12.449 Z1.1
N2969 X-21.455 Y13.286 Z1.1
N2970 X-22.523 Y13.656 Z1.1
N2971 X-23.591 Y13.358 Z1.1
N2972 X-24.659 Y11.639 Z1.1
N2973 X-25.727 Y10.802 Z1.1
N2974 X-26.796 Y10.433 Z1.1
N2975 X-27.864 Y10.73 Z1.1
N2976 X-28.932 Y12.449 Z1.1
N2977 X-29.12 Y12.597 Z1.1
N2978 X-29.12 Y9.318 Z1.1
N2979 X-28.932 Y9.383 Z1.1
N2980 X-27.864 Y9.086 Z1.1
N2981 X-26.796 Y7.366 Z1.1
N2982 X-25.727 Y6.53 Z1.1
N2983 X-24.659 Y6.16 Z1.1
N2984 X-23.591 Y6.458 Z1.1
N2985 X-22.523 Y8.177 Z1.1
N2986 X-21.455 Y9.014 Z1.1
N2987 X-20.387 Y9.383 Z1.1
N2988 X-19.319 Y9.086 Z1.1
N2989 X-18.25 Y7.366 Z1.1
N2990 X-17.182 Y6.53 Z1.1
N2991 X-16.114 Y6.16 Z1.1
N2992 X-15.046 Y6.458 Z1.1
N2993 X-13.978 Y8.177 Z1.1
N2994 X-12.91 Y9.014 Z1.1
N2995 X-11.842 Y9.383 Z1.1
N2996 X-10.773 Y9.086 Z1.1
N2997 X-9.705 Y7.366 Z1.1
N2998 X-8.637 Y6.53 Z1.1
N2999 X-7.569 Y6.16 Z1.1
N3000 X-6.501 Y6.458 Z1.1
N3001 X-5.433 Y8.177 Z1.1
N3002 X-4.365 Y9.014 Z1.1
N3003 X-3.296 Y9.383 Z1.1
N3004 X-2.228 Y9.086 Z1.1
N3005 X-1.16 Y7.366 Z1.1
N3006 X-0.092 Y6.53 Z1.1
N3007 X0.976 Y6.16 Z1.1
N3008 X2.044 Y6.458 Z1.1
N3009 X3.112 Y8.177 Z1.1
N3010 X4.181 Y9.014 Z1.1
N3011 X5.249 Y9.383 Z1.1
N3012 X6.317 Y9.086 Z1.1
N3013 X7.385 Y7.366 Z1.1
N3014 X8.453 Y6.53 Z1.1
N3015 X9.521 Y6.16 Z1.1
N3016 X10.589 Y6.458 Z1.1
N3017 X11.658 Y8.177 Z1.1
N3018 X12.726 Y9.014 Z1.1
N3019 X13.794 Y9.383 Z1.1
N3020 X14.862 Y9.086 Z1.1
N3021 X15.93 Y7.366 Z1.1
N3022 X16.998 Y6.53 Z1.1
N3023 X18.066 Y6.16 Z1.1
N3024 X19.135 Y6.458 Z1.1
N3025 X20.203 Y8.177 Z1.1
N3026 X21.271 Y9.014 Z1.1
N3027 X22.339 Y9.383 Z1.1
N3028 X23.407 Y9.086 Z1.1
N3029 X24.475 Y7.366 Z1.1
N3030 X25.543 Y6.53 Z1.1
N3031 X26.611 Y6.16 Z1.1
N3032 X27.68 Y6.458 Z1.1
N3033 X28.748 Y8.177 Z1.1
N3034 X29.12 Y8.468 Z1.1
N3035 X29.12 Y4.982 Z1.1
N3036 X28.748 Y5.111 Z1.1
N3037 X27.68 Y4.813 Z1.1
N3038 X26.611 Y3.094 Z1.1
N3039 X25.543 Y2.257 Z1.1
N3040 X24.475 Y1.888 Z1.1
N3041 X23.407 Y2.185 Z1.1
N3042 X22.339 Y3.904 Z1.1
N3043 X21.271 Y4.741 Z1.1
N3044 X20.203 Y5.111 Z1.1
N3045 X19.135 Y4.813 Z1.1
N3046 X18.066 Y3.094 Z1.1
N3047 X16.998 Y2.257 Z1.1
N3048 X15.93 Y1.888 Z1.1
N3049 X14.862 Y2.185 Z1.1
N3050 X13.794 Y3.904 Z1.1
N3051 X12.726 Y4.741 Z1.1
N3052 X11.658 Y5.111 Z1.1
N3053 X10.589 Y4.813 Z1.1
N3054 X9.521 Y3.094 Z1.1
N3055 X8.453 Y2.257 Z1.1
N3056 X7.385 Y1.888 Z1.1
N3057 X6.317 Y2.185 Z1.1
N3058 X5.249 Y3.904 Z1.1
N3059 X4.181 Y4.741 Z1.1
N3060 X3.112 Y5.111 Z1.1
N3061 X2.044 Y4.813 Z1.1
N3062 X0.976 Y3.094 Z1.1
N3063 X-0.092 Y2.257 Z1.1
N3064 X-1.16 Y1.888 Z1.1
N3065 X-2.228 Y2.185 Z1.1
N3066 X-3.296 Y3.904 Z1.1
N3067 X-4.365 Y4.741 Z1.1
N3068 X-5.433 Y5.111 Z1.1
N3069 X-6.501 Y4.813 Z1.1
N3070 X-7.569 Y3.094 Z1.1
N3071 X-8.637 Y2.257 Z1.1
N3072 X-9.705 Y1.888 Z1.1
N3073 X-10.773 Y2.185 Z1.1
N3074 X-11.842 Y3.904 Z1.1
N3075 X-12.91 Y4.741 Z1.1
N3076 X-13.978 Y5.111 Z1.1
N3077 X-15.046 Y4.813 Z1.1
N3078 X-16.114 Y3.094 Z1.1
N3079 X-17.182 Y2.257 Z1.1
N3080 X-18.25 Y1.888 Z1.1
N3081 X-19.319 Y2.185 Z1.1
N3082 X-20.387 Y3.904 Z1.1
N3083 X-21.455 Y4.741 Z1.1
N3084 X-22.523 Y5.111 Z1.1
N3085 X-23.591 Y4.813 Z1.1
N3086 X-24.659 Y3.094 Z1.1
N3087 X-25.727 Y2.257 Z1.1
N3088 X-26.796 Y1.888 Z1.1
N3089 X-27.864 Y2.185 Z1.1
N3090 X-28.932 Y3.904 Z1.1
N3091 X-29.12 Y4.052 Z1.1
N3092 X-29.12 Y0.773 Z1.1
N3093 X-28.932 Y0.838 Z1.1
N3094 X-27.864 Y0.541 Z1.1
N3095 X-26.796 Y-1.179 Z1.1
N3096 X-25.727 Y-2.015 Z1.1
N3097 X-24.659 Y-2.385 Z1.1
N3098 X-23.591 Y-2.087 Z1.1
N3099 X-22.523 Y-0.368 Z1.1
N3100 X-21.455 Y0.469 Z1.1
N3101 X-20.387 Y0.838 Z1.1
N3102 X-19.319 Y0.541 Z1.1
N3103 X-18.25 Y-1.179 Z1.1
N3104 X-17.182 Y-2.015 Z1.1
N3105 X-16.114 Y-2.385 Z1.1
N3106 X-15.046 Y-2.087 Z1.1
N3107 X-13.978 Y-0.368 Z1.1
N3108 X-12.91 Y0.469 Z1.1
N3109 X-11.842 Y0.838 Z1.1
N3110 X-10.773 Y0.541 Z1.1
N3111 X-9.705 Y-1.179 Z1.1
N3112 X-8.637 Y-2.015 Z1.1
N3113 X-7.569 Y-2.385 Z1.1
N3114 X-6.501 Y-2.087 Z1.1
N3115 X-5.433 Y-0.368 Z1.1
N3116 X-4.365 Y0.469 Z1.1
N3117 X-3.296 Y0.838 Z1.1
N3118 X-2.228 Y0.541 Z1.1
N3119 X-1.16 Y-1.179 Z1.1
N3120 X-0.092 Y-2.015 Z1.1
N3121 X0.976 Y-2.385 Z1.1
N3122 X2.044 Y-2.087 Z1.1
N3123 X3.112 Y-0.368 Z1.1
N3124 X4.181 Y0.469 Z1.1
N3125 X5.249 Y0.838 Z1.1
N3126 X6.317 Y0.541 Z1.1
N3127 X7.385 Y-1.179 Z1.1
N3128 X8.453 Y-2.015 Z1.1
N3129 X9.521 Y-2.385 Z1.1
N3130 X10.589 Y-2.087 Z1.1
N3131 X11.658 Y-0.368 Z1.1
N3132 X12.726 Y0.469 Z1.1
N3133 X13.794 Y0.838 Z1.1
N3134 X14.862 Y0.541 Z1.1
N3135 X15.93 Y-1.179 Z1.1
N3136 X16.998 Y-2.015 Z1.1
N3137 X18.066 Y-2.385 Z1.1
N3138 X19.135 Y-2.087 Z1.1
N3139 X20.203 Y-0.368 Z1.1
N3140 X21.271 Y0.469 Z1.1
N3141 X22.339 Y0.838 Z1.1
N3142 X23.407 Y0.541 Z1.1
N3143 X24.475 Y-1.179 Z1.1
N3144 X25.543 Y-2.015 Z1.1
N3145 X26.611 Y-2.385 Z1.1
N3146 X27.68 Y-2.087 Z1.1
N3147 X28.748 Y-0.368 Z1.1
N3148 X29.12 Y-0.077 Z1.1
N3149 X29.12 Y-3.563 Z1.1
N3150 X28.748 Y-3.435 Z1.1
N3151 X27.68 Y-3.732 Z1.1
N3152 X26.611 Y-5.451 Z1.1
N3153 X25.543 Y-6.288 Z1.1
N3154 X24.475 Y-6.657 Z1.1
N3155 X23.407 Y-6.36 Z1.1
N3156 X22.339 Y-4.641 Z1.1
N3157 X21.271 Y-3.804 Z1.1
N3158 X20.203 Y-3.435 Z1.1
N3159 X19.135 Y-3.732 Z1.1
N3160 X18.066 Y-5.451 Z1.1
N3161 X16.998 Y-6.288 Z1.1
N3162 X15.93 Y-6.657 Z1.1
N3163 X14.862 Y-6.36 Z1.1
N3164 X13.794 Y-4.641 Z1.1
N3165 X12.726 Y-3.804 Z1.1
N3166 X11.658 Y-3.435 Z1.1
N3167 X10.589 Y-3.732 Z1.1
N3168 X9.521 Y-5.451 Z1.1
N3169 X8.453 Y-6.288 Z1.1
N3170 X7.385 Y-6.657 Z1.1
N3171 X6.317 Y-6.36 Z1.1
N3172 X5.249 Y-4.641 Z1.1
N3173 X4.181 Y-3.804 Z1.1
N3174 X3.112 Y-3.435 Z1.1
N3175 X2.044 Y-3.732 Z1.1
N3176 X0.976 Y-5.451 Z1.1
N3177 X-0.092 Y-6.288 Z1.1
N3178 X-1.16 Y-6.657 Z1.1
N3179 X-2.228 Y-6.36 Z1.1
N3180 X-3.296 Y-4.641 Z1.1
N3181 X-4.365 Y-3.804 Z1.1
N3182 X-5.433 Y-3.435 Z1.1
N3183 X-6.501 Y-3.732 Z1.1
N3184 X-7.569 Y-5.451 Z1.1
N3185 X-8.637 Y-6.288 Z1.1
N3186 X-9.705 Y-6.657 Z1.1
N3187 X-10.773 Y-6.36 Z1.1
N3188 X-11.842 Y-4.641 Z1.1
N3189 X-12.91 Y-3.804 Z1.1
N3190 X-13.978 Y-3.435 Z1.1
N3191 X-15.046 Y-3.732 Z1.1
N3192 X-16.114 Y-5.451 Z1.1
N3193 X-17.182 Y-6.288 Z1.1
N3194 X-18.25 Y-6.657 Z1.1
N3195 X-19.319 Y-6.36 Z1.1
N3196 X-20.387 Y-4.641 Z1.1
N3197 X-21.455 Y-3.804 Z1.1
N3198 X-22.523 Y-3.435 Z1.1
N3199 X-23.591 Y-3.732 Z1.1
N3200 X-24.659 Y-5.451 Z1.1
N3201 X-25.727 Y-6.288 Z1.1
N3202 X-26.796 Y-6.657 Z1.1
N3203 X-27.864 Y-6.36 Z1.1
N3204 X-28.932 Y-4.641 Z1.1
N3205 X-29.12 Y-4.493 Z1.1
N3206 X-29.12 Y-7.772 Z1.1
N3207 X-28.932 Y-7.707 Z1.1
N3208 X-27.864 Y-8.005 Z1.1
N3209 X-26.796 Y-9.724 Z1.1
N3210 X-25.727 Y-10.561 Z1.1
N3211 X-24.659 Y-10.93 Z1.1
N3212 X-23.591 Y-10.633 Z1.1
N3213 X-22.523 Y-8.913 Z1.1
N3214 X-21.455 Y-8.077 Z1.1
N3215 X-20.387 Y-7.707 Z1.1
N3216 X-19.319 Y-8.005 Z1.1
N3217 X-18.25 Y-9.724 Z1.1
N3218 X-17.182 Y-10.561 Z1.1
N3219 X-16.114 Y-10.93 Z1.1
N3220 X-15.046 Y-10.633 Z1.1
N3221 X-13.978 Y-8.913 Z1.1
N3222 X-12.91 Y-8.077 Z1.1
N3223 X-11.842 Y-7.707 Z1.1
N3224 X-10.773 Y-8.005 Z1.1
N3225 X-9.705 Y-9.724 Z1.1
N3226 X-8.637 Y-10.561 Z1.1
N3227 X-7.569 Y-10.93 Z1.1
N3228 X-6.501 Y-10.633 Z1.1
N3229 X-5.433 Y-8.913 Z1.1
N3230 X-4.365 Y-8.077 Z1.1
N3231 X-3.296 Y-7.707 Z1.1
N3232 X-2.228 Y-8.005 Z1.1
N3233 X-1.16 Y-9.724 Z1.1
N3234 X-0.092 Y-10.561 Z1.1
N3235 X0.976 Y-10.93 Z1.1
N3236 X2.044 Y-10.633 Z1.1
N3237 X3.112 Y-8.913 Z1.1
N3238 X4.181 Y-8.077 Z1.1
N3239 X5.249 Y-7.707 Z1.1
N3240 X6.317 Y-8.005 Z1.1
N3241 X7.385 Y-9.724 Z1.1
N3242 X8.453 Y-10.561 Z1.1
N3243 X9.521 Y-10.93 Z1.1
N3244 X10.589 Y-10.633 Z1.1
N3245 X11.658 Y-8.913 Z1.1
N3246 X12.726 Y-8.077 Z1.1
N3247 X13.794 Y-7.707 Z1.1
N3248 X14.862 Y-8.005 Z1.1
N3249 X15.93 Y-9.724 Z1.1
N3250 X16.998 Y-10.561 Z1.1
N3251 X18.066 Y-10.93 Z1.1
N3252 X19.135 Y-10.633 Z1.1
N3253 X20.203 Y-8.913 Z1.1
N3254 X21.271 Y-8.077 Z1.1
N3255 X22.339 Y-7.707 Z1.1
N3256 X23.407 Y-8.005 Z1.1
N3257 X24.475 Y-9.724 Z1.1
N3258 X25.543 Y-10.561 Z1.1
N3259 X26.611 Y-10.93 Z1.1
N3260 X27.68 Y-10.633 Z1.1
N3261 X28.748 Y-8.913 Z1.1
N3262 X29.12 Y-8.622 Z1.1
N3263 X29.12 Y-12.108 Z1.1
N3264 X28.748 Y-11.98 Z1.1
N3265 X27.68 Y-12.277 Z1.1
N3266 X26.611 Y-13.996 Z1.1
N3267 X25.543 Y-14.833 Z1.1
N3268 X24.475 Y-15.203 Z1.1
N3269 X23.407 Y-14.905 Z1.1
N3270 X22.339 Y-13.186 Z1.1
N3271 X21.271 Y-12.349 Z1.1
N3272 X20.203 Y-11.98 Z1.1
N3273 X19.135 Y-12.277 Z1.1
N3274 X18.066 Y-13.996 Z1.1
N3275 X16.998 Y-14.833 Z1.1
N3276 X15.93 Y-15.203 Z1.1
N3277 X14.862 Y-14.905 Z1.1
N3278 X13.794 Y-13.186 Z1.1
N3279 X12.726 Y-12.349 Z1.1
N3280 X11.658 Y-11.98 Z1.1
N3281 X10.589 Y-12.277 Z1.1
N3282 X9.521 Y-13.996 Z1.1
N3283 X8.453 Y-14.833 Z1.1
N3284 X7.385 Y-15.203 Z1.1
N3285 X6.317 Y-14.905 Z1.1
N3286 X5.249 Y-13.186 Z1.1
N3287 X4.181 Y-12.349 Z1.1
N3288 X3.112 Y-11.98 Z1.1
N3289 X2.044 Y-12.277 Z1.1
N3290 X0.976 Y-13.996 Z1.1
N3291 X-0.092 Y-14.833 Z1.1
N3292 X-1.16 Y-15.203 Z1.1
N3293 X-2.228 Y-14.905 Z1.1
N3294 X-3.296 Y-13.186 Z1.1
N3295 X-4.365 Y-12.349 Z1.1
N3296 X-5.433 Y-11.98 Z1.1
N3297 X-6.501 Y-12.277 Z1.1
N3298 X-7.569 Y-13.996 Z1.1
N3299 X-8.637 Y-14.833 Z1.1
N3300 X-9.705 Y-15.203 Z1.1
N3301 X-10.773 Y-14.905 Z1.1
N3302 X-11.842 Y-13.186 Z1.1
N3303 X-12.91 Y-12.349 Z1.1
N3304 X-13.978 Y-11.98 Z1.1
N3305 X-15.046 Y-12.277 Z1.1
N3306 X-16.114 Y-13.996 Z1.1
N3307 X-17.182 Y-14.833 Z1.1
N3308 X-18.25 Y-15.203 Z1.1
N3309 X-19.319 Y-14.905 Z1.1
N3310 X-20.387 Y-13.186 Z1.1
N3311 X-21.455 Y-12.349 Z1.1
N3312 X-22.523 Y-11.98 Z1.1
N3313 X-23.591 Y-12.277 Z1.1
N3314 X-24.659 Y-13.996 Z1.1
N3315 X-25.727 Y-14.833 Z1.1
N3316 X-26.796 Y-15.203 Z1.1
N3317 X-27.864 Y-14.905 Z1.1
N3318 X-28.932 Y-13.186 Z1.1
N3319 X-29.12 Y-13.039 Z1.1
N3320 X-29.12 Y-16.317 Z1.1
N3321 X-28.932 Y-16.252 Z1.1
N3322 X-27.864 Y-16.55 Z1.1
N3323 X-26.796 Y-18.269 Z1.1
N3324 X-25.727 Y-19.106 Z1.1
N3325 X-25.686 Y-19.12 Z1.1
N3326 X-23.555 Y-19.12 Z1.1
N3327 X-22.523 Y-17.458 Z1.1
N3328 X-21.455 Y-16.622 Z1.1
N3329 X-20.387 Y-16.252 Z1.1
N3330 X-19.319 Y-16.55 Z1.1
N3331 X-18.25 Y-18.269 Z1.1
N3332 X-17.182 Y-19.106 Z1.1
N3333 X-17.141 Y-19.12 Z1.1
N3334 X-15.01 Y-19.12 Z1.1
N3335 X-13.978 Y-17.458 Z1.1
N3336 X-12.91 Y-16.622 Z1.1
N3337 X-11.842 Y-16.252 Z1.1
N3338 X-10.773 Y-16.55 Z1.1
N3339 X-9.705 Y-18.269 Z1.1
N3340 X-8.637 Y-19.106 Z1.1
N3341 X-8.596 Y-19.12 Z1.1
N3342 X-6.465 Y-19.12 Z1.1
N3343 X-5.433 Y-17.458 Z1.1
N3344 X-4.365 Y-16.622 Z1.1
N3345 X-3.296 Y-16.252 Z1.1
N3346 X-2.228 Y-16.55 Z1.1
N3347 X-1.16 Y-18.269 Z1.1
N3348 X-0.092 Y-19.106 Z1.1
N3349 X-0.051 Y-19.12 Z1.1
N3350 X2.08 Y-19.12 Z1.1
N3351 X3.112 Y-17.458 Z1.1
N3352 X4.181 Y-16.622 Z1.1
N3353 X5.249 Y-16.252 Z1.1
N3354 X6.317 Y-16.55 Z1.1
N3355 X7.385 Y-18.269 Z1.1
N3356 X8.453 Y-19.106 Z1.1
N3357 X8.494 Y-19.12 Z1.1
N3358 X10.625 Y-19.12 Z1.1
N3359 X11.658 Y-17.458 Z1.1
N3360 X12.726 Y-16.622 Z1.1
N3361 X13.794 Y-16.252 Z1.1
N3362 X14.862 Y-16.55 Z1.1
N3363 X15.93 Y-18.269 Z1.1
N3364 X16.998 Y-19.106 Z1.1
N3365 X17.04 Y-19.12 Z1.1
N3366 X19.17 Y-19.12 Z1.1
N3367 X20.203 Y-17.458 Z1.1
N3368 X21.271 Y-16.622 Z1.1
N3369 X22.339 Y-16.252 Z1.1
N3370 X23.407 Y-16.55 Z1.1
N3371 X24.475 Y-18.269 Z1.1
N3372 X25.543 Y-19.106 Z1.1
N3373 X25.585 Y-19.12 Z1.1
N3374 X27.716 Y-19.12 Z1.1
N3375 X28.748 Y-17.458 Z1.1
N3376 X29.12 Y-17.167 Z1.1
N3377 X29.12 Y-17.167 Z1.1 F1800
N3378 G00 X28.748 Y-17.458 Z1.1 F1000
N3379 X28.575 Y-17.736 Z1.1
N3380 X28.748 Y-17.458 Z1.1
N3381 X29.12 Y-17.167 Z1.1
(rapid-leaky)
N3382 X-29.8 Y-19.8 Z1.25
N3383 G01 X-29.8 Y-19.8 Z1.25 F1800
(bead-perimeter_outer)
N3384 X29.8 Y-19.8 Z1.25
N3385 X29.8 Y19.8 Z1.25
N3386 X-29.8 Y19.8 Z1.25
N3387 X-29.8 Y-19.8 Z1.25
N3388 X-29.8 Y-19.8 Z1.25
N3389 G00 X-29. Y-19.8 Z1.25 F1000
N3390 X-29.8 Y-19.8 Z1.25
(rapid-leaky)
N3391 X-29.44 Y-19.44 Z1.25
N3392 G01 X-29.44 Y-19.44 Z1.25 F1800
(bead-perimeter_inner)
N3393 X29.44 Y-19.44 Z1.25 F2400
N3394 X29.44 Y19.44 Z1.25
N3395 X-29.44 Y19.44 Z1.25
N3396 X-29.44 Y-19.44 Z1.25
N3397 X-29.44 Y-19.44 Z1.25 F1800
N3398 G00 X-28.64 Y-19.44 Z1.25 F1000
N3399 X-29.44 Y-19.44 Z1.25
(rapid-leaky)
N3400 X-29.12 Y17.715 Z1.25
N3401 G01 X-29.12 Y17.715 Z1.25 F1800
(bead-sparse_infill)
N3402 X-28.932 Y17.76 Z1.25 F3600
N3403 X-27.864 Y17.284 Z1.25
N3404 X-26.796 Y15.853 Z1.25
N3405 X-25.727 Y15.129 Z1.25
N3406 X-24.659 Y14.873 Z1.25
N3407 X-23.591 Y15.35 Z1.25
N3408 X-22.523 Y16.78 Z1.25
N3409 X-21.455 Y17.505 Z1.25
N3410 X-20.387 Y17.76 Z1.25
N3411 X-19.319 Y17.284 Z1.25
N3412 X-18.25 Y15.853 Z1.25
N3413 X-17.182 Y15.129 Z1.25
N3414 X-16.114 Y14.873 Z1.25
N3415 X-15.046 Y15.35 Z1.25
N3416 X-13.978 Y16.78 Z1.25
N3417 X-12.91 Y17.505 Z1.25
N3418 X-11.842 Y17.76 Z1.25
N3419 X-10.773 Y17.284 Z1.25
N3420 X-9.705 Y15.853 Z1.25
N3421 X-8.637 Y15.129 Z1.25
N3422 X-7.569 Y14.873 Z1.25
N3423 X-6.501 Y15.35 Z1.25
N3424 X-5.433 Y16.78 Z1.25
N3425 X-4.365 Y17.505 Z1.25
N3426 X-3.296 Y17.76 Z1.25
N3427 X-2.228 Y17.284 Z1.25
N3428 X-1.16 Y15.853 Z1.25
N3429 X-0.092 Y15.129 Z1.25
N3430 X0.976 Y14.873 Z1.25
N3431 X2.044 Y15.35 Z1.25
N3432 X3.112 Y16.78 Z1.25
N3433 X4.181 Y17.505 Z1.25
N3434 X5.249 Y17.76 Z1.25
N3435 X6.317 Y17.284 Z1.25
N3436 X7.385 Y15.853 Z1.25
N3437 X8.453 Y15.129 Z1.25
N3438 X9.521 Y14.873 Z1.25
N3439 X10.589 Y15.35 Z1.25
N3440 X11.658 Y16.78 Z1.25
N3441 X12.726 Y17.505 Z1.25
N3442 X13.794 Y17.76 Z1.25
N3443 X14.862 Y17.284 Z1.25
N3444 X15.93 Y15.853 Z1.25
N3445 X16.998 Y15.129 Z1.25
N3446 X18.066 Y14.873 Z1.25
N3447 X19.135 Y15.35 Z1.25
N3448 X20.203 Y16.78 Z1.25
N3449 X21.271 Y17.505 Z1.25
N3450 X22.339 Y17.76 Z1.25
N3451 X23.407 Y17.284 Z1.25
N3452 X24.475 Y15.853 Z1.25
N3453 X25.543 Y15.129 Z1.25
N3454 X26.611 Y14.873 Z1.25
N3455 X27.68 Y15.35 Z1.25
N3456 X28.748 Y16.78 Z1.25
N3457 X29.12 Y17.033 Z1.25
N3458 X29.12 Y13.399 Z1.25
N3459 X28.748 Y13.488 Z1.25
N3460 X27.68 Y13.011 Z1.25
N3461 X26.611 Y11.581 Z1.25
N3462 X25.543 Y10.856 Z1.25
N3463 X24.475 Y10.601 Z1.25
N3464 X23.407 Y11.077 Z1.25
N3465 X22.339 Y12.508 Z1.25
N3466 X21.271 Y13.232 Z1.25
N3467 X20.203 Y13.488 Z1.25
N3468 X19.135 Y13.011 Z1.25
N3469 X18.066 Y11.581 Z1.25
N3470 X16.998 Y10.856 Z1.25
N3471 X15.93 Y10.601 Z1.25
N3472 X14.862 Y11.077 Z1.25
N3473 X13.794 Y12.508 Z1.25
N3474 X12.726 Y13.232 Z1.25
N3475 X11.658 Y13.488 Z1.25
N3476 X10.589 Y13.011 Z1.25
N3477 X9.521 Y11.581 Z1.25
N3478 X8.453 Y10.856 Z1.25
N3479 X7.385 Y10.601 Z1.25
N3480 X6.317 Y11.077 Z1.25
N3481 X5.249 Y12.508 Z1.25
N3482 X4.181 Y13.232 Z1.25
N3483 X3.112 Y13.488 Z1.25
N3484 X2.044 Y13.011 Z1.25
N3485 X0.976 Y11.581 Z1.25
N3486 X-0.092 Y10.856 Z1.25
N3487 X-1.16 Y10.601 Z1.25
N3488 X-2.228 Y11.077 Z1.25
N3489 X-3.296 Y12.508 Z1.25
N3490 X-4.365 Y13.232 Z1.25
N3491 X-5.433 Y13.488 Z1.25
N3492 X-6.501 Y13.011 Z1.25
N3493 X-7.569 Y11.581 Z1.25
N3494 X-8.637 Y10.856 Z1.25
N3495 X-9.705 Y10.601 Z1.25
N3496 X-10.773 Y11.077 Z1.25
N3497 X-11.842 Y12.508 Z1.25
N3498 X-12.91 Y13.232 Z1.25
N3499 X-13.978 Y13.488 Z1.25
N3500 X-15.046 Y13.011 Z1.25
N3501 X-16.114 Y11.581 Z1.25
N3502 X-17.182 Y10.856 Z1.25
N3503 X-18.25 Y10.601 Z1.25
N3504 X-19.319 Y11.077 Z1.25
N3505 X-20.387 Y12.508 Z1.25
N3506 X-21.455 Y13.232 Z1.25
N3507 X-22.523 Y13.488 Z1.25
