;FLAVOR:Marlin
;Layer height: 0.20
M82 ;absolute extrusion mode
G21 ;metric values
G90 ;absolute positioning
M107 ;Fan off
M140 S70 ;set bed temp
M190 S70 ;wait for bed temp
M104 S190 ;set extruder0 temp
M109 S190 ;wait for extruder0 temp
G28 X0 Y0 ;auto-home all axes
G28 Z0 ;auto-home all axes
G1 Z15 F6000 ;raise extruder
G92 E0 ;Zero extruder
M117 Printing...
;LAYER_COUNT:150
;LAYER:0
( Nozzle 0 )
G1 Z0.20 F300
G0 X5.62 Y10.00 F6000
G1 E3.000 F1800
G1 X5.62 Y20.00 E4.429 F3600
G1 E1.429 F1800
G0 X70.75 Y80.75 F6000
G1 E4.429 F1800
G1 X129.25 Y80.75 E12.786 F3600
G1 X129.25 Y119.25 E18.286 F3600
G1 X70.75 Y119.25 E26.643 F3600
G1 X70.75 Y80.75 E32.143 F3600
G1 E29.143 F1800
G0 X70.25 Y80.25 F6000
G1 E32.143 F1800
G1 X129.75 Y80.25 E40.643 F3600
G1 X129.75 Y119.75 E46.286 F3600
G1 X70.25 Y119.75 E54.786 F3600
G1 X70.25 Y80.25 E60.429 F3600
G1 E57.429 F1800
G0 X71.52 Y118.90 F6000
G1 E60.429 F1800
G1 X71.10 Y118.48 E60.514 F3600
G1 X71.10 Y117.77 E60.615 F3600
G1 X72.23 Y118.90 E60.844 F3600
G1 X72.94 Y118.90 E60.945 F3600
G1 X71.10 Y117.06 E61.316 F3600
G1 X71.10 Y116.36 E61.417 F3600
G1 X73.64 Y118.90 E61.931 F3600
G1 X74.35 Y118.90 E62.032 F3600
G1 X71.10 Y115.65 E62.690 F3600
G1 X71.10 Y114.94 E62.790 F3600
G1 X75.06 Y118.90 E63.590 F3600
G1 X75.77 Y118.90 E63.691 F3600
G1 X71.10 Y114.23 E64.634 F3600
G1 X71.10 Y113.53 E64.735 F3600
G1 X76.47 Y118.90 E65.821 F3600
G1 X77.18 Y118.90 E65.922 F3600
G1 X71.10 Y112.82 E67.150 F3600
G1 X71.10 Y112.11 E67.251 F3600
G1 X77.89 Y118.90 E68.622 F3600
G1 X78.59 Y118.90 E68.723 F3600
G1 X71.10 Y111.41 E70.238 F3600
G1 X71.10 Y110.70 E70.339 F3600
G1 X79.30 Y118.90 E71.996 F3600
G1 X80.01 Y118.90 E72.097 F3600
G1 X71.10 Y109.99 E73.897 F3600
G1 X71.10 Y109.28 E73.998 F3600
G1 X80.72 Y118.90 E75.941 F3600
G1 X81.42 Y118.90 E76.042 F3600
G1 X71.10 Y108.58 E78.127 F3600
G1 X71.10 Y107.87 E78.228 F3600
G1 X82.13 Y118.90 E80.457 F3600
G1 X82.84 Y118.90 E80.558 F3600
G1 X71.10 Y107.16 E82.929 F3600
G1 X71.10 Y106.45 E83.030 F3600
G1 X83.55 Y118.90 E85.544 F3600
G1 X84.25 Y118.90 E85.645 F3600
G1 X71.10 Y105.75 E88.302 F3600
G1 X71.10 Y105.04 E88.403 F3600
G1 X84.96 Y118.90 E91.203 F3600
G1 X85.67 Y118.90 E91.304 F3600
G1 X71.10 Y104.33 E94.247 F3600
G1 X71.10 Y103.63 E94.348 F3600
G1 X86.37 Y118.90 E97.434 F3600
G1 X87.08 Y118.90 E97.535 F3600
G1 X71.10 Y102.92 E100.763 F3600
G1 X71.10 Y102.21 E100.864 F3600
G1 X87.79 Y118.90 E104.236 F3600
G1 X88.50 Y118.90 E104.337 F3600
G1 X71.10 Y101.50 E107.851 F3600
G1 X71.10 Y100.80 E107.952 F3600
G1 X89.20 Y118.90 E111.609 F3600
G1 X89.91 Y118.90 E111.710 F3600
G1 X71.10 Y100.09 E115.510 F3600
G1 X71.10 Y99.39 E115.611 F3600
G1 X90.61 Y118.90 E119.553 F3600
G1 X91.32 Y118.90 E119.655 F3600
G1 X71.10 Y98.68 E123.740 F3600
G1 X71.10 Y97.97 E123.841 F3600
G1 X92.03 Y118.90 E128.070 F3600
G1 X92.74 Y118.90 E128.171 F3600
G1 X71.10 Y97.26 E132.542 F3600
G1 X71.10 Y96.56 E132.643 F3600
G1 X93.44 Y118.90 E137.158 F3600
G1 X94.15 Y118.90 E137.258 F3600
G1 X71.10 Y95.85 E141.915 F3600
G1 X71.10 Y95.14 E142.017 F3600
G1 X94.86 Y118.90 E146.817 F3600
G1 X95.56 Y118.90 E146.917 F3600
G1 X71.10 Y94.44 E151.860 F3600
G1 X71.10 Y93.73 E151.961 F3600
G1 X96.27 Y118.90 E157.047 F3600
G1 X96.98 Y118.90 E157.148 F3600
G1 X71.10 Y93.02 E162.376 F3600
G1 X71.10 Y92.31 E162.477 F3600
G1 X97.69 Y118.90 E167.849 F3600
G1 X98.39 Y118.90 E167.950 F3600
G1 X71.10 Y91.61 E173.464 F3600
G1 X71.10 Y90.90 E173.565 F3600
G1 X99.10 Y118.90 E179.222 F3600
G1 X99.81 Y118.90 E179.323 F3600
G1 X71.10 Y90.19 E185.123 F3600
G1 X71.10 Y89.48 E185.224 F3600
G1 X100.52 Y118.90 E191.167 F3600
G1 X101.22 Y118.90 E191.268 F3600
G1 X71.10 Y88.78 E197.354 F3600
G1 X71.10 Y88.07 E197.454 F3600
G1 X101.93 Y118.90 E203.683 F3600
G1 X102.64 Y118.90 E203.784 F3600
G1 X71.10 Y87.36 E210.155 F3600
G1 X71.10 Y86.66 E210.256 F3600
G1 X103.34 Y118.90 E216.770 F3600
G1 X104.05 Y118.90 E216.871 F3600
G1 X71.10 Y85.95 E223.529 F3600
G1 X71.10 Y85.24 E223.629 F3600
G1 X104.76 Y118.90 E230.429 F3600
G1 X105.47 Y118.90 E230.530 F3600
G1 X71.10 Y84.53 E237.473 F3600
G1 X71.10 Y83.83 E237.574 F3600
G1 X106.17 Y118.90 E244.660 F3600
G1 X106.88 Y118.90 E244.761 F3600
G1 X71.10 Y83.12 E251.989 F3600
G1 X71.10 Y82.41 E252.090 F3600
G1 X107.59 Y118.90 E259.462 F3600
G1 X108.29 Y118.90 E259.563 F3600
G1 X71.10 Y81.71 E267.077 F3600
G1 X71.20 Y81.10 E267.165 F3600
G1 X109.00 Y118.90 E274.801 F3600
G1 X109.71 Y118.90 E274.902 F3600
G1 X71.91 Y81.10 E282.539 F3600
G1 X72.61 Y81.10 E282.640 F3600
G1 X110.42 Y118.90 E290.277 F3600
G1 X111.12 Y118.90 E290.378 F3600
G1 X73.32 Y81.10 E298.015 F3600
G1 X74.03 Y81.10 E298.116 F3600
G1 X111.83 Y118.90 E305.752 F3600
G1 X112.54 Y118.90 E305.853 F3600
G1 X74.74 Y81.10 E313.490 F3600
G1 X75.44 Y81.10 E313.591 F3600
G1 X113.24 Y118.90 E321.228 F3600
G1 X113.95 Y118.90 E321.329 F3600
G1 X76.15 Y81.10 E328.966 F3600
G1 X76.86 Y81.10 E329.067 F3600
G1 X114.66 Y118.90 E336.703 F3600
G1 X115.36 Y118.90 E336.805 F3600
G1 X77.56 Y81.10 E344.441 F3600
G1 X78.27 Y81.10 E344.542 F3600
G1 X116.07 Y118.90 E352.179 F3600
G1 X116.78 Y118.90 E352.280 F3600
G1 X78.98 Y81.10 E359.917 F3600
G1 X79.69 Y81.10 E360.018 F3600
G1 X117.48 Y118.90 E367.654 F3600
G1 X118.19 Y118.90 E367.756 F3600
G1 X80.39 Y81.10 E375.392 F3600
G1 X81.10 Y81.10 E375.493 F3600
G1 X118.90 Y118.90 E383.130 F3600
G1 X119.61 Y118.90 E383.231 F3600
G1 X81.81 Y81.10 E390.868 F3600
G1 X82.52 Y81.10 E390.969 F3600
G1 X120.31 Y118.90 E398.606 F3600
G1 X121.02 Y118.90 E398.707 F3600
G1 X83.22 Y81.10 E406.343 F3600
G1 X83.93 Y81.10 E406.445 F3600
G1 X121.73 Y118.90 E414.081 F3600
G1 X122.44 Y118.90 E414.182 F3600
G1 X84.64 Y81.10 E421.819 F3600
G1 X85.34 Y81.10 E421.920 F3600
G1 X123.14 Y118.90 E429.557 F3600
G1 X123.85 Y118.90 E429.658 F3600
G1 X86.05 Y81.10 E437.294 F3600
G1 X86.76 Y81.10 E437.396 F3600
G1 X124.56 Y118.90 E445.032 F3600
G1 X125.26 Y118.90 E445.133 F3600
G1 X87.46 Y81.10 E452.770 F3600
G1 X88.17 Y81.10 E452.871 F3600
G1 X125.97 Y118.90 E460.508 F3600
G1 X126.68 Y118.90 E460.609 F3600
G1 X88.88 Y81.10 E468.246 F3600
G1 X89.58 Y81.10 E468.347 F3600
G1 X127.39 Y118.90 E475.983 F3600
G1 X128.09 Y118.90 E476.084 F3600
G1 X90.29 Y81.10 E483.721 F3600
G1 X91.00 Y81.10 E483.822 F3600
G1 X128.80 Y118.90 E491.459 F3600
G1 X128.90 Y118.29 E491.547 F3600
G1 X91.71 Y81.10 E499.061 F3600
G1 X92.41 Y81.10 E499.162 F3600
G1 X128.90 Y117.59 E506.533 F3600
G1 X128.90 Y116.88 E506.634 F3600
G1 X93.12 Y81.10 E513.863 F3600
G1 X93.83 Y81.10 E513.964 F3600
G1 X128.90 Y116.17 E521.049 F3600
G1 X128.90 Y115.47 E521.150 F3600
G1 X94.53 Y81.10 E528.093 F3600
G1 X95.24 Y81.10 E528.194 F3600
G1 X128.90 Y114.76 E534.994 F3600
G1 X128.90 Y114.05 E535.095 F3600
G1 X95.95 Y81.10 E541.752 F3600
G1 X96.66 Y81.10 E541.853 F3600
G1 X128.90 Y113.34 E548.367 F3600
G1 X128.90 Y112.64 E548.468 F3600
G1 X97.36 Y81.10 E554.840 F3600
G1 X98.07 Y81.10 E554.941 F3600
G1 X128.90 Y111.93 E561.169 F3600
G1 X128.90 Y111.22 E561.270 F3600
G1 X98.78 Y81.10 E567.356 F3600
G1 X99.48 Y81.10 E567.457 F3600
G1 X128.90 Y110.52 E573.400 F3600
G1 X128.90 Y109.81 E573.501 F3600
G1 X100.19 Y81.10 E579.300 F3600
G1 X100.90 Y81.10 E579.401 F3600
G1 X128.90 Y109.10 E585.058 F3600
G1 X128.90 Y108.39 E585.159 F3600
G1 X101.61 Y81.10 E590.674 F3600
G1 X102.31 Y81.10 E590.775 F3600
G1 X128.90 Y107.69 E596.146 F3600
G1 X128.90 Y106.98 E596.247 F3600
G1 X103.02 Y81.10 E601.476 F3600
G1 X103.73 Y81.10 E601.576 F3600
G1 X128.90 Y106.27 E606.662 F3600
G1 X128.90 Y105.56 E606.763 F3600
G1 X104.44 Y81.10 E611.706 F3600
G1 X105.14 Y81.10 E611.807 F3600
G1 X128.90 Y104.86 E616.607 F3600
G1 X128.90 Y104.15 E616.708 F3600
G1 X105.85 Y81.10 E621.365 F3600
G1 X106.56 Y81.10 E621.466 F3600
G1 X128.90 Y103.44 E625.980 F3600
G1 X128.90 Y102.74 E626.081 F3600
G1 X107.26 Y81.10 E630.453 F3600
G1 X107.97 Y81.10 E630.554 F3600
G1 X128.90 Y102.03 E634.782 F3600
G1 X128.90 Y101.32 E634.883 F3600
G1 X108.68 Y81.10 E638.969 F3600
G1 X109.39 Y81.10 E639.070 F3600
G1 X128.90 Y100.61 E643.013 F3600
G1 X128.90 Y99.91 E643.114 F3600
G1 X110.09 Y81.10 E646.914 F3600
G1 X110.80 Y81.10 E647.015 F3600
G1 X128.90 Y99.20 E650.672 F3600
G1 X128.90 Y98.50 E650.772 F3600
G1 X111.50 Y81.10 E654.287 F3600
G1 X112.21 Y81.10 E654.388 F3600
G1 X128.90 Y97.79 E657.759 F3600
G1 X128.90 Y97.08 E657.860 F3600
G1 X112.92 Y81.10 E661.089 F3600
G1 X113.63 Y81.10 E661.190 F3600
G1 X128.90 Y96.37 E664.275 F3600
G1 X128.90 Y95.67 E664.376 F3600
G1 X114.33 Y81.10 E667.319 F3600
G1 X115.04 Y81.10 E667.420 F3600
G1 X128.90 Y94.96 E670.220 F3600
G1 X128.90 Y94.25 E670.321 F3600
G1 X115.75 Y81.10 E672.978 F3600
G1 X116.45 Y81.10 E673.079 F3600
G1 X128.90 Y93.55 E675.593 F3600
G1 X128.90 Y92.84 E675.694 F3600
G1 X117.16 Y81.10 E678.066 F3600
G1 X117.87 Y81.10 E678.167 F3600
G1 X128.90 Y92.13 E680.395 F3600
G1 X128.90 Y91.42 E680.496 F3600
G1 X118.58 Y81.10 E682.582 F3600
G1 X119.28 Y81.10 E682.683 F3600
G1 X128.90 Y90.72 E684.626 F3600
G1 X128.90 Y90.01 E684.727 F3600
G1 X119.99 Y81.10 E686.527 F3600
G1 X120.70 Y81.10 E686.628 F3600
G1 X128.90 Y89.30 E688.285 F3600
G1 X128.90 Y88.59 E688.386 F3600
G1 X121.41 Y81.10 E689.900 F3600
G1 X122.11 Y81.10 E690.001 F3600
G1 X128.90 Y87.89 E691.372 F3600
G1 X128.90 Y87.18 E691.473 F3600
G1 X122.82 Y81.10 E692.702 F3600
G1 X123.53 Y81.10 E692.803 F3600
G1 X128.90 Y86.47 E693.888 F3600
G1 X128.90 Y85.77 E693.989 F3600
G1 X124.23 Y81.10 E694.932 F3600
G1 X124.94 Y81.10 E695.033 F3600
G1 X128.90 Y85.06 E695.833 F3600
G1 X128.90 Y84.35 E695.934 F3600
G1 X125.65 Y81.10 E696.591 F3600
G1 X126.36 Y81.10 E696.692 F3600
G1 X128.90 Y83.64 E697.206 F3600
G1 X128.90 Y82.94 E697.307 F3600
G1 X127.06 Y81.10 E697.679 F3600
G1 X127.77 Y81.10 E697.780 F3600
G1 X128.90 Y82.23 E698.008 F3600
G1 X128.90 Y81.52 E698.109 F3600
G1 X128.48 Y81.10 E698.195 F3600
G1 E695.195 F1800
;LAYER:1
( Nozzle 0 )
G1 Z0.40 F300
G0 X129.25 Y119.25 F6000
G1 E698.195 F1800
G1 X70.75 Y119.25 E706.552 F3600
G1 X70.75 Y80.75 E712.052 F3600
G1 X129.25 Y80.75 E720.409 F3600
G1 X129.25 Y119.25 E725.909 F3600
G1 E722.909 F1800
G0 X129.75 Y119.75 F6000
G1 E725.909 F1800
G1 X70.25 Y119.75 E734.409 F3600
G1 X70.25 Y80.25 E740.052 F3600
G1 X129.75 Y80.25 E748.552 F3600
G1 X129.75 Y119.75 E754.195 F3600
G1 E751.195 F1800
G0 X128.90 Y118.48 F6000
G1 E754.195 F1800
G1 X128.48 Y118.90 E754.281 F3600
G1 X127.77 Y118.90 E754.382 F3600
G1 X128.90 Y117.77 E754.610 F3600
G1 X128.90 Y117.06 E754.711 F3600
G1 X127.06 Y118.90 E755.083 F3600
G1 X126.35 Y118.90 E755.184 F3600
G1 X128.90 Y116.35 E755.698 F3600
G1 X128.90 Y115.65 E755.799 F3600
G1 X125.65 Y118.90 E756.457 F3600
G1 X124.94 Y118.90 E756.558 F3600
G1 X128.90 Y114.94 E757.358 F3600
G1 X128.90 Y114.23 E757.459 F3600
G1 X124.23 Y118.90 E758.402 F3600
G1 X123.53 Y118.90 E758.503 F3600
G1 X128.90 Y113.53 E759.589 F3600
G1 X128.90 Y112.82 E759.690 F3600
G1 X122.82 Y118.90 E760.918 F3600
G1 X122.11 Y118.90 E761.019 F3600
G1 X128.90 Y112.11 E762.391 F3600
G1 X128.90 Y111.40 E762.492 F3600
G1 X121.40 Y118.90 E764.006 F3600
G1 X120.70 Y118.90 E764.107 F3600
G1 X128.90 Y110.70 E765.764 F3600
G1 X128.90 Y109.99 E765.865 F3600
G1 X119.99 Y118.90 E767.666 F3600
G1 X119.28 Y118.90 E767.767 F3600
G1 X128.90 Y109.28 E769.710 F3600
G1 X128.90 Y108.58 E769.811 F3600
G1 X118.58 Y118.90 E771.896 F3600
G1 X117.87 Y118.90 E771.998 F3600
G1 X128.90 Y107.87 E774.226 F3600
G1 X128.90 Y107.16 E774.327 F3600
G1 X117.16 Y118.90 E776.699 F3600
G1 X116.45 Y118.90 E776.800 F3600
G1 X128.90 Y106.45 E779.314 F3600
G1 X128.90 Y105.75 E779.415 F3600
G1 X115.75 Y118.90 E782.072 F3600
G1 X115.04 Y118.90 E782.173 F3600
G1 X128.90 Y105.04 E784.974 F3600
G1 X128.90 Y104.33 E785.075 F3600
G1 X114.33 Y118.90 E788.018 F3600
G1 X113.63 Y118.90 E788.119 F3600
G1 X128.90 Y103.63 E791.204 F3600
G1 X128.90 Y102.92 E791.305 F3600
G1 X112.92 Y118.90 E794.534 F3600
G1 X112.21 Y118.90 E794.635 F3600
G1 X128.90 Y102.21 E798.007 F3600
G1 X128.90 Y101.50 E798.108 F3600
G1 X111.50 Y118.90 E801.622 F3600
G1 X110.80 Y118.90 E801.723 F3600
G1 X128.90 Y100.80 E805.380 F3600
G1 X128.90 Y100.09 E805.482 F3600
G1 X110.09 Y118.90 E809.282 F3600
G1 X109.38 Y118.90 E809.383 F3600
G1 X128.90 Y99.38 E813.325 F3600
G1 X128.90 Y98.68 E813.427 F3600
G1 X108.68 Y118.90 E817.512 F3600
G1 X107.97 Y118.90 E817.613 F3600
G1 X128.90 Y97.97 E821.842 F3600
G1 X128.90 Y97.26 E821.943 F3600
G1 X107.26 Y118.90 E826.315 F3600
G1 X106.55 Y118.90 E826.416 F3600
G1 X128.90 Y96.55 E830.930 F3600
G1 X128.90 Y95.85 E831.031 F3600
G1 X105.85 Y118.90 E835.688 F3600
G1 X105.14 Y118.90 E835.790 F3600
G1 X128.90 Y95.14 E840.590 F3600
G1 X128.90 Y94.43 E840.691 F3600
G1 X104.43 Y118.90 E845.634 F3600
G1 X103.73 Y118.90 E845.735 F3600
G1 X128.90 Y93.73 E850.821 F3600
G1 X128.90 Y93.02 E850.921 F3600
G1 X103.02 Y118.90 E856.150 F3600
G1 X102.31 Y118.90 E856.251 F3600
G1 X128.90 Y92.31 E861.623 F3600
G1 X128.90 Y91.61 E861.724 F3600
G1 X101.61 Y118.90 E867.238 F3600
G1 X100.90 Y118.90 E867.339 F3600
G1 X128.90 Y90.90 E872.996 F3600
G1 X128.90 Y90.19 E873.097 F3600
G1 X100.19 Y118.90 E878.898 F3600
G1 X99.48 Y118.90 E878.999 F3600
G1 X128.90 Y89.48 E884.941 F3600
G1 X128.90 Y88.78 E885.043 F3600
G1 X98.78 Y118.90 E891.129 F3600
G1 X98.07 Y118.90 E891.229 F3600
G1 X128.90 Y88.07 E897.458 F3600
G1 X128.90 Y87.36 E897.559 F3600
G1 X97.36 Y118.90 E903.931 F3600
G1 X96.66 Y118.90 E904.032 F3600
G1 X128.90 Y86.66 E910.546 F3600
G1 X128.90 Y85.95 E910.647 F3600
G1 X95.95 Y118.90 E917.304 F3600
G1 X95.24 Y118.90 E917.405 F3600
G1 X128.90 Y85.24 E924.205 F3600
G1 X128.90 Y84.53 E924.306 F3600
G1 X94.53 Y118.90 E931.249 F3600
G1 X93.83 Y118.90 E931.350 F3600
G1 X128.90 Y83.83 E938.436 F3600
G1 X128.90 Y83.12 E938.537 F3600
G1 X93.12 Y118.90 E945.766 F3600
G1 X92.41 Y118.90 E945.867 F3600
G1 X128.90 Y82.41 E953.239 F3600
G1 X128.90 Y81.71 E953.339 F3600
G1 X91.71 Y118.90 E960.854 F3600
G1 X91.00 Y118.90 E960.955 F3600
G1 X128.80 Y81.10 E968.592 F3600
G1 X128.09 Y81.10 E968.693 F3600
G1 X90.29 Y118.90 E976.329 F3600
G1 X89.58 Y118.90 E976.430 F3600
G1 X127.38 Y81.10 E984.067 F3600
G1 X126.68 Y81.10 E984.168 F3600
G1 X88.88 Y118.90 E991.805 F3600
G1 X88.17 Y118.90 E991.906 F3600
G1 X125.97 Y81.10 E999.543 F3600
G1 X125.26 Y81.10 E999.644 F3600
G1 X87.46 Y118.90 E1007.280 F3600
G1 X86.76 Y118.90 E1007.381 F3600
G1 X124.56 Y81.10 E1015.018 F3600
G1 X123.85 Y81.10 E1015.119 F3600
G1 X86.05 Y118.90 E1022.756 F3600
G1 X85.34 Y118.90 E1022.857 F3600
G1 X123.14 Y81.10 E1030.494 F3600
G1 X122.43 Y81.10 E1030.595 F3600
G1 X84.63 Y118.90 E1038.232 F3600
G1 X83.93 Y118.90 E1038.332 F3600
G1 X121.73 Y81.10 E1045.969 F3600
G1 X121.02 Y81.10 E1046.070 F3600
G1 X83.22 Y118.90 E1053.707 F3600
G1 X82.51 Y118.90 E1053.808 F3600
G1 X120.31 Y81.10 E1061.445 F3600
G1 X119.61 Y81.10 E1061.546 F3600
G1 X81.81 Y118.90 E1069.183 F3600
G1 X81.10 Y118.90 E1069.284 F3600
G1 X118.90 Y81.10 E1076.920 F3600
G1 X118.19 Y81.10 E1077.021 F3600
G1 X80.39 Y118.90 E1084.658 F3600
G1 X79.68 Y118.90 E1084.759 F3600
G1 X117.48 Y81.10 E1092.396 F3600
G1 X116.78 Y81.10 E1092.497 F3600
G1 X78.98 Y118.90 E1100.134 F3600
G1 X78.27 Y118.90 E1100.235 F3600
G1 X116.07 Y81.10 E1107.872 F3600
G1 X115.36 Y81.10 E1107.972 F3600
G1 X77.56 Y118.90 E1115.609 F3600
G1 X76.86 Y118.90 E1115.710 F3600
G1 X114.66 Y81.10 E1123.347 F3600
G1 X113.95 Y81.10 E1123.448 F3600
G1 X76.15 Y118.90 E1131.085 F3600
G1 X75.44 Y118.90 E1131.186 F3600
G1 X113.24 Y81.10 E1138.823 F3600
G1 X112.53 Y81.10 E1138.924 F3600
G1 X74.73 Y118.90 E1146.560 F3600
G1 X74.03 Y118.90 E1146.661 F3600
G1 X111.83 Y81.10 E1154.298 F3600
G1 X111.12 Y81.10 E1154.399 F3600
G1 X73.32 Y118.90 E1162.036 F3600
G1 X72.61 Y118.90 E1162.137 F3600
G1 X110.41 Y81.10 E1169.774 F3600
G1 X109.71 Y81.10 E1169.875 F3600
G1 X71.91 Y118.90 E1177.511 F3600
G1 X71.20 Y118.90 E1177.612 F3600
G1 X109.00 Y81.10 E1185.249 F3600
G1 X108.29 Y81.10 E1185.350 F3600
G1 X71.10 Y118.29 E1192.864 F3600
G1 X71.10 Y117.59 E1192.965 F3600
G1 X107.59 Y81.10 E1200.336 F3600
G1 X106.88 Y81.10 E1200.437 F3600
G1 X71.10 Y116.88 E1207.666 F3600
G1 X71.10 Y116.17 E1207.767 F3600
G1 X106.17 Y81.10 E1214.852 F3600
