tonyhzheng/robotic_deposition/bind_mount/src/robotic_deposition/mpc_lab_robotics/infrastructure/robot/ur5e_control_box_assets/06-18-2019-18-27-42_blocking10ms_lookahead50ms_gain400_rtde_trialuseee.csv
timestamp target_q_0 target_q_1 target_q_2 target_q_3 target_q_4 target_q_5 target_qd_0 target_qd_1 target_qd_2 target_qd_3 target_qd_4 target_qd_5 target_qdd_0 target_qdd_1 target_qdd_2 target_qdd_3 target_qdd_4 target_qdd_5 target_current_0 target_current_1 target_current_2 target_current_3 target_current_4 target_current_5 target_moment_0 target_moment_1 target_moment_2 target_moment_3 target_moment_4 target_moment_5 actual_q_0 actual_q_1 actual_q_2 actual_q_3 actual_q_4 actual_q_5 actual_qd_0 actual_qd_1 actual_qd_2 actual_qd_3 actual_qd_4 actual_qd_5 actual_current_0 actual_current_1 actual_current_2 actual_current_3 actual_current_4 actual_current_5 joint_control_output_0 joint_control_output_1 joint_control_output_2 joint_control_output_3 joint_control_output_4 joint_control_output_5 actual_TCP_pose_0 actual_TCP_pose_1 actual_TCP_pose_2 actual_TCP_pose_3 actual_TCP_pose_4 actual_TCP_pose_5 actual_TCP_speed_0 actual_TCP_speed_1 actual_TCP_speed_2 actual_TCP_speed_3 actual_TCP_speed_4 actual_TCP_speed_5 actual_TCP_force_0 actual_TCP_force_1 actual_TCP_force_2 actual_TCP_force_3 actual_TCP_force_4 actual_TCP_force_5 target_TCP_pose_0 target_TCP_pose_1 target_TCP_pose_2 target_TCP_pose_3 target_TCP_pose_4 target_TCP_pose_5 target_TCP_speed_0 target_TCP_speed_1 target_TCP_speed_2 target_TCP_speed_3 target_TCP_speed_4 target_TCP_speed_5 actual_digital_input_bits joint_temperatures_0 joint_temperatures_1 joint_temperatures_2 joint_temperatures_3 joint_temperatures_4 joint_temperatures_5 actual_execution_time robot_mode joint_mode_0 joint_mode_1 joint_mode_2 joint_mode_3 joint_mode_4 joint_mode_5 safety_mode actual_tool_accelerometer_0 actual_tool_accelerometer_1 actual_tool_accelerometer_2 speed_scaling target_speed_fraction actual_momentum actual_main_voltage actual_robot_voltage actual_robot_current actual_joint_voltage_0 actual_joint_voltage_1 actual_joint_voltage_2 actual_joint_voltage_3 actual_joint_voltage_4 actual_joint_voltage_5 actual_digital_output_bits runtime_state output_int_register_0
19180.748 1.021405182655144e-13 -0.6108785867690969 -2.0943870544433274 -2.53073692321777 1.6697754290362354e-13 0.5236134529113778 -1.5327772459840527e-14 -1.4102600185466093e-13 -6.352469333208435e-13 -6.676019199148153e-14 -8.997088963977988e-14 -1.6684517725632377e-14 0.0 0.0 0.0 0.0 0.0 0.0 6.679694053971299e-17 -1.5214324378178459 2.062332610628201 0.25812468409399325 -0.11705297114519944 -3.0733213702463477e-32 6.633284875623117e-16 -15.108618295263751 20.480039361160784 2.0061321385443107 -0.9097298390919328 -2.3885700023486102e-31 1.021405182655144e-13 -0.6108785867690969 -2.0943870544433274 -2.53073692321777 1.6697754290362354e-13 0.5236134529113778 -1.5327772459840527e-14 -1.4102600185466093e-13 -6.352469333208435e-13 -6.676019199148153e-14 -8.997088963977988e-14 -1.6684517725632377e-14 6.679694053971299e-17 -1.5214324378178459 2.062332610628201 0.25812468409399325 -0.11705297114519944 -3.0733213702463477e-32 6.679694053971299e-17 -1.5214324378178459 2.062332610628201 0.25812468409399325 -0.11705297114519944 -3.0733213702463477e-32 0.0936604223893603 -0.23290000005331166 0.5221723520756242 1.2091996383074792 -1.2091994797401275 1.2091994794919643 1.2192957079589869e-13 -1.4356055830033864e-15 -2.918623428327013e-13 -7.791640985609409e-14 8.597176448649302e-13 2.965882636235723e-14 0.0 0.0 0.0 0.0 0.0 0.0 0.0936604223893603 -0.23290000005331166 0.5221723520756242 1.2091996383074792 -1.2091994797401275 1.2091994794919643 1.2192957079589869e-13 -1.4356055830033864e-15 -2.918623428327013e-13 -7.791640985609409e-14 8.597176448649302e-13 2.965882636235723e-14 0 25.5 25.0 24.5 24.0 23.5 23.5 0.15187 7 253 253 253 253 253 253 1 9.819999999999915 1.2877371298813944e-06 -2.0155356945967844e-09 1.0 1.0 0.0 48.0 1560907662.682841 1 1.021405182655144e-13 -0.6108785867690969 -2.0943870544433274 -2.53073692321777 1.6697754290362354e-13 0.5236134529113778 0 2 0
19180.757999999998 1.021405182655144e-13 -0.6108785867690969 -2.0943870544433274 -2.53073692321777 1.6697754290362354e-13 0.5236134529113778 -1.5327772459840527e-14 -1.4102600185466093e-13 -6.352469333208435e-13 -6.676019199148153e-14 -8.997088963977988e-14 -1.6684517725632377e-14 0.0 0.0 0.0 0.0 0.0 0.0 6.679694053971299e-17 -1.5214324378178459 2.062332610628201 0.25812468409399325 -0.11705297114519944 -3.0733213702463477e-32 6.633284875623117e-16 -15.108618295263751 20.480039361160784 2.0061321385443107 -0.9097298390919328 -2.3885700023486102e-31 1.021405182655144e-13 -0.6108785867690969 -2.0943870544433274 -2.53073692321777 1.6697754290362354e-13 0.5236134529113778 -1.5327772459840527e-14 -1.4102600185466093e-13 -6.352469333208435e-13 -6.676019199148153e-14 -8.997088963977988e-14 -1.6684517725632377e-14 6.679694053971299e-17 -1.5214324378178459 2.062332610628201 0.25812468409399325 -0.11705297114519944 -3.0733213702463477e-32 6.679694053971299e-17 -1.5214324378178459 2.062332610628201 0.25812468409399325 -0.11705297114519944 -3.0733213702463477e-32 0.0936604223893603 -0.23290000005331166 0.5221723520756242 1.2091996383074792 -1.2091994797401275 1.2091994794919643 1.2192957079589869e-13 -1.4356055830033864e-15 -2.918623428327013e-13 -7.791640985609409e-14 8.597176448649302e-13 2.965882636235723e-14 0.0 0.0 0.0 0.0 0.0 0.0 0.0936604223893603 -0.23290000005331166 0.5221723520756242 1.2091996383074792 -1.2091994797401275 1.2091994794919643 1.2192957079589869e-13 -1.4356055830033864e-15 -2.918623428327013e-13 -7.791640985609409e-14 8.597176448649302e-13 2.965882636235723e-14 0 25.5 25.0 24.5 24.0 23.5 23.5 0.128056 7 253 253 253 253 253 253 1 9.819999999999915 1.2877371298813944e-06 -2.0155356945967844e-09 1.0 1.0 0.0 48.0 1560907662.685376 1 1.021405182655144e-13 -0.6108785867690969 -2.0943870544433274 -2.53073692321777 1.6697754290362354e-13 0.5236134529113778 0 2 0
19180.768 1.021405182655144e-13 -0.6108785867690969 -2.0943870544433274 -2.53073692321777 1.6697754290362354e-13 0.5236134529113778 -1.4611462708631188e-14 -1.4102600185466093e-13 -6.352469333208435e-13 -6.676019199148153e-14 -8.576629789347046e-14 -1.6684517725632377e-14 1.766740429560194e-13 0.0 0.0 0.0 1.0370405003503684e-12 0.0 4.2009904264311785e-14 -1.5214324378178505 2.062332610628196 0.25812468409399225 -0.11705297114517027 -6.406722827302354e-27 4.17180278514642e-13 -15.108618295263799 20.48003936116074 2.006132138544303 -0.909729839091706 -4.9792729477652533e-26 1.021405182655144e-13 -0.6108785867690969 -2.0943870544433274 -2.53073692321777 1.6697754290362354e-13 0.5236134529113778 -1.4611462708631188e-14 -1.4102600185466093e-13 -6.352469333208435e-13 -6.676019199148153e-14 -8.576629789347046e-14 -1.6684517725632377e-14 4.2009904264311785e-14 -1.5214324378178505 2.062332610628196 0.25812468409399225 -0.11705297114517027 -6.406722827302354e-27 4.2009904264311785e-14 -1.5214324378178505 2.062332610628196 0.25812468409399225 -0.11705297114517027 -6.406722827302354e-27 0.0936604223893603 -0.23290000005331166 0.5221723520756242 1.2091996383074792 -1.2091994797401275 1.2091994794919643 1.2188700529744388e-13 -1.3685157090690686e-15 -2.922250115451192e-13 -7.427515772338446e-14 8.597176448662241e-13 2.8272786318891378e-14 0.0 0.0 0.0 0.0 0.0 0.0 0.0936604223893603 -0.23290000005331166 0.5221723520756242 1.2091996383074792 -1.2091994797401275 1.2091994794919643 1.2188700529744388e-13 -1.3685157090690686e-15 -2.922250115451192e-13 -7.427515772338446e-14 8.597176448662241e-13 2.8272786318891378e-14 0 25.5 25.0 24.5 24.0 23.5 23.5 0.582804 7 253 253 253 253 253 253 1 9.819999999999915 1.2877371298813944e-06 -2.0155356945967844e-09 1.0 1.0 0.0 48.0 1560907662.696762 1 1.021405182655144e-13 -0.6108785867690969 -2.0943870544433274 -2.53073692321777 1.6697754290362354e-13 0.5236134529113778 0 2 0
19180.778 1.021405182655144e-13 -0.6108785867690969 -2.0943870544433274 -2.53073692321777 1.6697754290362354e-13 0.5236134529113778 -1.20179365020675e-14 -1.4102600185466093e-13 -6.352469333208435e-13 -6.676019199148153e-14 -7.05428294658184e-14 -1.6684517725632377e-14 2.5037368101271546e-13 0.0 0.0 0.0 1.469642303349734e-12 0.0 5.953249218943031e-14 -1.5214324378178539 2.0623326106281934 0.2581246840939918 -0.11705297114515807 -9.079268783555299e-27 5.911887234019658e-13 -15.108618295263833 20.48003936116071 2.0061321385442996 -0.9097298390916113 -7.056362302235261e-26 1.021405182655144e-13 -0.6108785867690969 -2.0943870544433274 -2.53073692321777 1.6697754290362354e-13 0.5236134529113778 -1.20179365020675e-14 -1.4102600185466093e-13 -6.352469333208435e-13 -6.676019199148153e-14 -7.05428294658184e-14 -1.6684517725632377e-14 5.953249218943031e-14 -1.5214324378178539 2.0623326106281934 0.2581246840939918 -0.11705297114515807 -9.079268783555299e-27 5.953249218943031e-14 -1.5214324378178539 2.0623326106281934 0.2581246840939918 -0.11705297114515807 -9.079268783555299e-27 0.0936604223893603 -0.23290000005331166 0.5221723520756242 1.2091996383074792 -1.2091994797401275 1.2091994794919643 1.2173288937824609e-13 -1.1256049488149387e-15 -2.9353811779331484e-13 -6.109136005073723e-14 8.597176448709091e-13 2.325438307922262e-14 0.0 0.0 0.0 0.0 0.0 0.0 0.0936604223893603 -0.23290000005331166 0.5221723520756242 1.2091996383074792 -1.2091994797401275 1.2091994794919643 1.2173288937824609e-13 -1.1256049488149387e-15 -2.9353811779331484e-13 -6.109136005073723e-14 8.597176448709091e-13 2.325438307922262e-14 0 25.5 25.0 24.5 24.0 23.5 23.5 0.67157 7 253 253 253 253 253 253 1 9.819999999999915 1.2877371298813944e-06 -2.0155356945967844e-09 1.0 1.0 0.0 48.0 1560907662.707402 1 1.021405182655144e-13 -0.6108785867690969 -2.0943870544433274 -2.53073692321777 1.6697754290362354e-13 0.5236134529113778 0 2 0
19180.788 1.021405182655144e-13 -0.6108785867690969 -2.0943870544433274 -2.53073692321777 1.6697754290362354e-13 0.5236134529113778 -9.799097320486489e-15 -1.4102600185466093e-13 -6.352469333208435e-13 -6.676019199148153e-14 -5.75186972471619e-14 -1.6684517725632377e-14 2.0414786401225895e-13 0.0 0.0 0.0 1.1983062112493641e-12 0.0 4.856051453321074e-14 -1.5214324378178523 2.062332610628195 0.25812468409399203 -0.11705297114516573 -7.402985047563077e-27 4.82231257903369e-13 -15.108618295263815 20.480039361160728 2.006132138544302 -0.9097298390916708 -5.753562964040787e-26 1.021405182655144e-13 -0.6108785867690969 -2.0943870544433274 -2.53073692321777 1.6697754290362354e-13 0.5236134529113778 -9.799097320486489e-15 -1.4102600185466093e-13 -6.352469333208435e-13 -6.676019199148153e-14 -5.75186972471619e-14 -1.6684517725632377e-14 4.856051453321074e-14 -1.5214324378178523 2.062332610628195 0.25812468409399203 -0.11705297114516573 -7.402985047563077e-27 4.856051453321074e-14 -1.5214324378178523 2.062332610628195 0.25812468409399203 -0.11705297114516573 -7.402985047563077e-27 0.0936604223893603 -0.23290000005331166 0.5221723520756242 1.2091996383074792 -1.2091994797401275 1.2091994794919643 1.216010386033605e-13 -9.177875336234335e-16 -2.946615194330213e-13 -4.98122271219572e-14 8.597176448749172e-13 1.8960989124316843e-14 0.0 0.0 0.0 0.0 0.0 0.0 0.0936604223893603 -0.23290000005331166 0.5221723520756242 1.2091996383074792 -1.2091994797401275 1.2091994794919643 1.216010386033605e-13 -9.177875336234335e-16 -2.946615194330213e-13 -4.98122271219572e-14 8.597176448749172e-13 1.8960989124316843e-14 0 25.5 25.0 24.5 24.0 23.5 23.5 0.635731 7 253 253 253 253 253 253 1 9.819999999999915 1.2877371298813944e-06 -2.0155356945967844e-09 1.0 1.0 0.0 48.0 1560907662.718056 1 1.021405182655144e-13 -0.6108785867690969 -2.0943870544433274 -2.53073692321777 1.6697754290362354e-13 0.5236134529113778 0 2 0
19180.798 1.021405182655144e-13 -0.6108785867690969 -2.0943870544433274 -2.53073692321777 1.6697754290362354e-13 0.5236134529113778 -7.989916428651995e-15 -1.4102600185466093e-13 -6.352469333208435e-13 -6.676019199148153e-14 -4.6899175409653194e-14 -1.6684517725632377e-14 1.6645659484732837e-13 0.0 0.0 0.0 9.77066169533839e-13 0.0 3.959222317136225e-14 -1.5214324378178505 2.062332610628196 0.2581246840939923 -0.11705297114517198 -6.036190006969211e-27 3.9317144323212264e-13 -15.108618295263799 20.48003936116074 2.0061321385443036 -0.9097298390917193 -4.6912966924664367e-26 1.021405182655144e-13 -0.6108785867690969 -2.0943870544433274 -2.53073692321777 1.6697754290362354e-13 0.5236134529113778 -7.989916428651995e-15 -1.4102600185466093e-13 -6.352469333208435e-13 -6.676019199148153e-14 -4.6899175409653194e-14 -1.6684517725632377e-14 3.959222317136225e-14 -1.5214324378178505 2.062332610628196 0.2581246840939923 -0.11705297114517198 -6.036190006969211e-27 3.959222317136225e-14 -1.5214324378178505 2.062332610628196 0.2581246840939923 -0.11705297114517198 -6.036190006969211e-27 0.0936604223893603 -0.23290000005331166 0.5221723520756242 1.2091996383074792 -1.2091994797401275 1.2091994794919643 1.2149353108119453e-13 -7.483388869274588e-16 -2.955775104598989e-13 -4.061553006495368e-14 8.597176448781853e-13 1.5460272908011945e-14 0.0 0.0 0.0 0.0 0.0 0.0 0.0936604223893603 -0.23290000005331166 0.5221723520756242 1.2091996383074792 -1.2091994797401275 1.2091994794919643 1.2149353108119453e-13 -7.483388869274588e-16 -2.955775104598989e-13 -4.061553006495368e-14 8.597176448781853e-13 1.5460272908011945e-14 0 25.5 25.0 24.5 24.0 23.5 23.5 0.634787 7 253 253 253 253 253 253 1 9.819999999999915 1.2877371298813944e-06 -2.0155356945967844e-09 1.0 1.0 0.0 48.0 1560907662.728726 1 1.021405182655144e-13 -0.6108785867690969 -2.0943870544433274 -2.53073692321777 1.6697754290362354e-13 0.5236134529113778 0 2 0
19180.808 1.021405182655144e-13 -0.6108785867690969 -2.0943870544433274 -2.53073692321777 1.6697754290362354e-13 0.5236134529113778 -6.514759722140771e-15 -1.4102600185466093e-13 -6.352469333208435e-13 -6.676019199148153e-14 -3.824030722834129e-14 -1.6684517725632377e-14 1.357241629846507e-13 0.0 0.0 0.0 7.96673079623101e-13 0.0 3.2323734619060935e-14 -1.5214324378178503 2.062332610628197 0.2581246840939925 -0.117052971145177 -4.921743279700086e-27 3.2099155775674626e-13 -15.108618295263796 20.480039361160745 2.006132138544305 -0.9097298390917584 -3.825154268266509e-26 1.021405182655144e-13 -0.6108785867690969 -2.0943870544433274 -2.53073692321777 1.6697754290362354e-13 0.5236134529113778 -6.514759722140771e-15 -1.4102600185466093e-13 -6.352469333208435e-13 -6.676019199148153e-14 -3.824030722834129e-14 -1.6684517725632377e-14 3.2323734619060935e-14 -1.5214324378178503 2.062332610628197 0.2581246840939925 -0.117052971145177 -4.921743279700086e-27 3.2323734619060935e-14 -1.5214324378178503 2.062332610628197 0.2581246840939925 -0.117052971145177 -4.921743279700086e-27 0.0936604223893603 -0.23290000005331166 0.5221723520756242 1.2091996383074792 -1.2091994797401275 1.2091994794919643 1.2140587238269773e-13 -6.101750865518328e-16 -2.963243845356207e-13 -3.311679436493518e-14 8.597176448808501e-13 1.260588447876078e-14 0.0 0.0 0.0 0.0 0.0 0.0 0.0936604223893603 -0.23290000005331166 0.5221723520756242 1.2091996383074792 -1.2091994797401275 1.2091994794919643 1.2140587238269773e-13 -6.101750865518328e-16 -2.963243845356207e-13 -3.311679436493518e-14 8.597176448808501e-13 1.260588447876078e-14 0 25.5 25.0 24.5 24.0 23.5 23.5 0.637342 7 253 253 253 253 253 253 1 9.819999999999915 1.2877371298813944e-06 -2.0155356945967844e-09 1.0 1.0 0.0 48.0 1560907662.739625 1 1.021405182655144e-13 -0.6108785867690969 -2.0943870544433274 -2.53073692321777 1.6697754290362354e-13 0.5236134529113778 0 2 0
19180.818 1.021405182655144e-13 -0.6108785867690969 -2.0943870544433274 -2.53073692321777 1.6697754290362354e-13 0.5236134529113778 -5.311957217102984e-15 -1.4102600185466093e-13 -6.352469333208435e-13 -6.676019199148153e-14 -3.1180102510223325e-14 -1.6684517725632377e-14 1.1066577707407295e-13 0.0 0.0 0.0 6.495854790458739e-13 0.0 2.650727057874575e-14 -1.5214324378178492 2.062332610628198 0.2581246840939926 -0.11705297114518118 -4.0130542652997035e-27 2.632310336421874e-13 -15.108618295263785 20.480039361160753 2.006132138544306 -0.9097298390917908 -3.1189257097196034e-26 1.021405182655144e-13 -0.6108785867690969 -2.0943870544433274 -2.53073692321777 1.6697754290362354e-13 0.5236134529113778 -5.311957217102984e-15 -1.4102600185466093e-13 -6.352469333208435e-13 -6.676019199148153e-14 -3.1180102510223325e-14 -1.6684517725632377e-14 2.650727057874575e-14 -1.5214324378178492 2.062332610628198 0.2581246840939926 -0.11705297114518118 -4.0130542652997035e-27 2.650727057874575e-14 -1.5214324378178492 2.062332610628198 0.2581246840939926 -0.11705297114518118 -4.0130542652997035e-27 0.0936604223893603 -0.23290000005331166 0.5221723520756242 1.2091996383074792 -1.2091994797401275 1.2091994794919643 1.2133439787312532e-13 -4.975200957540269e-16 -2.969333652664548e-13 -2.70025299991311e-14 8.597176448830228e-13 1.0278494081591452e-14 0.0 0.0 0.0 0.0 0.0 0.0 0.0936604223893603 -0.23290000005331166 0.5221723520756242 1.2091996383074792 -1.2091994797401275 1.2091994794919643 1.2133439787312532e-13 -4.975200957540269e-16 -2.969333652664548e-13 -2.70025299991311e-14 8.597176448830228e-13 1.0278494081591452e-14 0 25.5 25.0 24.5 24.0 23.5 23.5 0.641547 7 253 253 253 253 253 253 1 9.819999999999915 1.2877371298813944e-06 -2.0155356945967844e-09 1.0 1.0 0.0 48.0 1560907662.749966 1 1.021405182655144e-13 -0.6108785867690969 -2.0943870544433274 -2.53073692321777 1.6697754290362354e-13 0.5236134529113778 0 2 0
19180.827999999998 1.021405182655144e-13 -0.6108785867690969 -2.0943870544433274 -2.53073692321777 1.6697754290362354e-13 0.5236134529113778 -4.3312248923680036e-15 -1.4102600185466093e-13 -6.352469333208435e-13 -6.676019199148153e-14 -2.542340433466763e-14 -1.6684517725632377e-14 9.023385332494693e-14 0.0 0.0 0.0 5.296542651935615e-13 0.0 2.1404163903723547e-14 -1.5214324378178483 2.0623326106281983 0.2581246840939927 -0.1170529711451845 -3.27213433132913e-27 2.125545205375326e-13 -15.108618295263776 20.480039361160756 2.0061321385443067 -0.9097298390918167 -2.543086441637343e-26 1.021405182655144e-13 -0.6108785867690969 -2.0943870544433274 -2.53073692321777 1.6697754290362354e-13 0.5236134529113778 -4.3312248923680036e-15 -1.4102600185466093e-13 -6.352469333208435e-13 -6.676019199148153e-14 -2.542340433466763e-14 -1.6684517725632377e-14 2.1404163903723547e-14 -1.5214324378178483 2.0623326106281983 0.2581246840939927 -0.1170529711451845 -3.27213433132913e-27 2.1404163903723547e-14 -1.5214324378178483 2.0623326106281983 0.2581246840939927 -0.1170529711451845 -3.27213433132913e-27 0.0936604223893603 -0.23290000005331166 0.5221723520756242 1.2091996383074792 -1.2091994797401275 1.2091994794919643 1.2127611950935515e-13 -4.05664291866539e-16 -2.9742991152851214e-13 -2.2017125761607475e-14 8.597176448847944e-13 8.380803492137532e-15 0.0 0.0 0.0 0.0 0.0 0.0 0.0936604223893603 -0.23290000005331166 0.5221723520756242 1.2091996383074792 -1.2091994797401275 1.2091994794919643 1.2127611950935515e-13 -4.05664291866539e-16 -2.9742991152851214e-13 -2.2017125761607475e-14 8.597176448847944e-13 8.380803492137532e-15 0 25.5 25.0 24.5 24.0 23.5 23.5 0.588504 7 253 253 253 253 253 253 1 9.819999999999915 1.2877371298813944e-06 -2.0155356945967844e-09 1.0 1.0 0.0 48.0 1560907662.760563 1 1.021405182655144e-13 -0.6108785867690969 -2.0943870544433274 -2.53073692321777 1.6697754290362354e-13 0.5236134529113778 0 2 0
19180.838 1.021405182655144e-13 -0.6108785867690969 -2.0943870544433274 -2.53073692321777 1.6697754290362354e-13 0.5236134529113778 -3.531562529884079e-15 -1.4102600185466093e-13 -6.352469333208435e-13 -6.676019199148153e-14 -2.072954980670997e-14 -1.6684517725632377e-14 7.357422051460687e-14 0.0 0.0 0.0 4.318656276765597e-13 0.0 1.7565197478904797e-14 -1.5214324378178483 2.0623326106281987 0.25812468409399275 -0.11705297114518731 -2.6680086313640937e-27 1.7443157999860864e-13 -15.108618295263776 20.480039361160763 2.006132138544307 -0.9097298390918386 -2.073562968253017e-26 1.021405182655144e-13 -0.6108785867690969 -2.0943870544433274 -2.53073692321777 1.6697754290362354e-13 0.5236134529113778 -3.531562529884079e-15 -1.4102600185466093e-13 -6.352469333208435e-13 -6.676019199148153e-14 -2.072954980670997e-14 -1.6684517725632377e-14 1.7565197478904797e-14 -1.5214324378178483 2.0623326106281987 0.25812468409399275 -0.11705297114518731 -2.6680086313640937e-27 1.7565197478904797e-14 -1.5214324378178483 2.0623326106281987 0.25812468409399275 -0.11705297114518731 -2.6680086313640937e-27 0.0936604223893603 -0.23290000005331166 0.5221723520756242 1.2091996383074792 -1.2091994797401275 1.2091994794919643 1.2122860092260242e-13 -3.30767577144326e-16 -2.978347817943175e-13 -1.7952163253521717e-14 8.597176448862389e-13 6.833478394602597e-15 0.0 0.0 0.0 0.0 0.0 0.0 0.0936604223893603 -0.23290000005331166 0.5221723520756242 1.2091996383074792 -1.2091994797401275 1.2091994794919643 1.2122860092260242e-13 -3.30767577144326e-16 -2.978347817943175e-13 -1.7952163253521717e-14 8.597176448862389e-13 6.833478394602597e-15 0 25.5 25.0 24.5 24.0 23.5 23.5 0.634184 7 253 253 253 253 253 253 1 9.819999999999915 1.2877371298813944e-06 -2.0155356945967844e-09 1.0 1.0 0.0 48.0 1560907662.771258 1 1.021405182655144e-13 -0.6108785867690969 -2.0943870544433274 -2.53073692321777 1.6697754290362354e-13 0.5236134529113778 0 2 0
19180.847999999998 1.021405182655144e-13 -0.6108785867690969 -2.0943870544433274 -2.53073692321777 1.6697754290362354e-13 0.5236134529113778 -2.8795396712042888e-15 -1.4102600185466093e-13 -6.352469333208435e-13 -6.676019199148153e-14 -1.6902308972166526e-14 -1.6684517725632377e-14 5.999041074792922e-14 0.0 0.0 0.0 3.52131442385936e-13 0.0 1.4229979327277028e-14 -1.5214324378178472 2.0623326106281996 0.25812468409399286 -0.11705297114518952 -2.175421152747942e-27 1.4131112276906973e-13 -15.108618295263765 20.48003936116077 2.006132138544308 -0.9097298390918558 -1.690726442809937e-26 1.021405182655144e-13 -0.6108785867690969 -2.0943870544433274 -2.53073692321777 1.6697754290362354e-13 0.5236134529113778 -2.8795396712042888e-15 -1.4102600185466093e-13 -6.352469333208435e-13 -6.676019199148153e-14 -1.6902308972166526e-14 -1.6684517725632377e-14 1.4229979327277028e-14 -1.5214324378178472 2.0623326106281996 0.25812468409399286 -0.11705297114518952 -2.175421152747942e-27 1.4229979327277028e-14 -1.5214324378178472 2.0623326106281996 0.25812468409399286 -0.11705297114518952 -2.175421152747942e-27 0.0936604223893603 -0.23290000005331166 0.5221723520756242 1.2091996383074792 -1.2091994797401275 1.2091994794919643 1.2118985556427556e-13 -2.6969884072510535e-16 -2.9816490195563765e-13 -1.4637703802516275e-14 8.597176448874168e-13 5.571831753803045e-15 0.0 0.0 0.0 0.0 0.0 0.0 0.0936604223893603 -0.23290000005331166 0.5221723520756242 1.2091996383074792 -1.2091994797401275 1.2091994794919643 1.2118985556427556e-13 -2.6969884072510535e-16 -2.9816490195563765e-13 -1.4637703802516275e-14 8.597176448874168e-13 5.571831753803045e-15 0 25.5 25.0 24.5 24.0 23.5 23.5 0.633751 7 253 253 253 253 253 253 1 9.819999999999915 1.2877371298813944e-06 -2.0155356945967844e-09 1.0 1.0 0.0 48.0 1560907662.781952 1 1.021405182655144e-13 -0.6108785867690969 -2.0943870544433274 -2.53073692321777 1.6697754290362354e-13 0.5236134529113778 0 2 0
19180.858 1.021405182655144e-13 -0.6108785867690969 -2.0943870544433274 -2.53073692321777 1.6697754290362354e-13 0.5236134529113778 -2.347898033200481e-15 -1.4102600185466093e-13 -6.352469333208435e-13 -6.676019199148153e-14 -1.3781681283696089e-14 -1.6684517725632377e-14 4.891454311759744e-14 0.0 0.0 0.0 2.8711836453366737e-13 0.0 1.164674783017629e-14 -1.521432437817848 2.0623326106281996 0.258124684093993 -0.11705297114519136 -1.773778853199789e-27 1.1565828555601793e-13 -15.108618295263772 20.48003936116077 2.006132138544309 -0.90972983909187 -1.37857205581261e-26 1.021405182655144e-13 -0.6108785867690969 -2.0943870544433274 -2.53073692321777 1.6697754290362354e-13 0.5236134529113778 -2.347898033200481e-15 -1.4102600185466093e-13 -6.352469333208435e-13 -6.676019199148153e-14 -1.3781681283696089e-14 -1.6684517725632377e-14 1.164674783017629e-14 -1.521432437817848 2.0623326106281996 0.258124684093993 -0.11705297114519136 -1.773778853199789e-27 1.164674783017629e-14 -1.521432437817848 2.0623326106281996 0.258124684093993 -0.11705297114519136 -1.773778853199789e-27 0.0936604223893603 -0.23290000005331166 0.5221723520756242 1.2091996383074792 -1.2091994797401275 1.2091994794919643 1.2115826365688806e-13 -2.199050602946532e-16 -2.984340729225232e-13 -1.1935184054669271e-14 8.597176448883772e-13 4.543119527279541e-15 0.0 0.0 0.0 0.0 0.0 0.0 0.0936604223893603 -0.23290000005331166 0.5221723520756242 1.2091996383074792 -1.2091994797401275 1.2091994794919643 1.2115826365688806e-13 -2.199050602946532e-16 -2.984340729225232e-13 -1.1935184054669271e-14 8.597176448883772e-13 4.543119527279541e-15 0 25.5 25.0 24.5 24.0 23.5 23.5 0.733716 7 253 253 253 253 253 253 1 9.819999999999915 1.2877371298813944e-06 -2.0155356945967844e-09 1.0 1.0 0.0 48.0 1560907662.792749 1 1.021405182655144e-13 -0.6108785867690969 -2.0943870544433274 -2.53073692321777 1.6697754290362354e-13 0.5236134529113778 0 2 0
19180.868 1.021405182655144e-13 -0.6108785867690969 -2.0943870544433274 -2.53073692321777 1.6697754290362354e-13 0.5236134529113778 -1.9144119559919673e-15 -1.4102600185466093e-13 -6.352469333208435e-13 -6.676019199148153e-14 -1.1237206663193155e-14 -1.6684517725632377e-14 3.9883583035573753e-14 0.0 0.0 0.0 2.3410847578369903e-13 0.0 9.279008261433825e-15 -1.521432437817847 2.0623326106281996 0.258124684093993 -0.11705297114519284 -1.4462907421666215e-27 9.214539567835036e-14 -15.108618295263762 20.48003936116077 2.006132138544309 -0.9097298390918815 -1.1240499333581876e-26 1.021405182655144e-13 -0.6108785867690969 -2.0943870544433274 -2.53073692321777 1.6697754290362354e-13 0.5236134529113778 -1.9144119559919673e-15 -1.4102600185466093e-13 -6.352469333208435e-13 -6.676019199148153e-14 -1.1237206663193155e-14 -1.6684517725632377e-14 9.279008261433825e-15 -1.521432437817847 2.0623326106281996 0.258124684093993 -0.11705297114519284 -1.4462907421666215e-27 9.279008261433825e-15 -1.521432437817847 2.0623326106281996 0.258124684093993 -0.11705297114519284 -1.4462907421666215e-27 0.0936604223893603 -0.23290000005331166 0.5221723520756242 1.2091996383074792 -1.2091994797401275 1.2091994794919643 1.2113250447809922e-13 -1.7930457115835235e-16 -2.9865354758024894e-13 -9.731623234129615e-15 8.597176448891602e-13 3.704335662783014e-15 0.0 0.0 0.0 0.0 0.0 0.0 0.0936604223893603 -0.23290000005331166 0.5221723520756242 1.2091996383074792 -1.2091994797401275 1.2091994794919643 1.2113250447809922e-13 -1.7930457115835235e-16 -2.9865354758024894e-13 -9.731623234129615e-15 8.597176448891602e-13 3.704335662783014e-15 0 25.5 25.0 24.5 24.0 23.5 23.5 0.811967 7 253 253 253 253 253 253 1 9.819999999999915 1.2877371298813944e-06 -2.0155356945967844e-09 1.0 1.0 0.0 48.0 1560907662.802878 1 1.021405182655144e-13 -0.6108785867690969 -2.0943870544433274 -2.53073692321777 1.6697754290362354e-13 0.5236134529113778 0 2 0
19180.878 1.021405182655144e-13 -0.6108785867690969 -2.0943870544433274 -2.53073692321777 1.6697754290362354e-13 0.5236134529113778 -1.5609592432977926e-15 -1.4102600185466093e-13 -6.352469333208435e-13 -6.676019199148153e-14 -9.162511524678585e-15 -1.6684517725632377e-14 3.2519984740144964e-14 0.0 0.0 0.0 1.9088565972707408e-13 0.0 7.769463058350459e-15 -1.521432437817847 2.0623326106282 0.258124684093993 -0.11705297114519407 -1.179265913612094e-27 7.715482382913652e-14 -15.108618295263762 20.480039361160777 2.006132138544309 -0.9097298390918911 -9.165195717297514e-27 1.021405182655144e-13 -0.6108785867690969 -2.0943870544433274 -2.53073692321777 1.6697754290362354e-13 0.5236134529113778 -1.5609592432977926e-15 -1.4102600185466093e-13 -6.352469333208435e-13 -6.676019199148153e-14 -9.162511524678585e-15 -1.6684517725632377e-14 7.769463058350459e-15 -1.521432437817847 2.0623326106282 0.258124684093993 -0.11705297114519407 -1.179265913612094e-27 7.769463058350459e-15 -1.521432437817847 2.0623326106282 0.258124684093993 -0.11705297114519407 -1.179265913612094e-27 0.0936604223893603 -0.23290000005331166 0.5221723520756242 1.2091996383074792 -1.2091994797401275 1.2091994794919643 1.2111150114696958e-13 -1.462000407560226e-16 -2.988325012242514e-13 -7.934899900771639e-15 8.597176448897987e-13 3.020414199423536e-15 0.0 0.0 0.0 0.0 0.0 0.0 0.0936604223893603 -0.23290000005331166 0.5221723520756242 1.2091996383074792 -1.2091994797401275 1.2091994794919643 1.2111150114696958e-13 -1.462000407560226e-16 -2.988325012242514e-13 -7.934899900771639e-15 8.597176448897987e-13 3.020414199423536e-15 0 25.5 25.0 24.5 24.0 23.5 23.5 0.759385 7 253 253 253 253 253 253 1 9.819999999999915 1.2877371298813944e-06 -2.0155356945967844e-09 1.0 1.0 0.0 48.0 1560907662.813533 1 1.021405182655144e-13 -0.6108785867690969 -2.0943870544433274 -2.53073692321777 1.6697754290362354e-13 0.5236134529113778 0 2 0
19180.888 1.021405182655144e-13 -0.6108785867690969 -2.0943870544433274 -2.53073692321777 1.6697754290362354e-13 0.5236134529113778 -1.272763551026965e-15 -1.4102600185466093e-13 -6.352469333208435e-13 -6.676019199148153e-14 -7.470861750264546e-15 -1.6684517725632377e-14 2.6515907724642372e-14 0.0 0.0 0.0 1.5564295554640743e-13 0.0 6.432668937094481e-15 -1.521432437817847 2.0623326106282 0.25812468409399303 -0.11705297114519504 -9.615411826793794e-28 6.387976039853336e-14 -15.108618295263762 20.480039361160777 2.0061321385443094 -0.9097298390918986 -7.473049994725003e-27 1.021405182655144e-13 -0.6108785867690969 -2.0943870544433274 -2.53073692321777 1.6697754290362354e-13 0.5236134529113778 -1.272763551026965e-15 -1.4102600185466093e-13 -6.352469333208435e-13 -6.676019199148153e-14 -7.470861750264546e-15 -1.6684517725632377e-14 6.432668937094481e-15 -1.521432437817847 2.0623326106282 0.25812468409399303 -0.11705297114519504 -9.615411826793794e-28 6.432668937094481e-15 -1.521432437817847 2.0623326106282 0.25812468409399303 -0.11705297114519504 -9.615411826793794e-28 0.0936604223893603 -0.23290000005331166 0.5221723520756242 1.2091996383074792 -1.2091994797401275 1.2091994794919643 1.2109437560418124e-13 -1.1920751045719565e-16 -2.9897841513993354e-13 -6.469900747336686e-15 8.597176448903193e-13 2.4627633100319812e-15 0.0 0.0 0.0 0.0 0.0 0.0 0.0936604223893603 -0.23290000005331166 0.5221723520756242 1.2091996383074792 -1.2091994797401275 1.2091994794919643 1.2109437560418124e-13 -1.1920751045719565e-16 -2.9897841513993354e-13 -6.469900747336686e-15 8.597176448903193e-13 2.4627633100319812e-15 0 25.5 25.0 24.5 24.0 23.5 23.5 0.611205 7 253 253 253 253 253 253 1 9.819999999999915 1.2877371298813944e-06 -2.0155356945967844e-09 1.0 1.0 0.0 48.0 1560907662.824014 1 1.021405182655144e-13 -0.6108785867690969 -2.0943870544433274 -2.53073692321777 1.6697754290362354e-13 0.5236134529113778 0 2 0
19180.897999999997 1.021405182655144e-13 -0.6108785867690969 -2.0943870544433274 -2.53073692321777 1.6697754290362354e-13 0.5236134529113778 -1.0377766516186537e-15 -1.4102600185466093e-13 -6.352469333208435e-13 -6.676019199148153e-14 -6.091536708165192e-15 -1.6684517725632377e-14 2.1620347244312312e-14 0.0 0.0 0.0 1.2690701672329394e-13 0.0 5.309657652670112e-15 -1.521432437817847 2.0623326106282 0.2581246840939931 -0.11705297114519587 -7.840143972912134e-28 5.272767213230891e-14 -15.108618295263762 20.480039361160777 2.00613213854431 -0.9097298390919052 -6.093320695027447e-27 1.021405182655144e-13 -0.6108785867690969 -2.0943870544433274 -2.53073692321777 1.6697754290362354e-13 0.5236134529113778 -1.0377766516186537e-15 -1.4102600185466093e-13 -6.352469333208435e-13 -6.676019199148153e-14 -6.091536708165192e-15 -1.6684517725632377e-14 5.309657652670112e-15 -1.521432437817847 2.0623326106282 0.2581246840939931 -0.11705297114519587 -7.840143972912134e-28 5.309657652670112e-15 -1.521432437817847 2.0623326106282 0.2581246840939931 -0.11705297114519587 -7.840143972912134e-28 0.0936604223893603 -0.23290000005331166 0.5221723520756242 1.2091996383074792 -1.2091994797401275 1.2091994794919643 1.2108041190413838e-13 -9.719853817822904e-17 -2.990973893631653e-13 -5.275380433764612e-15 8.597176448907437e-13 2.008069999323995e-15 0.0 0.0 0.0 0.0 0.0 0.0 0.0936604223893603 -0.23290000005331166 0.5221723520756242 1.2091996383074792 -1.2091994797401275 1.2091994794919643 1.2108041190413838e-13 -9.719853817822904e-17 -2.990973893631653e-13 -5.275380433764612e-15 8.597176448907437e-13 2.008069999323995e-15 0 25.5 25.0 24.5 24.0 23.5 23.5 0.31044499999999997 7 253 253 253 253 253 253 1 9.819999999999915 1.2877371298813944e-06 -2.0155356945967844e-09 1.0 1.0 0.0 48.0 1560907662.833888 1 1.021405182655144e-13 -0.6108785867690969 -2.0943870544433274 -2.53073692321777 1.6697754290362354e-13 0.5236134529113778 0 2 0
19180.908 1.021405182655144e-13 -0.6108785867690969 -2.0943870544433274 -2.53073692321777 1.6697754290362354e-13 0.5236134529113778 -8.461747492500501e-16 -1.4102600185466093e-13 -6.352469333208435e-13 -6.676019199148153e-14 -4.966872725975711e-15 -1.6684517725632377e-14 1.7628640883005934e-14 0.0 0.0 0.0 1.03476516730656e-13 0.0 4.271519808923802e-15 -1.521432437817847 2.0623326106282 0.2581246840939931 -0.11705297114519655 -6.392639138603409e-28 4.2418421435953615e-14 -15.108618295263762 20.480039361160777 2.00613213854431 -0.9097298390919104 -4.968327175326877e-27 1.021405182655144e-13 -0.6108785867690969 -2.0943870544433274 -2.53073692321777 1.6697754290362354e-13 0.5236134529113778 -8.461747492500501e-16 -1.4102600185466093e-13 -6.352469333208435e-13 -6.676019199148153e-14 -4.966872725975711e-15 -1.6684517725632377e-14 4.271519808923802e-15 -1.521432437817847 2.0623326106282 0.2581246840939931 -0.11705297114519655 -6.392639138603409e-28 4.271519808923802e-15 -1.521432437817847 2.0623326106282 0.2581246840939931 -0.11705297114519655 -6.392639138603409e-28 0.0936604223893603 -0.23290000005331166 0.5221723520756242 1.2091996383074792 -1.2091994797401275 1.2091994794919643 1.2106902628434828e-13 -7.925302305187082e-17 -2.9919439769665725e-13 -4.301401181837548e-15 8.597176448910898e-13 1.6373254874158683e-15 0.0 0.0 0.0 0.0 0.0 0.0 0.0936604223893603 -0.23290000005331166 0.5221723520756242 1.2091996383074792 -1.2091994797401275 1.2091994794919643 1.2106902628434828e-13 -7.925302305187082e-17 -2.9919439769665725e-13 -4.301401181837548e-15 8.597176448910898e-13 1.6373254874158683e-15 0 25.5 25.0 24.5 24.0 23.5 23.5 0.226489 7 253 253 253 253 253 253 1 9.819999999999915 1.2877371298813944e-06 -2.0155356945967844e-09 1.0 1.0 0.0 48.0 1560907662.8442 1 1.021405182655144e-13 -0.6108785867690969 -2.0943870544433274 -2.53073692321777 1.6697754290362354e-13 0.5236134529113778 0 2 0
19180.917999999998 1.021405182655144e-13 -0.6108785867690969 -2.0943870544433274 -2.53073692321777 1.6697754290362354e-13 0.5236134529113778 -6.8994778900795535e-16 -1.4102600185466093e-13 -6.352469333208435e-13 -6.676019199148153e-14 -4.04985241950089e-15 -1.6684517725632377e-14 1.4373912494110474e-14 0.0 0.0 0.0 8.437192671588831e-14 0.0 3.643829516485678e-15 -1.521432437817847 2.0623326106282 0.2581246840939931 -0.11705297114519707 -5.212383286316137e-28 3.6185129177710396e-14 -15.108618295263762 20.480039361160777 2.00613213854431 -0.9097298390919144 -4.05103822820847e-27 1.021405182655144e-13 -0.6108785867690969 -2.0943870544433274 -2.53073692321777 1.6697754290362354e-13 0.5236134529113778 -6.8994778900795535e-16 -1.4102600185466093e-13 -6.352469333208435e-13 -6.676019199148153e-14 -4.04985241950089e-15 -1.6684517725632377e-14 3.643829516485678e-15 -1.521432437817847 2.0623326106282 0.2581246840939931 -0.11705297114519707 -5.212383286316137e-28 3.643829516485678e-15 -1.521432437817847 2.0623326106282 0.2581246840939931 -0.11705297114519707 -5.212383286316137e-28 0.0936604223893603 -0.23290000005331166 0.5221723520756242 1.2091996383074792 -1.2091994797401275 1.2091994794919643 1.210597427608118e-13 -6.462073995075651e-17 -2.99273495643349e-13 -3.5072450905546347e-15 8.597176448913721e-13 1.335030534151727e-15 0.0 0.0 0.0 0.0 0.0 0.0 0.0936604223893603 -0.23290000005331166 0.5221723520756242 1.2091996383074792 -1.2091994797401275 1.2091994794919643 1.210597427608118e-13 -6.462073995075651e-17 -2.99273495643349e-13 -3.5072450905546347e-15 8.597176448913721e-13 1.335030534151727e-15 0 25.5 25.0 24.5 24.0 23.5 23.5 0.155625 7 253 253 253 253 253 253 1 9.819999999999915 1.2877371298813944e-06 -2.0155356945967844e-09 1.0 1.0 0.0 48.0 1560907662.854601 1 1.021405182655144e-13 -0.6108785867690969 -2.0943870544433274 -2.53073692321777 1.6697754290362354e-13 0.5236134529113778 0 2 0
19180.928 1.021405182655144e-13 -0.6108785867690969 -2.0943870544433274 -2.53073692321777 1.6697754290362354e-13 0.5236134529113778 -5.625645907997886e-16 -1.4102600185466093e-13 -6.352469333208435e-13 -6.676019199148153e-14 -3.3021390972959164e-15 -1.6684517725632377e-14 1.1720095823583213e-14 0.0 0.0 0.0 6.879456559483233e-14 0.0 2.684831748660808e-15 -1.5214324378178465 2.0623326106282 0.2581246840939931 -0.1170529711451975 -4.250034933944029e-28 2.6661780746374625e-14 -15.108618295263758 20.480039361160777 2.00613213854431 -0.9097298390919177 -3.3031059004866296e-27 1.021405182655144e-13 -0.6108785867690969 -2.0943870544433274 -2.53073692321777 1.6697754290362354e-13 0.5236134529113778 -5.625645907997886e-16 -1.4102600185466093e-13 -6.352469333208435e-13 -6.676019199148153e-14 -3.3021390972959164e-15 -1.6684517725632377e-14 2.684831748660808e-15 -1.5214324378178465 2.0623326106282 0.2581246840939931 -0.1170529711451975 -4.250034933944029e-28 2.684831748660808e-15 -1.5214324378178465 2.0623326106282 0.2581246840939931 -0.1170529711451975 -4.250034933944029e-28 0.0936604223893603 -0.23290000005331166 0.5221723520756242 1.2091996383074792 -1.2091994797401275 1.2091994794919643 1.2105217322917084e-13 -5.26899757880353e-17 -2.9933798994961785e-13 -2.859711895084696e-15 8.597176448916022e-13 1.0885474822552756e-15 0.0 0.0 0.0 0.0 0.0 0.0 0.0936604223893603 -0.23290000005331166 0.5221723520756242 1.2091996383074792 -1.2091994797401275 1.2091994794919643 1.2105217322917084e-13 -5.26899757880353e-17 -2.9933798994961785e-13 -2.859711895084696e-15 8.597176448916022e-13 1.0885474822552756e-15 0 25.5 25.0 24.5 24.0 23.5 23.5 0.117842 7 253 253 253 253 253 253 1 9.819999999999915 1.2877371298813944e-06 -2.0155356945967844e-09 1.0 1.0 0.0 48.0 1560907662.864953 1 1.021405182655144e-13 -0.6108785867690969 -2.0943870544433274 -2.53073692321777 1.6697754290362354e-13 0.5236134529113778 0 2 0
19180.938 1.021405182655144e-13 -0.6108785867690969 -2.0943870544433274 -2.53073692321777 1.6697754290362354e-13 0.5236134529113778 -4.586998086866576e-16 -1.4102600185466093e-13 -6.352469333208435e-13 -6.676019199148153e-14 -2.692474067791879e-15 -1.6684517725632377e-14 9.556246162635515e-15 0.0 0.0 0.0 5.6093210616342055e-14 0.0 2.1780835076852137e-15 -1.5214324378178465 2.0623326106282 0.2581246840939931 -0.11705297114519783 -3.465362392039941e-28 2.1629506190905184e-14 -15.108618295263758 20.480039361160777 2.00613213854431 -0.9097298390919204 -2.693262324281482e-27 1.021405182655144e-13 -0.6108785867690969 -2.0943870544433274 -2.53073692321777 1.6697754290362354e-13 0.5236134529113778 -4.586998086866576e-16 -1.4102600185466093e-13 -6.352469333208435e-13 -6.676019199148153e-14 -2.692474067791879e-15 -1.6684517725632377e-14 2.1780835076852137e-15 -1.5214324378178465 2.0623326106282 0.2581246840939931 -0.11705297114519783 -3.465362392039941e-28 2.1780835076852137e-15 -1.5214324378178465 2.0623326106282 0.2581246840939931 -0.11705297114519783 -3.465362392039941e-28 0.0936604223893603 -0.23290000005331166 0.5221723520756242 1.2091996383074792 -1.2091994797401275 1.2091994794919643 1.2104600123972762e-13 -4.296195641314773e-17 -2.993905768461817e-13 -2.331731005889303e-15 8.597176448917898e-13 8.875719310058403e-16 0.0 0.0 0.0 0.0 0.0 0.0 0.0936604223893603 -0.23290000005331166 0.5221723520756242 1.2091996383074792 -1.2091994797401275 1.2091994794919643 1.2104600123972762e-13 -4.296195641314773e-17 -2.993905768461817e-13 -2.331731005889303e-15 8.597176448917898e-13 8.875719310058403e-16 0 25.5 25.0 24.5 24.0 23.5 23.5 0.11440399999999999 7 253 253 253 253 253 253 1 9.819999999999915 1.2877371298813944e-06 -2.0155356945967844e-09 1.0 1.0 0.0 48.0 1560907662.875371 1 1.021405182655144e-13 -0.6108785867690969 -2.0943870544433274 -2.53073692321777 1.6697754290362354e-13 0.5236134529113778 0 2 0
19180.948 1.021405182655144e-13 -0.6108785867690969 -2.0943870544433274 -2.53073692321777 1.6697754290362354e-13 0.5236134529113778 -3.7401130097799435e-16 -1.4102600185466093e-13 -6.352469333208435e-13 -6.676019199148153e-14 -2.1953698472811795e-15 -1.6684517725632377e-14 7.79190222465217e-15 0.0 0.0 0.0 4.573687252829052e-14 0.0 1.8378211476680374e-15 -1.5214324378178459 2.062332610628201 0.2581246840939932 -0.11705297114519812 -2.8255618447111245e-28 1.8250523338982693e-14 -15.108618295263751 20.480039361160784 2.0061321385443103 -0.9097298390919227 -2.1960125379002625e-27 1.021405182655144e-13 -0.6108785867690969 -2.0943870544433274 -2.53073692321777 1.6697754290362354e-13 0.5236134529113778 -3.7401130097799435e-16 -1.4102600185466093e-13 -6.352469333208435e-13 -6.676019199148153e-14 -2.1953698472811795e-15 -1.6684517725632377e-14 1.8378211476680374e-15 -1.5214324378178459 2.062332610628201 0.2581246840939932 -0.11705297114519812 -2.8255618447111245e-28 1.8378211476680374e-15 -1.5214324378178459 2.062332610628201 0.2581246840939932 -0.11705297114519812 -2.8255618447111245e-28 0.0936604223893603 -0.23290000005331166 0.5221723520756242 1.2091996383074792 -1.2091994797401275 1.2091994794919643 1.2104096876803794e-13 -3.502999500082955e-17 -2.9943345476595795e-13 -1.901229803316581e-15 8.597176448919428e-13 7.237019533775703e-16 0.0 0.0 0.0 0.0 0.0 0.0 0.0936604223893603 -0.23290000005331166 0.5221723520756242 1.2091996383074792 -1.2091994797401275 1.2091994794919643 1.2104096876803794e-13 -3.502999500082955e-17 -2.9943345476595795e-13 -1.901229803316581e-15 8.597176448919428e-13 7.237019533775703e-16 0 25.5 25.0 24.5 24.0 23.5 23.5 0.113675 7 253 253 253 253 253 253 1 9.819999999999915 1.2877371298813944e-06 -2.0155356945967844e-09 1.0 1.0 0.0 48.0 1560907662.885845 1 1.021405182655144e-13 -0.6108785867690969 -2.0943870544433274 -2.53073692321777 1.6697754290362354e-13 0.5236134529113778 0 2 0
19180.958 1.021405182655144e-13 -0.6108785867690969 -2.0943870544433274 -2.53073692321777 1.6697754290362354e-13 0.5236134529113778 -3.049586038846738e-16 -1.4102600185466093e-13 -6.352469333208435e-13 -6.676019199148153e-14 -1.7900446373858606e-15 -1.6684517725632377e-14 6.3533043462136926e-15 0.0 0.0 0.0 3.729259719106628e-14 0.0 1.560380508965687e-15 -1.5214324378178459 2.062332610628201 0.2581246840939932 -0.11705297114519837 -2.3038859595871835e-28 1.5495392972654954e-14 -15.108618295263751 20.480039361160784 2.0061321385443103 -0.9097298390919245 -1.7905686483613613e-27 1.021405182655144e-13 -0.6108785867690969 -2.0943870544433274 -2.53073692321777 1.6697754290362354e-13 0.5236134529113778 -3.049586038846738e-16 -1.4102600185466093e-13 -6.352469333208435e-13 -6.676019199148153e-14 -1.7900446373858606e-15 -1.6684517725632377e-14 1.560380508965687e-15 -1.5214324378178459 2.062332610628201 0.2581246840939932 -0.11705297114519837 -2.3038859595871835e-28 1.560380508965687e-15 -1.5214324378178459 2.062332610628201 0.2581246840939932 -0.11705297114519837 -2.3038859595871835e-28 0.0936604223893603 -0.23290000005331166 0.5221723520756242 1.2091996383074792 -1.2091994797401275 1.2091994794919643 1.2103686542801433e-13 -2.8562490216769157e-17 -2.9946841625112764e-13 -1.5502108759099493e-15 8.597176448920675e-13 5.900868474557553e-16 0.0 0.0 0.0 0.0 0.0 0.0 0.0936604223893603 -0.23290000005331166 0.5221723520756242 1.2091996383074792 -1.2091994797401275 1.2091994794919643 1.2103686542801433e-13 -2.8562490216769157e-17 -2.9946841625112764e-13 -1.5502108759099493e-15 8.597176448920675e-13 5.900868474557553e-16 0 25.5 25.0 24.5 24.0 23.5 23.5 0.147788 7 253 253 253 253 253 253 1 9.819999999999915 1.2877371298813944e-06 -2.0155356945967844e-09 1.0 1.0 0.0 48.0 1560907662.896233 1 1.021405182655144e-13 -0.6108785867690969 -2.0943870544433274 -2.53073692321777 1.6697754290362354e-13 0.5236134529113778 0 2 0
19180.968 1.021405182655144e-13 -0.6108785867690969 -2.0943870544433274 -2.53073692321777 1.6697754290362354e-13 0.5236134529113778 -2.48654919891743e-16 -1.4102600185466093e-13 -6.352469333208435e-13 -6.676019199148153e-14 -1.4595535270752613e-15 -1.6684517725632377e-14 5.180310911485621e-15 0.0 0.0 0.0 3.0407365619383916e-14 0.0 1.3341629866236454e-15 -1.5214324378178459 2.062332610628201 0.2581246840939932 -0.11705297114519858 -1.8785256944328947e-28 1.3248934890251818e-14 -15.108618295263751 20.480039361160784 2.0061321385443103 -0.9097298390919261 -1.4599807770847737e-27 1.021405182655144e-13 -0.6108785867690969 -2.0943870544433274 -2.53073692321777 1.6697754290362354e-13 0.5236134529113778 -2.48654919891743e-16 -1.4102600185466093e-13 -6.352469333208435e-13 -6.676019199148153e-14 -1.4595535270752613e-15 -1.6684517725632377e-14 1.3341629866236454e-15 -1.5214324378178459 2.062332610628201 0.2581246840939932 -0.11705297114519858 -1.8785256944328947e-28 1.3341629866236454e-15 -1.5214324378178459 2.062332610628201 0.2581246840939932 -0.11705297114519858 -1.8785256944328947e-28 0.0936604223893603 -0.23290000005331166 0.5221723520756242 1.2091996383074792 -1.2091994797401275 1.2091994794919643 1.2103351967658494e-13 -2.3289063386063546e-17 -2.994969228916468e-13 -1.2639996257175066e-15 8.597176448921693e-13 4.811407379310795e-16 0.0 0.0 0.0 0.0 0.0 0.0 0.0936604223893603 -0.23290000005331166 0.5221723520756242 1.2091996383074792 -1.2091994797401275 1.2091994794919643 1.2103351967658494e-13 -2.3289063386063546e-17 -2.994969228916468e-13 -1.2639996257175066e-15 8.597176448921693e-13 4.811407379310795e-16 0 25.5 25.0 24.5 24.0 23.5 23.5 0.201118 7 253 253 253 253 253 253 1 9.819999999999915 1.2877371298813944e-06 -2.0155356945967844e-09 1.0 1.0 0.0 48.0 1560907662.907042 1 1.021405182655144e-13 -0.6108785867690969 -2.0943870544433274 -2.53073692321777 1.6697754290362354e-13 0.5236134529113778 0 2 0
19180.978 1.021405182655144e-13 -0.6108785867690969 -2.0943870544433274 -2.53073692321777 1.6697754290362354e-13 0.5236134529113778 -2.0274643311834487e-16 -1.4102600185466093e-13 -6.352469333208435e-13 -6.676019199148153e-14 -1.1900800985102107e-15 -1.6684517725632377e-14 4.2238840888598005e-15 0.0 0.0 0.0 2.4793335770471024e-14 0.0 7.919544030086641e-16 -1.5214324378178459 2.062332610628201 0.2581246840939932 -0.11705297114519872 -1.5316985531823514e-28 7.864520622074405e-15 -15.108618295263751 20.480039361160784 2.0061321385443103 -0.9097298390919273 -1.1904284570405577e-27 1.021405182655144e-13 -0.6108785867690969 -2.0943870544433274 -2.53073692321777 1.6697754290362354e-13 0.5236134529113778 -2.0274643311834487e-16 -1.4102600185466093e-13 -6.352469333208435e-13 -6.676019199148153e-14 -1.1900800985102107e-15 -1.6684517725632377e-14 7.919544030086641e-16 -1.5214324378178459 2.062332610628201 0.2581246840939932 -0.11705297114519872 -1.5316985531823514e-28 7.919544030086641e-16 -1.5214324378178459 2.062332610628201 0.2581246840939932 -0.11705297114519872 -1.5316985531823514e-28 0.0936604223893603 -0.23290000005331166 0.5221723520756242 1.2091996383074792 -1.2091994797401275 1.2091994794919643 1.210307916422122e-13 -1.898925511884025e-17 -2.995201664280625e-13 -1.0306307862023897e-15 8.597176448922522e-13 3.923090545770393e-16 0.0 0.0 0.0 0.0 0.0 0.0 0.0936604223893603 -0.23290000005331166 0.5221723520756242 1.2091996383074792 -1.2091994797401275 1.2091994794919643 1.210307916422122e-13 -1.898925511884025e-17 -2.995201664280625e-13 -1.0306307862023897e-15 8.597176448922522e-13 3.923090545770393e-16 0 25.5 25.0 24.5 24.0 23.5 23.5 0.163517 7 253 253 253 253 253 253 1 9.819999999999915 1.2877371298813944e-06 -2.0155356945967844e-09 1.0 1.0 0.0 48.0 1560907662.917373 1 1.021405182655144e-13 -0.6108785867690969 -2.0943870544433274 -2.53073692321777 1.6697754290362354e-13 0.5236134529113778 0 2 0
19180.987999999998 1.021405182655144e-13 -0.6108785867690969 -2.0943870544433274 -2.53073692321777 1.6697754290362354e-13 0.5236134529113778 -1.653139063570817e-16 -1.4102600185466093e-13 -6.352469333208435e-13 -6.676019199148153e-14 -9.70358821788542e-16 -1.6684517725632377e-14 3.4440397692332373e-15 0.0 0.0 0.0 2.0215809101048354e-14 0.0 6.415576108204644e-16 -1.5214324378178459 2.062332610628201 0.2581246840939932 -0.11705297114519887 -1.2489051750621198e-28 6.371001968520061e-15 -15.108618295263751 20.480039361160784 2.0061321385443103 -0.9097298390919284 -9.706428575324043e-28 1.021405182655144e-13 -0.6108785867690969 -2.0943870544433274 -2.53073692321777 1.6697754290362354e-13 0.5236134529113778 -1.653139063570817e-16 -1.4102600185466093e-13 -6.352469333208435e-13 -6.676019199148153e-14 -9.70358821788542e-16 -1.6684517725632377e-14 6.415576108204644e-16 -1.5214324378178459 2.062332610628201 0.2581246840939932 -0.11705297114519887 -1.2489051750621198e-28 6.415576108204644e-16 -1.5214324378178459 2.062332610628201 0.2581246840939932 -0.11705297114519887 -1.2489051750621198e-28 0.0936604223893603 -0.23290000005331166 0.5221723520756242 1.2091996383074792 -1.2091994797401275 1.2091994794919643 1.2102856727746313e-13 -1.5483308847389603e-17 -2.9953911857308094e-13 -8.403482056958008e-16 8.597176448923198e-13 3.1987812517587454e-16 0.0 0.0 0.0 0.0 0.0 0.0 0.0936604223893603 -0.23290000005331166 0.5221723520756242 1.2091996383074792 -1.2091994797401275 1.2091994794919643 1.2102856727746313e-13 -1.5483308847389603e-17 -2.9953911857308094e-13 -8.403482056958008e-16 8.597176448923198e-13 3.1987812517587454e-16 0 25.5 25.0 24.5 24.0 23.5 23.5 0.187887 7 253 253 253 253 253 253 1 9.819999999999915 1.2877371298813944e-06 -2.0155356945967844e-09 1.0 1.0 0.0 48.0 1560907662.928049 1 1.021405182655144e-13 -0.6108785867690969 -2.0943870544433274 -2.53073692321777 1.6697754290362354e-13 0.5236134529113778 0 2 0
19180.998 1.021405182655144e-13 -0.6108785867690969 -2.0943870544433274 -2.53073692321777 1.6697754290362354e-13 0.5236134529113778 -1.3479244598638857e-16 -1.4102600185466093e-13 -6.352469333208435e-13 -6.676019199148153e-14 -7.912040913897954e-16 -1.6684517725632377e-14 2.8081760016375945e-15 0.0 0.0 0.0 1.6483418826481987e-14 0.0 5.189281725088141e-16 -1.5214324378178459 2.062332610628201 0.2581246840939932 -0.11705297114519898 -1.018323177836209e-28 5.153227633518574e-15 -15.108618295263751 20.480039361160784 2.0061321385443103 -0.9097298390919293 -7.914356821984124e-28 1.021405182655144e-13 -0.6108785867690969 -2.0943870544433274 -2.53073692321777 1.6697754290362354e-13 0.5236134529113778 -1.3479244598638857e-16 -1.4102600185466093e-13 -6.352469333208435e-13 -6.676019199148153e-14 -7.912040913897954e-16 -1.6684517725632377e-14 5.189281725088141e-16 -1.5214324378178459 2.062332610628201 0.2581246840939932 -0.11705297114519898 -1.018323177836209e-28 5.189281725088141e-16 -1.5214324378178459 2.062332610628201 0.2581246840939932 -0.11705297114519898 -1.018323177836209e-28 0.0936604223893603 -0.23290000005331166 0.5221723520756242 1.2091996383074792 -1.2091994797401275 1.2091994794919643 1.210267535911744e-13 -1.2624655973958802e-17 -2.9955457163471396e-13 -6.851969844810291e-16 8.597176448923749e-13 2.6081992278870414e-16 0.0 0.0 0.0 0.0 0.0 0.0 0.0936604223893603 -0.23290000005331166 0.5221723520756242 1.2091996383074792 -1.2091994797401275 1.2091994794919643 1.210267535911744e-13 -1.2624655973958802e-17 -2.9955457163471396e-13 -6.851969844810291e-16 8.597176448923749e-13 2.6081992278870414e-16 0 25.5 25.0 24.5 24.0 23.5 23.5 0.22063 7 253 253 253 253 253 253 1 9.819999999999915 1.2877371298813944e-06 -2.0155356945967844e-09 1.0 1.0 0.0 48.0 1560907662.938777 1 1.021405182655144e-13 -0.6108785867690969 -2.0943870544433274 -2.53073692321777 1.6697754290362354e-13 0.5236134529113778 0 2 0
19181.007999999998 1.021405182655144e-13 -0.6108785867690969 -2.0943870544433274 -2.53073692321777 1.6697754290362354e-13 0.5236134529113778 -1.0990608047061404e-16 -1.4102600185466093e-13 -6.352469333208435e-13 -6.676019199148153e-14 -6.451262153500237e-16 -1.6684517725632377e-14 2.2897100453457947e-15 0.0 0.0 0.0 1.3440129695077604e-14 0.0 4.1893947641200655e-16 -1.5214324378178459 2.062332610628201 0.2581246840939932 -0.11705297114519905 -8.30312914251652e-29 4.1602876871779125e-15 -15.108618295263751 20.480039361160784 2.0061321385443103 -0.9097298390919298 -6.453150453918128e-28 1.021405182655144e-13 -0.6108785867690969 -2.0943870544433274 -2.53073692321777 1.6697754290362354e-13 0.5236134529113778 -1.0990608047061404e-16 -1.4102600185466093e-13 -6.352469333208435e-13 -6.676019199148153e-14 -6.451262153500237e-16 -1.6684517725632377e-14 4.1893947641200655e-16 -1.5214324378178459 2.062332610628201 0.2581246840939932 -0.11705297114519905 -8.30312914251652e-29 4.1893947641200655e-16 -1.5214324378178459 2.062332610628201 0.2581246840939932 -0.11705297114519905 -8.30312914251652e-29 0.0936604223893603 -0.23290000005331166 0.5221723520756242 1.2091996383074792 -1.2091994797401275 1.2091994794919643 1.210252747608903e-13 -1.0293788465429347e-17 -2.995671716392834e-13 -5.586909145068412e-16 8.597176448924199e-13 2.1266547691812583e-16 0.0 0.0 0.0 0.0 0.0 0.0 0.0936604223893603 -0.23290000005331166 0.5221723520756242 1.2091996383074792 -1.2091994797401275 1.2091994794919643 1.210252747608903e-13 -1.0293788465429347e-17 -2.995671716392834e-13 -5.586909145068412e-16 8.597176448924199e-13 2.1266547691812583e-16 0 25.5 25.0 24.5 24.0 23.5 23.5 0.285707 7 253 253 253 253 253 253 1 9.819999999999915 1.2877371298813944e-06 -2.0155356945967844e-09 1.0 1.0 0.0 48.0 1560907662.949355 1 1.021405182655144e-13 -0.6108785867690969 -2.0943870544433274 -2.53073692321777 1.6697754290362354e-13 0.5236134529113778 0 2 0
19181.018 1.021405182655144e-13 -0.6108785867690969 -2.0943870544433274 -2.53073692321777 1.6697754290362354e-13 0.5236134529113778 -8.961441745506772e-17 -1.4102600185466093e-13 -6.352469333208435e-13 -6.676019199148153e-14 -5.260183033189175e-16 -1.6684517725632377e-14 1.8669670592924436e-15 0.0 0.0 0.0 1.0958714822574354e-14 0.0 3.3741142344312027e-16 -1.5214324378178459 2.062332610628201 0.2581246840939932 -0.11705297114519912 -6.770144794173042e-29 3.350671563553222e-15 -15.108618295263751 20.480039361160784 2.0061321385443103 -0.9097298390919304 -5.261722683307317e-28 1.021405182655144e-13 -0.6108785867690969 -2.0943870544433274 -2.53073692321777 1.6697754290362354e-13 0.5236134529113778 -8.961441745506772e-17 -1.4102600185466093e-13 -6.352469333208435e-13 -6.676019199148153e-14 -5.260183033189175e-16 -1.6684517725632377e-14 3.3741142344312027e-16 -1.5214324378178459 2.062332610628201 0.2581246840939932 -0.11705297114519912 -6.770144794173042e-29 3.3741142344312027e-16 -1.5214324378178459 2.062332610628201 0.2581246840939932 -0.11705297114519912 -6.770144794173042e-29 0.0936604223893603 -0.23290000005331166 0.5221723520756242 1.2091996383074792 -1.2091994797401275 1.2091994794919643 1.2102406896305033e-13 -8.393262734302162e-18 -2.995774453390149e-13 -4.555413188091046e-16 8.597176448924565e-13 1.7340165642624692e-16 0.0 0.0 0.0 0.0 0.0 0.0 0.0936604223893603 -0.23290000005331166 0.5221723520756242 1.2091996383074792 -1.2091994797401275 1.2091994794919643 1.2102406896305033e-13 -8.393262734302162e-18 -2.995774453390149e-13 -4.555413188091046e-16 8.597176448924565e-13 1.7340165642624692e-16 0 25.5 25.0 24.5 24.0 23.5 23.5 0.389411 7 253 253 253 253 253 253 1 9.819999999999915 1.2877371298813944e-06 -2.0155356945967844e-09 1.0 1.0 0.0 48.0 1560907662.96119 1 1.021405182655144e-13 -0.6108785867690969 -2.0943870544433274 -2.53073692321777 1.6697754290362354e-13 0.5236134529113778 0 2 0
19181.028 1.021405182655144e-13 -0.6108785867690969 -2.0943870544433274 -2.53073692321777 1.6697754290362354e-13 0.5236134529113778 -7.306914941761502e-17 -1.4102600185466093e-13 -6.352469333208435e-13 -6.676019199148153e-14 -4.28900963629877e-16 -1.6684517725632377e-14 1.5222739698284126e-15 0.0 0.0 0.0 8.935436880982091e-15 0.0 3.603749228096316e-16 -1.5214324378178459 2.062332610628201 0.25812468409399325 -0.11705297114519919 -5.520191216721787e-29 3.578711099209348e-15 -15.108618295263751 20.480039361160784 2.0061321385443107 -0.909729839091931 -4.290265012680089e-28 1.021405182655144e-13 -0.6108785867690969 -2.0943870544433274 -2.53073692321777 1.6697754290362354e-13 0.5236134529113778 -7.306914941761502e-17 -1.4102600185466093e-13 -6.352469333208435e-13 -6.676019199148153e-14 -4.28900963629877e-16 -1.6684517725632377e-14 3.603749228096316e-16 -1.5214324378178459 2.062332610628201 0.25812468409399325 -0.11705297114519919 -5.520191216721787e-29 3.603749228096316e-16 -1.5214324378178459 2.062332610628201 0.25812468409399325 -0.11705297114519919 -5.520191216721787e-29 0.0936604223893603 -0.23290000005331166 0.5221723520756242 1.2091996383074792 -1.2091994797401275 1.2091994794919643 1.2102308578841128e-13 -6.8436259396499005e-18 -2.995858222332923e-13 -3.7143595457815334e-16 8.597176448924864e-13 1.4138700914400911e-16 0.0 0.0 0.0 0.0 0.0 0.0 0.0936604223893603 -0.23290000005331166 0.5221723520756242 1.2091996383074792 -1.2091994797401275 1.2091994794919643 1.2102308578841128e-13 -6.8436259396499005e-18 -2.995858222332923e-13 -3.7143595457815334e-16 8.597176448924864e-13 1.4138700914400911e-16 0 25.5 25.0 24.5 24.0 23.5 23.5 0.638258 7 253 253 253 253 253 253 1 9.819999999999915 1.2877371298813944e-06 -2.0155356945967844e-09 1.0 1.0 0.0 48.0 1560907662.971127 1 1.021405182655144e-13 -0.6108785867690969 -2.0943870544433274 -2.53073692321777 1.6697754290362354e-13 0.5236134529113778 0 2 0
19181.038 1.021405182655144e-13 -0.6108785867690969 -2.0943870544433274 -2.53073692321777 1.6697754290362354e-13 0.5236134529113778 -5.957858956446058e-17 -1.4102600185466093e-13 -6.352469333208435e-13 -6.676019199148153e-14 -3.497141362609542e-16 -1.6684517725632377e-14 1.2412206351938933e-15 0.0 0.0 0.0 7.285711285191972e-15 0.0 3.061724122684472e-16 -1.5214324378178459 2.062332610628201 0.25812468409399325 -0.11705297114519923 -4.5010132001209133e-29 3.040451875824885e-15 -15.108618295263751 20.480039361160784 2.0061321385443107 -0.9097298390919313 -3.4981649540679736e-28 1.021405182655144e-13 -0.6108785867690969 -2.0943870544433274 -2.53073692321777 1.6697754290362354e-13 0.5236134529113778 -5.957858956446058e-17 -1.4102600185466093e-13 -6.352469333208435e-13 -6.676019199148153e-14 -3.497141362609542e-16 -1.6684517725632377e-14 3.061724122684472e-16 -1.5214324378178459 2.062332610628201 0.25812468409399325 -0.11705297114519923 -4.5010132001209133e-29 3.061724122684472e-16 -1.5214324378178459 2.062332610628201 0.25812468409399325 -0.11705297114519923 -4.5010132001209133e-29 0.0936604223893603 -0.23290000005331166 0.5221723520756242 1.2091996383074792 -1.2091994797401275 1.2091994794919643 1.210222841346524e-13 -5.580094404132672e-18 -2.995926525241874e-13 -3.028587367560688e-16 8.597176448925108e-13 1.1528313978625116e-16 0.0 0.0 0.0 0.0 0.0 0.0 0.0936604223893603 -0.23290000005331166 0.5221723520756242 1.2091996383074792 -1.2091994797401275 1.2091994794919643 1.210222841346524e-13 -5.580094404132672e-18 -2.995926525241874e-13 -3.028587367560688e-16 8.597176448925108e-13 1.1528313978625116e-16 0 25.5 25.0 24.5 24.0 23.5 23.5 0.642164 7 253 253 253 253 253 253 1 9.819999999999915 1.2877371298813944e-06 -2.0155356945967844e-09 1.0 1.0 0.0 48.0 1560907662.981865 1 1.021405182655144e-13 -0.6108785867690969 -2.0943870544433274 -2.53073692321777 1.6697754290362354e-13 0.5236134529113778 0 2 0
19181.048 1.021405182655144e-13 -0.6108785867690969 -2.0943870544433274 -2.53073692321777 1.6697754290362354e-13 0.5236134529113778 -4.8578755367783934e-17 -1.4102600185466093e-13 -6.352469333208435e-13 -6.676019199148153e-14 -2.8514735911458083e-16 -1.6684517725632377e-14 1.012057419203223e-15 0.0 0.0 0.0 5.940570073759579e-15 0.0 2.619771649768114e-16 -1.5214324378178459 2.062332610628201 0.25812468409399325 -0.11705297114519927 -3.6700032736193163e-29 2.6015700002998557e-15 -15.108618295263751 20.480039361160784 2.0061321385443107 -0.9097298390919316 -2.852308194240565e-28 1.021405182655144e-13 -0.6108785867690969 -2.0943870544433274 -2.53073692321777 1.6697754290362354e-13 0.5236134529113778 -4.8578755367783934e-17 -1.4102600185466093e-13 -6.352469333208435e-13 -6.676019199148153e-14 -2.8514735911458083e-16 -1.6684517725632377e-14 2.619771649768114e-16 -1.5214324378178459 2.062332610628201 0.25812468409399325 -0.11705297114519927 -3.6700032736193163e-29 2.619771649768114e-16 -1.5214324378178459 2.062332610628201 0.25812468409399325 -0.11705297114519927 -3.6700032736193163e-29 0.0936604223893603 -0.23290000005331166 0.5221723520756242 1.2091996383074792 -1.2091994797401275 1.2091994794919643 1.2102163048806347e-13 -4.549845285915988e-18 -2.995982217569085e-13 -2.469427455798072e-16 8.597176448925306e-13 9.399875737719805e-17 0.0 0.0 0.0 0.0 0.0 0.0 0.0936604223893603 -0.23290000005331166 0.5221723520756242 1.2091996383074792 -1.2091994797401275 1.2091994794919643 1.2102163048806347e-13 -4.549845285915988e-18 -2.995982217569085e-13 -2.469427455798072e-16 8.597176448925306e-13 9.399875737719805e-17 0 25.5 25.0 24.5 24.0 23.5 23.5 0.638747 7 253 253 253 253 253 253 1 9.819999999999915 1.2877371298813944e-06 -2.0155356945967844e-09 1.0 1.0 0.0 48.0 1560907662.992406 1 1.021405182655144e-13 -0.6108785867690969 -2.0943870544433274 -2.53073692321777 1.6697754290362354e-13 0.5236134529113778 0 2 0
19181.058 1.021405182655144e-13 -0.6108785867690969 -2.0943870544433274 -2.53073692321777 1.6697754290362354e-13 0.5236134529113778 -3.9609790871761674e-17 -1.4102600185466093e-13 -6.352469333208435e-13 -6.676019199148153e-14 -2.325013717756826e-16 -1.6684517725632377e-14 8.252039893040434e-16 0.0 0.0 0.0 4.843778653840499e-15 0.0 2.259415669131294e-16 -1.5214324378178459 2.062332610628201 0.25812468409399325 -0.1170529711451993 -2.9924204694094883e-29 2.2437177009453036e-15 -15.108618295263751 20.480039361160784 2.0061321385443107 -0.9097298390919318 -2.3256942267227075e-28 1.021405182655144e-13 -0.6108785867690969 -2.0943870544433274 -2.53073692321777 1.6697754290362354e-13 0.5236134529113778 -3.9609790871761674e-17 -1.4102600185466093e-13 -6.352469333208435e-13 -6.676019199148153e-14 -2.325013717756826e-16 -1.6684517725632377e-14 2.259415669131294e-16 -1.5214324378178459 2.062332610628201 0.25812468409399325 -0.1170529711451993 -2.9924204694094883e-29 2.259415669131294e-16 -1.5214324378178459 2.062332610628201 0.25812468409399325 -0.1170529711451993 -2.9924204694094883e-29 0.0936604223893603 -0.23290000005331166 0.5221723520756242 1.2091996383074792 -1.2091994797401275 1.2091994794919643 1.2102109752248014e-13 -3.7098082818913795e-18 -2.9960276275722296e-13 -2.0135037294466853e-16 8.597176448925468e-13 7.664405304864179e-17 0.0 0.0 0.0 0.0 0.0 0.0 0.0936604223893603 -0.23290000005331166 0.5221723520756242 1.2091996383074792 -1.2091994797401275 1.2091994794919643 1.2102109752248014e-13 -3.7098082818913795e-18 -2.9960276275722296e-13 -2.0135037294466853e-16 8.597176448925468e-13 7.664405304864179e-17 0 25.5 25.0 24.5 24.0 23.5 23.5 0.63475 7 253 253 253 253 253 253 1 9.819999999999915 1.2877371298813944e-06 -2.0155356945967844e-09 1.0 1.0 0.0 48.0 1560907663.0039 1 1.021405182655144e-13 -0.6108785867690969 -2.0943870544433274 -2.53073692321777 1.6697754290362354e-13 0.5236134529113778 0 2 0
19181.068 1.021405182655144e-13 -0.6108785867690969 -2.0943870544433274 -2.53073692321777 1.6697754290362354e-13 0.5236134529113778 -3.229674208461678e-17 -1.4102600185466093e-13 -6.352469333208435e-13 -6.676019199148153e-14 -1.895752709947033e-16 -1.6684517725632377e-14 6.72848803873273e-16 0.0 0.0 0.0 3.949484873695803e-15 0.0 1.9655912404332192e-16 -1.5214324378178459 2.062332610628201 0.25812468409399325 -0.11705297114519932 -2.4399379511966474e-29 1.9519347056129375e-15 -15.108618295263751 20.480039361160784 2.0061321385443107 -0.909729839091932 -1.8963075759802785e-28 1.021405182655144e-13 -0.6108785867690969 -2.0943870544433274 -2.53073692321777 1.6697754290362354e-13 0.5236134529113778 -3.229674208461678e-17 -1.4102600185466093e-13 -6.352469333208435e-13 -6.676019199148153e-14 -1.895752709947033e-16 -1.6684517725632377e-14 1.9655912404332192e-16 -1.5214324378178459 2.062332610628201 0.25812468409399325 -0.11705297114519932 -2.4399379511966474e-29 1.9655912404332192e-16 -1.5214324378178459 2.062332610628201 0.25812468409399325 -0.11705297114519932 -2.4399379511966474e-29 0.0936604223893603 -0.23290000005331166 0.5221723520756242 1.2091996383074792 -1.2091994797401275 1.2091994794919643 1.2102066295689405e-13 -3.0248650427734732e-18 -2.996064653649049e-13 -1.6417559702145406e-16 8.5971764489256e-13 6.2493500942237e-17 0.0 0.0 0.0 0.0 0.0 0.0 0.0936604223893603 -0.23290000005331166 0.5221723520756242 1.2091996383074792 -1.2091994797401275 1.2091994794919643 1.2102066295689405e-13 -3.0248650427734732e-18 -2.996064653649049e-13 -1.6417559702145406e-16 8.5971764489256e-13 6.2493500942237e-17 0 25.5 25.0 24.5 24.0 23.5 23.5 0.620777 7 253 253 253 253 253 253 1 9.819999999999915 1.2877371298813944e-06 -2.0155356945967844e-09 1.0 1.0 0.0 48.0 1560907663.013578 1 1.021405182655144e-13 -0.6108785867690969 -2.0943870544433274 -2.53073692321777 1.6697754290362354e-13 0.5236134529113778 0 2 0
19181.077999999998 1.021405182655144e-13 -0.6108785867690969 -2.0943870544433274 -2.53073692321777 1.6697754290362354e-13 0.5236134529113778 -2.6333881758094433e-17 -1.4102600185466093e-13 -6.352469333208435e-13 -6.676019199148153e-14 -1.54574500349109e-16 -1.6684517725632377e-14 5.486225451432657e-16 0.0 0.0 0.0 3.2203021405938138e-15 0.0 1.7260148230723465e-16 -1.5214324378178459 2.062332610628201 0.25812468409399325 -0.11705297114519934 -1.9894587902778444e-29 1.7140228172846046e-15 -15.108618295263751 20.480039361160784 2.0061321385443107 -0.9097298390919322 -1.5461974245099893e-28 1.021405182655144e-13 -0.6108785867690969 -2.0943870544433274 -2.53073692321777 1.6697754290362354e-13 0.5236134529113778 -2.6333881758094433e-17 -1.4102600185466093e-13 -6.352469333208435e-13 -6.676019199148153e-14 -1.54574500349109e-16 -1.6684517725632377e-14 1.7260148230723465e-16 -1.5214324378178459 2.062332610628201 0.25812468409399325 -0.11705297114519934 -1.9894587902778444e-29 1.7260148230723465e-16 -1.5214324378178459 2.062332610628201 0.25812468409399325 -0.11705297114519934 -1.9894587902778444e-29 0.0936604223893603 -0.23290000005331166 0.5221723520756242 1.2091996383074792 -1.2091994797401275 1.2091994794919643 1.210203086239793e-13 -2.4663810253230154e-18 -2.9960948437012343e-13 -1.338642996471924e-16 8.597176448925708e-13 5.095552708079642e-17 0.0 0.0 0.0 0.0 0.0 0.0 0.0936604223893603 -0.23290000005331166 0.5221723520756242 1.2091996383074792 -1.2091994797401275 1.2091994794919643 1.210203086239793e-13 -2.4663810253230154e-18 -2.9960948437012343e-13 -1.338642996471924e-16 8.597176448925708e-13 5.095552708079642e-17 0 25.5 25.0 24.5 24.0 23.5 23.5 0.633096 7 253 253 253 253 253 253 1 9.819999999999915 1.2877371298813944e-06 -2.0155356945967844e-09 1.0 1.0 0.0 48.0 1560907663.02419 1 1.021405182655144e-13 -0.6108785867690969 -2.0943870544433274 -2.53073692321777 1.6697754290362354e-13 0.5236134529113778 0 2 0
19181.088 1.021405182655144e-13 -0.6108785867690969 -2.0943870544433274 -2.53073692321777 1.6697754290362354e-13 0.5236134529113778 -2.1471928240704024e-17 -1.4102600185466093e-13 -6.352469333208435e-13 -6.676019199148153e-14 -1.2603582752545014e-16 -1.6684517725632377e-14 4.473318452894718e-16 0.0 0.0 0.0 2.6257464475330454e-15 0.0 1.5306707530950036e-16 -1.5214324378178459 2.062332610628201 0.25812468409399325 -0.11705297114519937 -1.622150381740831e-29 1.5200359588366503e-15 -15.108618295263751 20.480039361160784 2.0061321385443107 -0.9097298390919323 -1.2607271659370653e-28 1.021405182655144e-13 -0.6108785867690969 -2.0943870544433274 -2.53073692321777 1.6697754290362354e-13 0.5236134529113778 -2.1471928240704024e-17 -1.4102600185466093e-13 -6.352469333208435e-13 -6.676019199148153e-14 -1.2603582752545014e-16 -1.6684517725632377e-14 1.5306707530950036e-16 -1.5214324378178459 2.062332610628201 0.25812468409399325 -0.11705297114519937 -1.622150381740831e-29 1.5306707530950036e-16 -1.5214324378178459 2.062332610628201 0.25812468409399325 -0.11705297114519937 -1.622150381740831e-29 0.0936604223893603 -0.23290000005331166 0.5221723520756242 1.2091996383074792 -1.2091994797401275 1.2091994794919643 1.210200197105943e-13 -2.011008404741576e-18 -2.9961194598455626e-13 -1.0914929530103606e-16 8.597176448925796e-13 4.154777819395574e-17 0.0 0.0 0.0 0.0 0.0 0.0 0.0936604223893603 -0.23290000005331166 0.5221723520756242 1.2091996383074792 -1.2091994797401275 1.2091994794919643 1.210200197105943e-13 -2.011008404741576e-18 -2.9961194598455626e-13 -1.0914929530103606e-16 8.597176448925796e-13 4.154777819395574e-17 0 25.5 25.0 24.5 24.0 23.5 23.5 0.644806 7 253 253 253 253 253 253 1 9.819999999999915 1.2877371298813944e-06 -2.0155356945967844e-09 1.0 1.0 0.0 48.0 1560907663.034786 1 1.021405182655144e-13 -0.6108785867690969 -2.0943870544433274 -2.53073692321777 1.6697754290362354e-13 0.5236134529113778 0 2 0
19181.097999999998 1.021405182655144e-13 -0.6108785867690969 -2.0943870544433274 -2.53073692321777 1.6697754290362354e-13 0.5236134529113778 -1.7507624079476342e-17 -1.4102600185466093e-13 -6.352469333208435e-13 -6.676019199148153e-14 -1.0276617284319011e-16 -1.6684517725632377e-14 3.64742173981344e-16 0.0 0.0 0.0 2.1409619674653036e-15 0.0 1.371392531779815e-16 -1.5214324378178459 2.062332610628201 0.25812468409399325 -0.11705297114519939 -1.3226571338193763e-29 1.3618643707475155e-15 -15.108618295263751 20.480039361160784 2.0061321385443107 -0.9097298390919324 -1.0279625111187502e-28 1.021405182655144e-13 -0.6108785867690969 -2.0943870544433274 -2.53073692321777 1.6697754290362354e-13 0.5236134529113778 -1.7507624079476342e-17 -1.4102600185466093e-13 -6.352469333208435e-13 -6.676019199148153e-14 -1.0276617284319011e-16 -1.6684517725632377e-14 1.371392531779815e-16 -1.5214324378178459 2.062332610628201 0.25812468409399325 -0.11705297114519939 -1.3226571338193763e-29 1.371392531779815e-16 -1.5214324378178459 2.062332610628201 0.25812468409399325 -0.11705297114519939 -1.3226571338193763e-29 0.0936604223893603 -0.23290000005331166 0.5221723520756242 1.2091996383074792 -1.2091994797401275 1.2091994794919643 1.2101978413850783e-13 -1.6397100021091523e-18 -2.9961395311776e-13 -8.899735550484337e-17 8.597176448925868e-13 3.387695659384111e-17 0.0 0.0 0.0 0.0 0.0 0.0 0.0936604223893603 -0.23290000005331166 0.5221723520756242 1.2091996383074792 -1.2091994797401275 1.2091994794919643 1.2101978413850783e-13 -1.6397100021091523e-18 -2.9961395311776e-13 -8.899735550484337e-17 8.597176448925868e-13 3.387695659384111e-17 0 25.5 25.0 24.5 24.0 23.5 23.5 0.524146 7 253 253 253 253 253 253 1 9.819999999999915 1.2877371298813944e-06 -2.0155356945967844e-09 1.0 1.0 0.0 48.0 1560907663.045368 1 1.021405182655144e-13 -0.6108785867690969 -2.0943870544433274 -2.53073692321777 1.6697754290362354e-13 0.5236134529113778 0 2 0
19181.108 1.021405182655144e-13 -0.6108785867690969 -2.0943870544433274 -2.53073692321777 1.6697754290362354e-13 0.5236134529113778 -1.4275238696398478e-17 -1.4102600185466093e-13 -6.352469333208435e-13 -6.676019199148153e-14 -8.379273170324458e-17 -1.6684517725632377e-14 2.9740081079070493e-16 0.0 0.0 0.0 1.7456819375799458e-15 0.0 1.2415214184322975e-16 -1.5214324378178459 2.062332610628201 0.25812468409399325 -0.11705297114519939 -1.078458516272844e-29 1.2328955759213138e-15 -15.108618295263751 20.480039361160784 2.0061321385443107 -0.9097298390919325 -8.38172566554673e-29 1.021405182655144e-13 -0.6108785867690969 -2.0943870544433274 -2.53073692321777 1.6697754290362354e-13 0.5236134529113778 -1.4275238696398478e-17 -1.4102600185466093e-13 -6.352469333208435e-13 -6.676019199148153e-14 -8.379273170324458e-17 -1.6684517725632377e-14 1.2415214184322975e-16 -1.5214324378178459 2.062332610628201 0.25812468409399325 -0.11705297114519939 -1.078458516272844e-29 1.2415214184322975e-16 -1.5214324378178459 2.062332610628201 0.25812468409399325 -0.11705297114519939 -1.078458516272844e-29 0.0936604223893603 -0.23290000005331166 0.5221723520756242 1.2091996383074792 -1.2091994797401275 1.2091994794919643 1.2101959205945991e-13 -1.3369634214690003e-18 -2.996155896793773e-13 -7.256601396584412e-17 8.597176448925926e-13 2.762237808325232e-17 0.0 0.0 0.0 0.0 0.0 0.0 0.0936604223893603 -0.23290000005331166 0.5221723520756242 1.2091996383074792 -1.2091994797401275 1.2091994794919643 1.2101959205945991e-13 -1.3369634214690003e-18 -2.996155896793773e-13 -7.256601396584412e-17 8.597176448925926e-13 2.762237808325232e-17 0 25.5 25.0 24.5 24.0 23.5 23.5 0.7084450000000001 7 253 253 253 253 253 253 1 9.819999999999915 1.2877371298813944e-06 -2.0155356945967844e-09 1.0 1.0 0.0 48.0 1560907663.056086 1 1.021405182655144e-13 -0.6108785867690969 -2.0943870544433274 -2.53073692321777 1.6697754290362354e-13 0.5236134529113778 0 2 0
19181.118 1.021405182655144e-13 -0.6108785867690969 -2.0943870544433274 -2.53073692321777 1.6697754290362354e-13 0.5236134529113778 -1.1639639902832167e-17 -1.4102600185466093e-13 -6.352469333208435e-13 -6.676019199148153e-14 -6.832230579419332e-17 -1.6684517725632377e-14 2.424925017406661e-16 0.0 0.0 0.0 1.4233813928033003e-15 0.0 1.135628058181281e-16 -1.5214324378178459 2.062332610628201 0.25812468409399325 -0.11705297114519939 -8.793456306262799e-30 1.1277379415586492e-15 -15.108618295263751 20.480039361160784 2.0061321385443107 -0.9097298390919325 -6.834230273945917e-29 1.021405182655144e-13 -0.6108785867690969 -2.0943870544433274 -2.53073692321777 1.6697754290362354e-13 0.5236134529113778 -1.1639639902832167e-17 -1.4102600185466093e-13 -6.352469333208435e-13 -6.676019199148153e-14 -6.832230579419332e-17 -1.6684517725632377e-14 1.135628058181281e-16 -1.5214324378178459 2.062332610628201 0.25812468409399325 -0.11705297114519939 -8.793456306262799e-30 1.135628058181281e-16 -1.5214324378178459 2.062332610628201 0.25812468409399325 -0.11705297114519939 -8.793456306262799e-30 0.0936604223893603 -0.23290000005331166 0.5221723520756242 1.2091996383074792 -1.2091994797401275 1.2091994794919643 1.2101943544344823e-13 -1.0901121249408196e-18 -2.9961692408704e-13 -5.916834666920242e-17 8.597176448925974e-13 2.2522565522796005e-17 0.0 0.0 0.0 0.0 0.0 0.0 0.0936604223893603 -0.23290000005331166 0.5221723520756242 1.2091996383074792 -1.2091994797401275 1.2091994794919643 1.2101943544344823e-13 -1.0901121249408196e-18 -2.9961692408704e-13 -5.916834666920242e-17 8.597176448925974e-13 2.2522565522796005e-17 0 25.5 25.0 24.5 24.0 23.5 23.5 0.5217999999999999 7 253 253 253 253 253 253 1 9.819999999999915 1.2877371298813944e-06 -2.0155356945967844e-09 1.0 1.0 0.0 48.0 1560907663.066304 1 1.021405182655144e-13 -0.6108785867690969 -2.0943870544433274 -2.53073692321777 1.6697754290362354e-13 0.5236134529113778 0 2 0
19181.128 1.021405182655144e-13 -0.6108785867690969 -2.0943870544433274 -2.53073692321777 1.6697754290362354e-13 0.5236134529113778 -9.490644601383046e-18 -1.4102600185466093e-13 -6.352469333208435e-13 -6.676019199148153e-14 -5.570814286812301e-17 -1.6684517725632377e-14 1.9772176560045305e-16 0.0 0.0 0.0 1.1605863277650167e-15 0.0 1.0492855030721677e-16 -1.5214324378178459 2.062332610628201 0.25812468409399325 -0.11705297114519941 -7.169944198133694e-30 1.041995277253923e-15 -15.108618295263751 20.480039361160784 2.0061321385443107 -0.9097298390919326 -5.572444781068517e-29 1.021405182655144e-13 -0.6108785867690969 -2.0943870544433274 -2.53073692321777 1.6697754290362354e-13 0.5236134529113778 -9.490644601383046e-18 -1.4102600185466093e-13 -6.352469333208435e-13 -6.676019199148153e-14 -5.570814286812301e-17 -1.6684517725632377e-14 1.0492855030721677e-16 -1.5214324378178459 2.062332610628201 0.25812468409399325 -0.11705297114519941 -7.169944198133694e-30 1.0492855030721677e-16 -1.5214324378178459 2.062332610628201 0.25812468409399325 -0.11705297114519941 -7.169944198133694e-30 0.0936604223893603 -0.23290000005331166 0.5221723520756242 1.2091996383074792 -1.2091994797401275 1.2091994794919643 1.2101930774302806e-13 -8.88836317071037e-19 -2.9961801212661737e-13 -4.824425452703034e-17 8.597176448926012e-13 1.8364317591676654e-17 0.0 0.0 0.0 0.0 0.0 0.0 0.0936604223893603 -0.23290000005331166 0.5221723520756242 1.2091996383074792 -1.2091994797401275 1.2091994794919643 1.2101930774302806e-13 -8.88836317071037e-19 -2.9961801212661737e-13 -4.824425452703034e-17 8.597176448926012e-13 1.8364317591676654e-17 0 25.5 25.0 24.5 24.0 23.5 23.5 0.7609049999999999 7 253 253 253 253 253 253 1 9.819999999999915 1.2877371298813944e-06 -2.0155356945967844e-09 1.0 1.0 0.0 48.0 1560907663.076655 1 1.021405182655144e-13 -0.6108785867690969 -2.0943870544433274 -2.53073692321777 1.6697754290362354e-13 0.5236134529113778 0 2 0
19181.138 1.021405182655144e-13 -0.6108785867690969 -2.0943870544433274 -2.53073692321777 1.6697754290362354e-13 0.5236134529113778 -7.738412502610243e-18 -1.4102600185466093e-13 -6.352469333208435e-13 -6.676019199148153e-14 -4.5422898799180475e-17 -1.6684517725632377e-14 1.612169296403955e-16 0.0 0.0 0.0 9.463104063394303e-16 0.0 9.788841412630282e-17 -1.5214324378178459 2.062332610628201 0.25812468409399325 -0.11705297114519941 -5.846176749781837e-30 9.72083050026361e-16 -15.108618295263751 20.480039361160784 2.0061321385443107 -0.9097298390919326 -4.5436193390466954e-29 1.021405182655144e-13 -0.6108785867690969 -2.0943870544433274 -2.53073692321777 1.6697754290362354e-13 0.5236134529113778 -7.738412502610243e-18 -1.4102600185466093e-13 -6.352469333208435e-13 -6.676019199148153e-14 -4.5422898799180475e-17 -1.6684517725632377e-14 9.788841412630282e-17 -1.5214324378178459 2.062332610628201 0.25812468409399325 -0.11705297114519941 -5.846176749781837e-30 9.788841412630282e-17 -1.5214324378178459 2.062332610628201 0.25812468409399325 -0.11705297114519941 -5.846176749781837e-30 0.0936604223893603 -0.23290000005331166 0.5221723520756242 1.2091996383074792 -1.2091994797401275 1.2091994794919643 1.2101920361959187e-13 -7.247215183937021e-19 -2.99618899284384e-13 -3.9337048034426415e-17 8.597176448926045e-13 1.4973795753517216e-17 0.0 0.0 0.0 0.0 0.0 0.0 0.0936604223893603 -0.23290000005331166 0.5221723520756242 1.2091996383074792 -1.2091994797401275 1.2091994794919643 1.2101920361959187e-13 -7.247215183937021e-19 -2.99618899284384e-13 -3.9337048034426415e-17 8.597176448926045e-13 1.4973795753517216e-17 0 25.5 25.0 24.5 24.0 23.5 23.5 0.58185 7 253 253 253 253 253 253 1 9.819999999999915 1.2877371298813944e-06 -2.0155356945967844e-09 1.0 1.0 0.0 48.0 1560907663.087383 1 1.021405182655144e-13 -0.6108785867690969 -2.0943870544433274 -2.53073692321777 1.6697754290362354e-13 0.5236134529113778 0 2 0
19181.147999999997 1.021405182655144e-13 -0.6108785867690969 -2.0943870544433274 -2.53073692321777 1.6697754290362354e-13 0.5236134529113778 -6.309690287197517e-18 -1.4102600185466093e-13 -6.352469333208435e-13 -6.676019199148153e-14 -3.703659158419089e-17 -1.6684517725632377e-14 1.3145188302107744e-16 0.0 0.0 0.0 7.715956699840634e-16 0.0 9.214807927960987e-17 -1.5214324378178459 2.062332610628201 0.25812468409399325 -0.11705297114519944 -4.766812913334845e-30 9.1507852854391e-16 -15.108618295263751 20.480039361160784 2.0061321385443107 -0.9097298390919327 -3.704743162179275e-29 1.021405182655144e-13 -0.6108785867690969 -2.0943870544433274 -2.53073692321777 1.6697754290362354e-13 0.5236134529113778 -6.309690287197517e-18 -1.4102600185466093e-13 -6.352469333208435e-13 -6.676019199148153e-14 -3.703659158419089e-17 -1.6684517725632377e-14 9.214807927960987e-17 -1.5214324378178459 2.062332610628201 0.25812468409399325 -0.11705297114519944 -4.766812913334845e-30 9.214807927960987e-17 -1.5214324378178459 2.062332610628201 0.25812468409399325 -0.11705297114519944 -4.766812913334845e-30 0.0936604223893603 -0.23290000005331166 0.5221723520756242 1.2091996383074792 -1.2091994797401275 1.2091994794919643 1.2101911872018466e-13 -5.909067920726215e-19 -2.9961962264860656e-13 -3.207435503719486e-17 8.59717644892607e-13 1.2209256811769562e-17 0.0 0.0 0.0 0.0 0.0 0.0 0.0936604223893603 -0.23290000005331166 0.5221723520756242 1.2091996383074792 -1.2091994797401275 1.2091994794919643 1.2101911872018466e-13 -5.909067920726215e-19 -2.9961962264860656e-13 -3.207435503719486e-17 8.59717644892607e-13 1.2209256811769562e-17 0 25.5 25.0 24.5 24.0 23.5 23.5 0.579766 7 253 253 253 253 253 253 1 9.819999999999915 1.2877371298813944e-06 -2.0155356945967844e-09 1.0 1.0 0.0 48.0 1560907663.097944 1 1.021405182655144e-13 -0.6108785867690969 -2.0943870544433274 -2.53073692321777 1.6697754290362354e-13 0.5236134529113778 0 2 0
19181.158 1.021405182655144e-13 -0.6108785867690969 -2.0943870544433274 -2.53073692321777 1.6697754290362354e-13 0.5236134529113778 -5.1447491984827224e-18 -1.4102600185466093e-13 -6.352469333208435e-13 -6.676019199148153e-14 -3.019862563678634e-17 -1.6684517725632377e-14 1.0718227663138245e-16 0.0 0.0 0.0 6.291380438644619e-16 0.0 8.746756695972689e-17 -1.5214324378178459 2.062332610628201 0.25812468409399325 -0.11705297114519944 -3.886729109339024e-30 8.685985979800411e-16 -15.108618295263751 20.480039361160784 2.0061321385443107 -0.9097298390919327 -3.020746430132743e-29 1.021405182655144e-13 -0.6108785867690969 -2.0943870544433274 -2.53073692321777 1.6697754290362354e-13 0.5236134529113778 -5.1447491984827224e-18 -1.4102600185466093e-13 -6.352469333208435e-13 -6.676019199148153e-14 -3.019862563678634e-17 -1.6684517725632377e-14 8.746756695972689e-17 -1.5214324378178459 2.062332610628201 0.25812468409399325 -0.11705297114519944 -3.886729109339024e-30 8.746756695972689e-17 -1.5214324378178459 2.062332610628201 0.25812468409399325 -0.11705297114519944 -3.886729109339024e-30 0.0936604223893603 -0.23290000005331166 0.5221723520756242 1.2091996383074792 -1.2091994797401275 1.2091994794919643 1.2101904949552585e-13 -4.817979175238207e-19 -2.9962021246004493e-13 -2.615255344700775e-17 8.597176448926091e-13 9.955127233720984e-18 0.0 0.0 0.0 0.0 0.0 0.0 0.0936604223893603 -0.23290000005331166 0.5221723520756242 1.2091996383074792 -1.2091994797401275 1.2091994794919643 1.2101904949552585e-13 -4.817979175238207e-19 -2.9962021246004493e-13 -2.615255344700775e-17 8.597176448926091e-13 9.955127233720984e-18 0 25.5 25.0 24.5 24.0 23.5 23.5 0.641833 7 253 253 253 253 253 253 1 9.819999999999915 1.2877371298813944e-06 -2.0155356945967844e-09 1.0 1.0 0.0 48.0 1560907663.10839 1 1.021405182655144e-13 -0.6108785867690969 -2.0943870544433274 -2.53073692321777 1.6697754290362354e-13 0.5236134529113778 0 2 0
19181.167999999998 1.021405182655144e-13 -0.6108785867690969 -2.0943870544433274 -2.53073692321777 1.6697754290362354e-13 0.5236134529113778 -4.194888038964064e-18 -1.4102600185466093e-13 -6.352469333208435e-13 -6.676019199148153e-14 -2.4623134887473268e-17 -1.6684517725632377e-14 8.739350216728027e-17 0.0 0.0 0.0 5.129819847870715e-16 0.0 8.365120496525199e-17 -1.5214324378178459 2.062332610628201 0.25812468409399325 -0.11705297114519944 -3.169132803130952e-30 8.307001312339442e-16 -15.108618295263751 20.480039361160784 2.0061321385443107 -0.9097298390919327 -2.4630341689293602e-29 1.021405182655144e-13 -0.6108785867690969 -2.0943870544433274 -2.53073692321777 1.6697754290362354e-13 0.5236134529113778 -4.194888038964064e-18 -1.4102600185466093e-13 -6.352469333208435e-13 -6.676019199148153e-14 -2.4623134887473268e-17 -1.6684517725632377e-14 8.365120496525199e-17 -1.5214324378178459 2.062332610628201 0.25812468409399325 -0.11705297114519944 -3.169132803130952e-30 8.365120496525199e-17 -1.5214324378178459 2.062332610628201 0.25812468409399325 -0.11705297114519944 -3.169132803130952e-30 0.0936604223893603 -0.23290000005331166 0.5221723520756242 1.2091996383074792 -1.2091994797401275 1.2091994794919643 1.21018993051629e-13 -3.9283352001335317e-19 -2.9962069337618927e-13 -2.1324078102247125e-17 8.597176448926108e-13 8.11717151605521e-18 0.0 0.0 0.0 0.0 0.0 0.0 0.0936604223893603 -0.23290000005331166 0.5221723520756242 1.2091996383074792 -1.2091994797401275 1.2091994794919643 1.21018993051629e-13 -3.9283352001335317e-19 -2.9962069337618927e-13 -2.1324078102247125e-17 8.597176448926108e-13 8.11717151605521e-18 0 25.5 25.0 24.5 24.0 23.5 23.5 0.807049 7 253 253 253 253 253 253 1 9.819999999999915 1.2877371298813944e-06 -2.0155356945967844e-09 1.0 1.0 0.0 48.0 1560907663.119006 1 1.021405182655144e-13 -0.6108785867690969 -2.0943870544433274 -2.53073692321777 1.6697754290362354e-13 0.5236134529113778 0 2 0
19181.178 1.021405182655144e-13 -0.6108785867690969 -2.0943870544433274 -2.53073692321777 1.6697754290362354e-13 0.5236134529113778 -3.4203971817736445e-18 -1.4102600185466093e-13 -6.352469333208435e-13 -6.676019199148153e-14 -2.0077031947738537e-17 -1.6684517725632377e-14 7.125827572466487e-17 0.0 0.0 0.0 4.182715053985214e-16 0.0 8.05394476322988e-17 -1.5214324378178459 2.062332610628201 0.25812468409399325 -0.11705297114519944 -2.5840243663660978e-30 7.997987565803911e-16 -15.108618295263751 20.480039361160784 2.0061321385443107 -0.9097298390919327 -2.0082908174178995e-29 1.021405182655144e-13 -0.6108785867690969 -2.0943870544433274 -2.53073692321777 1.6697754290362354e-13 0.5236134529113778 -3.4203971817736445e-18 -1.4102600185466093e-13 -6.352469333208435e-13 -6.676019199148153e-14 -2.0077031947738537e-17 -1.6684517725632377e-14 8.05394476322988e-17 -1.5214324378178459 2.062332610628201 0.25812468409399325 -0.11705297114519944 -2.5840243663660978e-30 8.05394476322988e-17 -1.5214324378178459 2.062332610628201 0.25812468409399325 -0.11705297114519944 -2.5840243663660978e-30 0.0936604223893603 -0.23290000005331166 0.5221723520756242 1.2091996383074792 -1.2091994797401275 1.2091994794919643 1.210189470288165e-13 -3.2029437911172147e-19 -2.9962108550208383e-13 -1.7387071129012096e-17 8.597176448926122e-13 6.618552602169119e-18 0.0 0.0 0.0 0.0 0.0 0.0 0.0936604223893603 -0.23290000005331166 0.5221723520756242 1.2091996383074792 -1.2091994797401275 1.2091994794919643 1.210189470288165e-13 -3.2029437911172147e-19 -2.9962108550208383e-13 -1.7387071129012096e-17 8.597176448926122e-13 6.618552602169119e-18 0 25.5 25.0 24.5 24.0 23.5 23.5 0.635122 7 253 253 253 253 253 253 1 9.819999999999915 1.2877371298813944e-06 -2.0155356945967844e-09 1.0 1.0 0.0 48.0 1560907663.129686 1 1.021405182655144e-13 -0.6108785867690969 -2.0943870544433274 -2.53073692321777 1.6697754290362354e-13 0.5236134529113778 0 2 0
19181.188 1.021405182655144e-13 -0.6108785867690969 -2.0943870544433274 -2.53073692321777 1.6697754290362354e-13 0.5236134529113778 -2.788898481295497e-18 -1.4102600185466093e-13 -6.352469333208435e-13 -6.676019199148153e-14 -1.6370263724427465e-17 -1.6684517725632377e-14 5.810205259741091e-17 0.0 0.0 0.0 3.4104716622116803e-16 0.0 7.800220562470893e-17 -1.5214324378178459 2.062332610628201 0.25812468409399325 -0.11705297114519944 -2.106942921355949e-30 7.746026190046959e-16 -15.108618295263751 20.480039361160784 2.0061321385443107 -0.9097298390919327 -1.637505503763237e-29 1.021405182655144e-13 -0.6108785867690969 -2.0943870544433274 -2.53073692321777 1.6697754290362354e-13 0.5236134529113778 -2.788898481295497e-18 -1.4102600185466093e-13 -6.352469333208435e-13 -6.676019199148153e-14 -1.6370263724427465e-17 -1.6684517725632377e-14 7.800220562470893e-17 -1.5214324378178459 2.062332610628201 0.25812468409399325 -0.11705297114519944 -2.106942921355949e-30 7.800220562470893e-17 -1.5214324378178459 2.062332610628201 0.25812468409399325 -0.11705297114519944 -2.106942921355949e-30 0.0936604223893603 -0.23290000005331166 0.5221723520756242 1.2091996383074792 -1.2091994797401275 1.2091994794919643 1.2101890950307166e-13 -2.611479440209855e-19 -2.9962140523083275e-13 -1.4176943127776546e-17 8.597176448926133e-13 5.39661965377748e-18 0.0 0.0 0.0 0.0 0.0 0.0 0.0936604223893603 -0.23290000005331166 0.5221723520756242 1.2091996383074792 -1.2091994797401275 1.2091994794919643 1.2101890950307166e-13 -2.611479440209855e-19 -2.9962140523083275e-13 -1.4176943127776546e-17 8.597176448926133e-13 5.39661965377748e-18 0 25.5 25.0 24.5 24.0 23.5 23.5 0.819322 7 253 253 253 253 253 253 1 9.819999999999915 1.2877371298813944e-06 -2.0155356945967844e-09 1.0 1.0 0.0 48.0 1560907663.14024 1 1.021405182655144e-13 -0.6108785867690969 -2.0943870544433274 -2.53073692321777 1.6697754290362354e-13 0.5236134529113778 0 2 0
19181.198 1.021405182655144e-13 -0.6108785867690969 -2.0943870544433274 -2.53073692321777 1.6697754290362354e-13 0.5236134529113778 -2.273991681547355e-18 -1.4102600185466093e-13 -6.352469333208435e-13 -6.676019199148153e-14 -1.3347866114127873e-17 -1.6684517725632377e-14 4.737482743619387e-17 0.0 0.0 0.0 2.7808054836098643e-16 0.0 7.593340778804384e-17 -1.5214324378178459 2.062332610628201 0.25812468409399325 -0.11705297114519944 -1.717943735983219e-30 7.540583765741407e-16 -15.108618295263751 20.480039361160784 2.0061321385443107 -0.9097298390919327 -1.335177281887478e-29 1.021405182655144e-13 -0.6108785867690969 -2.0943870544433274 -2.53073692321777 1.6697754290362354e-13 0.5236134529113778 -2.273991681547355e-18 -1.4102600185466093e-13 -6.352469333208435e-13 -6.676019199148153e-14 -1.3347866114127873e-17 -1.6684517725632377e-14 7.593340778804384e-17 -1.5214324378178459 2.062332610628201 0.25812468409399325 -0.11705297114519944 -1.717943735983219e-30 7.593340778804384e-17 -1.5214324378178459 2.062332610628201 0.25812468409399325 -0.11705297114519944 -1.717943735983219e-30 0.0936604223893603 -0.23290000005331166 0.5221723520756242 1.2091996383074792 -1.2091994797401275 1.2091994794919643 1.2101887890560377e-13 -2.129215556119155e-19 -2.9962166592892566e-13 -1.1559492395714435e-17 8.597176448926143e-13 4.400288887829147e-18 0.0 0.0 0.0 0.0 0.0 0.0 0.0936604223893603 -0.23290000005331166 0.5221723520756242 1.2091996383074792 -1.2091994797401275 1.2091994794919643 1.2101887890560377e-13 -2.129215556119155e-19 -2.9962166592892566e-13 -1.1559492395714435e-17 8.597176448926143e-13 4.400288887829147e-18 0 25.5 25.0 24.5 24.0 23.5 23.5 0.58209 7 253 253 253 253 253 253 1 9.819999999999915 1.2877371298813944e-06 -2.0155356945967844e-09 1.0 1.0 0.0 48.0 1560907663.150829 1 1.021405182655144e-13 -0.6108785867690969 -2.0943870544433274 -2.53073692321777 1.6697754290362354e-13 0.5236134529113778 0 2 0
19181.208 1.021405182655144e-13 -0.6108785867690969 -2.0943870544433274 -2.53073692321777 1.6697754290362354e-13 0.5236134529113778 -1.854150734570572e-18 -1.4102600185466093e-13 -6.352469333208435e-13 -6.676019199148153e-14 -1.0883485617578631e-17 -1.6684517725632377e-14 3.862814090442893e-17 0.0 0.0 0.0 2.267392872170387e-16 0.0 7.424656646994588e-17 -1.5214324378178459 2.062332610628201 0.25812468409399325 -0.11705297114519944 -1.4007644203923475e-30 7.373071617542601e-16 -15.108618295263751 20.480039361160784 2.0061321385443107 -0.9097298390919328 -1.0886671037068305e-29 1.021405182655144e-13 -0.6108785867690969 -2.0943870544433274 -2.53073692321777 1.6697754290362354e-13 0.5236134529113778 -1.854150734570572e-18 -1.4102600185466093e-13 -6.352469333208435e-13 -6.676019199148153e-14 -1.0883485617578631e-17 -1.6684517725632377e-14 7.424656646994588e-17 -1.5214324378178459 2.062332610628201 0.25812468409399325 -0.11705297114519944 -1.4007644203923475e-30 7.424656646994588e-17 -1.5214324378178459 2.062332610628201 0.25812468409399325 -0.11705297114519944 -1.4007644203923475e-30 0.0936604223893603 -0.23290000005331166 0.5221723520756242 1.2091996383074792 -1.2091994797401275 1.2091994794919643 1.2101885395726382e-13 -1.735990751380943e-19 -2.996218784950333e-13 -9.425294528170128e-18 8.597176448926151e-13 3.587907982239754e-18 0.0 0.0 0.0 0.0 0.0 0.0 0.0936604223893603 -0.23290000005331166 0.5221723520756242 1.2091996383074792 -1.2091994797401275 1.2091994794919643 1.2101885395726382e-13 -1.735990751380943e-19 -2.996218784950333e-13 -9.425294528170128e-18 8.597176448926151e-13 3.587907982239754e-18 0 25.5 25.0 24.5 24.0 23.5 23.5 0.812037 7 253 253 253 253 253 253 1 9.819999999999915 1.2877371298813944e-06 -2.0155356945967844e-09 1.0 1.0 0.0 48.0 1560907663.1613 1 1.021405182655144e-13 -0.6108785867690969 -2.0943870544433274 -2.53073692321777 1.6697754290362354e-13 0.5236134529113778 0 2 0
19181.218 1.021405182655144e-13 -0.6108785867690969 -2.0943870544433274 -2.53073692321777 1.6697754290362354e-13 0.5236134529113778 -1.5118238885492925e-18 -1.4102600185466093e-13 -6.352469333208435e-13 -6.676019199148153e-14 -8.874097041060285e-18 -1.6684517725632377e-14 3.1496331501449735e-17 0.0 0.0 0.0 1.8487702456260883e-16 0.0 7.287116216050704e-17 -1.5214324378178459 2.062332610628201 0.25812468409399325 -0.11705297114519944 -1.1421450658922545e-30 7.236486790004827e-16 -15.108618295263751 20.480039361160784 2.0061321385443107 -0.9097298390919328 -8.876694344861308e-30 1.021405182655144e-13 -0.6108785867690969 -2.0943870544433274 -2.53073692321777 1.6697754290362354e-13 0.5236134529113778 -1.5118238885492925e-18 -1.4102600185466093e-13 -6.352469333208435e-13 -6.676019199148153e-14 -8.874097041060285e-18 -1.6684517725632377e-14 7.287116216050704e-17 -1.5214324378178459 2.062332610628201 0.25812468409399325 -0.11705297114519944 -1.1421450658922545e-30 7.287116216050704e-17 -1.5214324378178459 2.062332610628201 0.25812468409399325 -0.11705297114519944 -1.1421450658922545e-30 0.0936604223893603 -0.23290000005331166 0.5221723520756242 1.2091996383074792 -1.2091994797401275 1.2091994794919643 1.2101883361506856e-13 -1.4153659810895173e-19 -2.996220518156341e-13 -7.685127852984117e-18 8.597176448926157e-13 2.9255147707253594e-18 0.0 0.0 0.0 0.0 0.0 0.0 0.0936604223893603 -0.23290000005331166 0.5221723520756242 1.2091996383074792 -1.2091994797401275 1.2091994794919643 1.2101883361506856e-13 -1.4153659810895173e-19 -2.996220518156341e-13 -7.685127852984117e-18 8.597176448926157e-13 2.9255147707253594e-18 0 25.5 25.0 24.5 24.0 23.5 23.5 0.663078 7 253 253 253 253 253 253 1 9.819999999999915 1.2877371298813944e-06 -2.0155356945967844e-09 1.0 1.0 0.0 48.0 1560907663.171948 1 1.021405182655144e-13 -0.6108785867690969 -2.0943870544433274 -2.53073692321777 1.6697754290362354e-13 0.5236134529113778 0 2 0
19181.228 1.021405182655144e-13 -0.6108785867690969 -2.0943870544433274 -2.53073692321777 1.6697754290362354e-13 0.5236134529113778 -1.2326999242192774e-18 -1.4102600185466093e-13 -6.352469333208435e-13 -6.676019199148153e-14 -7.235696454368096e-18 -1.6684517725632377e-14 2.5681248821511806e-17 0.0 0.0 0.0 1.507436784722824e-16 0.0 7.174969501621247e-17 -1.5214324378178459 2.062332610628201 0.25812468409399325 -0.11705297114519944 -9.312739048129978e-31 7.125119248517883e-16 -15.108618295263751 20.480039361160784 2.0061321385443107 -0.9097298390919328 -7.237814224511378e-30 1.021405182655144e-13 -0.6108785867690969 -2.0943870544433274 -2.53073692321777 1.6697754290362354e-13 0.5236134529113778 -1.2326999242192774e-18 -1.4102600185466093e-13 -6.352469333208435e-13 -6.676019199148153e-14 -7.235696454368096e-18 -1.6684517725632377e-14 7.174969501621247e-17 -1.5214324378178459 2.062332610628201 0.25812468409399325 -0.11705297114519944 -9.312739048129978e-31 7.174969501621247e-17 -1.5214324378178459 2.062332610628201 0.25812468409399325 -0.11705297114519944 -9.312739048129978e-31 0.0936604223893603 -0.23290000005331166 0.5221723520756242 1.2091996383074792 -1.2091994797401275 1.2091994794919643 1.210188170285979e-13 -1.1539372968180532e-19 -2.996221931365202e-13 -6.2662434545732215e-18 8.597176448926162e-13 2.3854174301447517e-18 0.0 0.0 0.0 0.0 0.0 0.0 0.0936604223893603 -0.23290000005331166 0.5221723520756242 1.2091996383074792 -1.2091994797401275 1.2091994794919643 1.210188170285979e-13 -1.1539372968180532e-19 -2.996221931365202e-13 -6.2662434545732215e-18 8.597176448926162e-13 2.3854174301447517e-18 0 25.5 25.0 24.5 24.0 23.5 23.5 0.6312129999999999 7 253 253 253 253 253 253 1 9.819999999999915 1.2877371298813944e-06 -2.0155356945967844e-09 1.0 1.0 0.0 48.0 1560907663.182585 1 1.021405182655144e-13 -0.6108785867690969 -2.0943870544433274 -2.53073692321777 1.6697754290362354e-13 0.5236134529113778 0 2 0
19181.237999999998 1.021405182655144e-13 -0.6108785867690969 -2.0943870544433274 -2.53073692321777 1.6697754290362354e-13 0.5236134529113778 -1.0051098641011624e-18 -1.4102600185466093e-13 -6.352469333208435e-13 -6.676019199148153e-14 -5.8997893461661066e-18 -1.6684517725632377e-14 2.093978916274009e-17 0.0 0.0 0.0 1.229122799540725e-16 0.0 7.083528130862274e-17 -1.5214324378178459 2.062332610628201 0.25812468409399325 -0.11705297114519944 -7.593353171316663e-31 7.03431319411467e-16 -15.108618295263751 20.480039361160784 2.0061321385443107 -0.9097298390919328 -5.9015161179814536e-30 1.021405182655144e-13 -0.6108785867690969 -2.0943870544433274 -2.53073692321777 1.6697754290362354e-13 0.5236134529113778 -1.0051098641011624e-18 -1.4102600185466093e-13 -6.352469333208435e-13 -6.676019199148153e-14 -5.8997893461661066e-18 -1.6684517725632377e-14 7.083528130862274e-17 -1.5214324378178459 2.062332610628201 0.25812468409399325 -0.11705297114519944 -7.593353171316663e-31 7.083528130862274e-17 -1.5214324378178459 2.062332610628201 0.25812468409399325 -0.11705297114519944 -7.593353171316663e-31 0.0936604223893603 -0.23290000005331166 0.5221723520756242 1.2091996383074792 -1.2091994797401275 1.2091994794919643 1.2101880350444254e-13 -9.407754849587334e-20 -2.996223083657125e-13 -5.109323853255885e-18 8.597176448926166e-13 1.945036803905795e-18 0.0 0.0 0.0 0.0 0.0 0.0 0.0936604223893603 -0.23290000005331166 0.5221723520756242 1.2091996383074792 -1.2091994797401275 1.2091994794919643 1.2101880350444254e-13 -9.407754849587334e-20 -2.996223083657125e-13 -5.109323853255885e-18 8.597176448926166e-13 1.945036803905795e-18 0 25.5 25.0 24.5 24.0 23.5 23.5 0.782999 7 253 253 253 253 253 253 1 9.819999999999915 1.2877371298813944e-06 -2.0155356945967844e-09 1.0 1.0 0.0 48.0 1560907663.193157 1 1.021405182655144e-13 -0.6108785867690969 -2.0943870544433274 -2.53073692321777 1.6697754290362354e-13 0.5236134529113778 0 2 0
